(.../Tools/pcb/gcode/pcb-gcode.ulp)
(Copyright 2005 - 2012 by John Johnson)
(See readme.txt for licensing terms.)
(This file generated from the board:)
(.../HeaterController/HeaterController.brd)
(Current profile is .../pcb/gcode/profiles/generic.pp  )
(This file generated 1/22/2017 11:33 AM)
(Settings from pcb-machine.h)
(spindle on time = 3.0000)
(  Tool Size)
(0.1000 )
(spindle speed = 30000.0000)
(tool change at 0.0000 0.0000 30.0000 )
(feed rate xy = F100.00 )
(feed rate z  = F200.00 )
(Z Axis Settings)
(  High     Up        Down     Drill)
(10.0000 	5.0000 	-0.1778 	-2.6000 )
(Settings from pcb-defaults.h)
(isolate min = 0.1000)
(isolate max = 0.2000)
(isolate step = 0.1000)
(Generated top outlines, top drill, bottom outlines, bottom drill, )
(Unit of measure: mm)
(Metric Mode)
G21
(Absolute Coordinates)
G90
S30000
G00 Z10.0000 
G00 X0.0000 Y0.0000 
M03
G04 P3.000000
G00 Z5.0000 
G00 X0.5609 Y14.7414 
G01 Z-0.1778 F200.00 
G01 X0.7714 Y14.5309 F100.00 
G01 X1.0041 Y14.3454 
G01 X1.2561 Y14.1870 
G01 X1.5243 Y14.0579 
G01 X1.8052 Y13.9596 
G01 X2.0954 Y13.8933 
G01 X2.3912 Y13.8600 
G01 X2.6888 Y13.8600 
G01 X2.9846 Y13.8933 
G01 X3.2748 Y13.9596 
G01 X3.5557 Y14.0579 
G01 X3.8239 Y14.1870 
G01 X4.0759 Y14.3454 
G01 X4.0943 Y14.3600 
G01 X7.9994 Y14.3600 
G01 X10.0094 Y12.3501 
G01 X10.2330 Y12.1785 
G01 X10.4770 Y12.0376 
G01 X10.7374 Y11.9297 
G01 X11.0097 Y11.8568 
G01 X11.2891 Y11.8200 
G01 X11.5709 Y11.8200 
G01 X11.8503 Y11.8568 
G01 X12.1226 Y11.9297 
G01 X12.3830 Y12.0376 
G01 X12.6270 Y12.1785 
G01 X12.8506 Y12.3501 
G01 X13.0499 Y12.5494 
G01 X13.2215 Y12.7730 
G01 X13.3624 Y13.0170 
G01 X13.4703 Y13.2774 
G01 X13.5432 Y13.5497 
G01 X13.5800 Y13.8291 
G01 X13.5800 Y14.1109 
G01 X13.5432 Y14.3903 
G01 X13.4703 Y14.6626 
G01 X13.3624 Y14.9230 
G01 X13.2215 Y15.1670 
G01 X13.0499 Y15.3906 
G01 X10.5099 Y17.9306 
G01 X10.3106 Y18.1299 
G01 X10.0870 Y18.3015 
G01 X9.8430 Y18.4424 
G01 X9.5826 Y18.5503 
G01 X9.3103 Y18.6232 
G01 X9.0309 Y18.6600 
G01 X4.0943 Y18.6600 
G01 X4.0759 Y18.6746 
G01 X3.8239 Y18.8330 
G01 X3.5557 Y18.9621 
G01 X3.2748 Y19.0604 
G01 X2.9846 Y19.1267 
G01 X2.6888 Y19.1600 
G01 X2.3912 Y19.1600 
G01 X2.0954 Y19.1267 
G01 X1.8052 Y19.0604 
G01 X1.5243 Y18.9621 
G01 X1.2561 Y18.8330 
G01 X1.0041 Y18.6746 
G01 X0.7714 Y18.4891 
G01 X0.5609 Y18.2786 
G01 X0.3754 Y18.0459 
G01 X0.2170 Y17.7939 
G01 X0.0879 Y17.5257 
G01 X-0.0104 Y17.2448 
G01 X-0.0767 Y16.9546 
G01 X-0.1100 Y16.6588 
G01 X-0.1100 Y16.3612 
G01 X-0.0767 Y16.0654 
G01 X-0.0104 Y15.7752 
G01 X0.0879 Y15.4943 
G01 X0.2170 Y15.2261 
G01 X0.3754 Y14.9741 
G01 X0.5609 Y14.7414 
G00 Z5.0000 
G00 X3.0609 Y21.2314 
G01 Z-0.1778 F200.00 
G01 X3.2714 Y21.0209 F100.00 
G01 X3.5041 Y20.8354 
G01 X3.7561 Y20.6770 
G01 X4.0243 Y20.5479 
G01 X4.3052 Y20.4496 
G01 X4.5954 Y20.3833 
G01 X4.8912 Y20.3500 
G01 X5.1888 Y20.3500 
G01 X5.4846 Y20.3833 
G01 X5.7748 Y20.4496 
G01 X6.0557 Y20.5479 
G01 X6.3239 Y20.6770 
G01 X6.3764 Y20.7100 
G01 X11.8094 Y20.7100 
G01 X17.6294 Y14.8901 
G01 X17.8530 Y14.7185 
G01 X18.0970 Y14.5776 
G01 X18.3574 Y14.4697 
G01 X18.6297 Y14.3968 
G01 X18.9091 Y14.3600 
G01 X27.0600 Y14.3600 
G01 X27.0600 Y7.4791 
G01 X27.0968 Y7.1997 
G01 X27.1697 Y6.9274 
G01 X27.2776 Y6.6670 
G01 X27.4185 Y6.4230 
G01 X27.5901 Y6.1994 
G01 X30.1301 Y3.6594 
G01 X30.3294 Y3.4601 
G01 X30.5530 Y3.2885 
G01 X30.7970 Y3.1476 
G01 X31.0574 Y3.0397 
G01 X31.3297 Y2.9668 
G01 X31.6091 Y2.9300 
G01 X66.1809 Y2.9300 
G01 X66.4603 Y2.9668 
G01 X66.7326 Y3.0397 
G01 X66.9930 Y3.1476 
G01 X67.2370 Y3.2885 
G01 X67.4606 Y3.4601 
G01 X74.5506 Y10.5500 
G01 X77.8494 Y10.5500 
G01 X79.6601 Y8.7394 
G01 X79.8594 Y8.5401 
G01 X80.0830 Y8.3685 
G01 X80.3270 Y8.2276 
G01 X80.5874 Y8.1197 
G01 X80.8597 Y8.0468 
G01 X81.1391 Y8.0100 
G01 X96.2357 Y8.0100 
G01 X96.2541 Y7.9954 
G01 X96.5061 Y7.8370 
G01 X96.7743 Y7.7079 
G01 X97.0552 Y7.6096 
G01 X97.3454 Y7.5433 
G01 X97.6412 Y7.5100 
G01 X97.9388 Y7.5100 
G01 X98.2346 Y7.5433 
G01 X98.5248 Y7.6096 
G01 X98.8057 Y7.7079 
G01 X99.0739 Y7.8370 
G01 X99.3259 Y7.9954 
G01 X99.5586 Y8.1809 
G01 X99.7691 Y8.3914 
G01 X99.9546 Y8.6241 
G01 X100.1130 Y8.8761 
G01 X100.2421 Y9.1443 
G01 X100.3404 Y9.4252 
G01 X100.4067 Y9.7154 
G01 X100.4400 Y10.0112 
G01 X100.4400 Y10.3088 
G01 X100.4067 Y10.6046 
G01 X100.3404 Y10.8948 
G01 X100.2421 Y11.1757 
G01 X100.1130 Y11.4439 
G01 X99.9546 Y11.6959 
G01 X99.7691 Y11.9286 
G01 X99.5586 Y12.1391 
G01 X99.3259 Y12.3246 
G01 X99.0739 Y12.4830 
G01 X98.8057 Y12.6121 
G01 X98.5248 Y12.7104 
G01 X98.2346 Y12.7767 
G01 X97.9388 Y12.8100 
G01 X97.6412 Y12.8100 
G01 X97.3454 Y12.7767 
G01 X97.0552 Y12.7104 
G01 X96.7743 Y12.6121 
G01 X96.5061 Y12.4830 
G01 X96.2541 Y12.3246 
G01 X96.2357 Y12.3100 
G01 X82.1706 Y12.3100 
G01 X80.1606 Y14.3199 
G01 X79.9370 Y14.4915 
G01 X79.6930 Y14.6324 
G01 X79.4326 Y14.7403 
G01 X79.1603 Y14.8132 
G01 X78.8809 Y14.8500 
G01 X73.5191 Y14.8500 
G01 X73.2397 Y14.8132 
G01 X72.9674 Y14.7403 
G01 X72.7070 Y14.6324 
G01 X72.4630 Y14.4915 
G01 X72.2394 Y14.3199 
G01 X65.1494 Y7.2300 
G01 X32.6406 Y7.2300 
G01 X31.3600 Y8.5106 
G01 X31.3600 Y16.6509 
G01 X31.3232 Y16.9303 
G01 X31.2503 Y17.2026 
G01 X31.1424 Y17.4630 
G01 X31.0015 Y17.7070 
G01 X30.8299 Y17.9306 
G01 X30.6306 Y18.1299 
G01 X30.4070 Y18.3015 
G01 X30.1630 Y18.4424 
G01 X29.9026 Y18.5503 
G01 X29.6303 Y18.6232 
G01 X29.3509 Y18.6600 
G01 X19.9406 Y18.6600 
G01 X14.3199 Y24.2806 
G01 X14.1206 Y24.4799 
G01 X13.8970 Y24.6515 
G01 X13.6530 Y24.7924 
G01 X13.3926 Y24.9003 
G01 X13.1203 Y24.9732 
G01 X12.8409 Y25.0100 
G01 X7.2300 Y25.0100 
G01 X7.2300 Y51.7211 
G01 X8.3655 Y55.1277 
G01 X8.3903 Y55.1874 
G01 X8.4101 Y55.2613 
G01 X8.4342 Y55.3338 
G01 X8.4465 Y55.3972 
G01 X8.4632 Y55.4597 
G01 X8.4732 Y55.5355 
G01 X8.4877 Y55.6105 
G01 X8.4916 Y55.6750 
G01 X8.5000 Y55.7391 
G01 X8.5000 Y55.8155 
G01 X8.5046 Y55.8918 
G01 X8.5000 Y55.9563 
G01 X8.5000 Y61.3394 
G01 X13.0499 Y65.8894 
G01 X13.2215 Y66.1130 
G01 X13.3624 Y66.3570 
G01 X13.4703 Y66.6174 
G01 X13.5432 Y66.8897 
G01 X13.5800 Y67.1691 
G01 X13.5800 Y78.4557 
G01 X13.5946 Y78.4741 
G01 X13.7530 Y78.7261 
G01 X13.8821 Y78.9943 
G01 X13.9804 Y79.2752 
G01 X14.0467 Y79.5654 
G01 X14.0800 Y79.8612 
G01 X14.0800 Y80.1588 
G01 X14.0467 Y80.4546 
G01 X13.9804 Y80.7448 
G01 X13.8821 Y81.0257 
G01 X13.7530 Y81.2939 
G01 X13.5946 Y81.5459 
G01 X13.4091 Y81.7786 
G01 X13.1986 Y81.9891 
G01 X12.9659 Y82.1746 
G01 X12.7139 Y82.3330 
G01 X12.4457 Y82.4621 
G01 X12.1648 Y82.5604 
G01 X11.8746 Y82.6267 
G01 X11.5788 Y82.6600 
G01 X11.2812 Y82.6600 
G01 X10.9854 Y82.6267 
G01 X10.6952 Y82.5604 
G01 X10.4143 Y82.4621 
G01 X10.1461 Y82.3330 
G01 X9.8941 Y82.1746 
G01 X9.6614 Y81.9891 
G01 X9.4509 Y81.7786 
G01 X9.2654 Y81.5459 
G01 X9.1070 Y81.2939 
G01 X8.9779 Y81.0257 
G01 X8.8796 Y80.7448 
G01 X8.8133 Y80.4546 
G01 X8.7800 Y80.1588 
G01 X8.7800 Y79.8612 
G01 X8.8133 Y79.5654 
G01 X8.8796 Y79.2752 
G01 X8.9779 Y78.9943 
G01 X9.1070 Y78.7261 
G01 X9.2654 Y78.4741 
G01 X9.2800 Y78.4557 
G01 X9.2800 Y68.2006 
G01 X4.7301 Y63.6506 
G01 X4.5585 Y63.4270 
G01 X4.4176 Y63.1830 
G01 X4.3097 Y62.9226 
G01 X4.2368 Y62.6503 
G01 X4.2000 Y62.3709 
G01 X4.2000 Y56.2289 
G01 X3.0645 Y52.8223 
G01 X3.0397 Y52.7626 
G01 X3.0199 Y52.6887 
G01 X2.9958 Y52.6162 
G01 X2.9835 Y52.5528 
G01 X2.9668 Y52.4903 
G01 X2.9568 Y52.4145 
G01 X2.9423 Y52.3395 
G01 X2.9384 Y52.2750 
G01 X2.9300 Y52.2109 
G01 X2.9300 Y52.1345 
G01 X2.9254 Y52.0581 
G01 X2.9300 Y51.9937 
G01 X2.9300 Y24.6044 
G01 X2.8754 Y24.5359 
G01 X2.7170 Y24.2839 
G01 X2.5879 Y24.0157 
G01 X2.4896 Y23.7348 
G01 X2.4233 Y23.4446 
G01 X2.3900 Y23.1488 
G01 X2.3900 Y22.8512 
G01 X2.4233 Y22.5554 
G01 X2.4896 Y22.2652 
G01 X2.5879 Y21.9843 
G01 X2.7170 Y21.7161 
G01 X2.8754 Y21.4641 
G01 X3.0609 Y21.2314 
G00 Z5.0000 
G00 X20.0732 Y21.3330 
G01 Z-0.1778 F200.00 
G01 X20.0892 Y21.3213 F100.00 
G01 X20.1031 Y21.3074 
G01 X20.1265 Y21.2939 
G01 X20.1482 Y21.2779 
G01 X20.1666 Y21.2707 
G01 X20.1837 Y21.2609 
G01 X20.2097 Y21.2539 
G01 X20.2348 Y21.2441 
G01 X20.2544 Y21.2419 
G01 X20.2735 Y21.2368 
G01 X20.3004 Y21.2368 
G01 X20.3272 Y21.2338 
G01 X20.3467 Y21.2368 
G01 X32.6668 Y21.2368 
G01 X32.6668 Y11.3835 
G01 X32.6909 Y11.2937 
G01 X32.7374 Y11.2131 
G01 X32.8031 Y11.1474 
G01 X33.7556 Y10.1949 
G01 X33.8362 Y10.1484 
G01 X33.9260 Y10.1243 
G01 X34.2114 Y10.1243 
G01 X34.2325 Y10.0592 
G01 X34.3104 Y9.9063 
G01 X34.4112 Y9.7675 
G01 X34.5325 Y9.6462 
G01 X34.6713 Y9.5454 
G01 X34.8242 Y9.4675 
G01 X34.9873 Y9.4145 
G01 X35.1567 Y9.3877 
G01 X35.3283 Y9.3877 
G01 X35.4977 Y9.4145 
G01 X35.6608 Y9.4675 
G01 X35.8137 Y9.5454 
G01 X35.9525 Y9.6462 
G01 X36.0737 Y9.7675 
G01 X36.1746 Y9.9063 
G01 X36.2525 Y10.0592 
G01 X36.3055 Y10.2223 
G01 X36.3323 Y10.3917 
G01 X36.3323 Y10.5633 
G01 X36.3055 Y10.7327 
G01 X36.2525 Y10.8958 
G01 X36.1746 Y11.0487 
G01 X36.0737 Y11.1875 
G01 X35.9525 Y11.3087 
G01 X35.8137 Y11.4096 
G01 X35.6608 Y11.4875 
G01 X35.4977 Y11.5405 
G01 X35.3283 Y11.5673 
G01 X35.1567 Y11.5673 
G01 X34.9873 Y11.5405 
G01 X34.8242 Y11.4875 
G01 X34.6713 Y11.4096 
G01 X34.5325 Y11.3087 
G01 X34.4112 Y11.1875 
G01 X34.3104 Y11.0487 
G01 X34.2325 Y10.8958 
G01 X34.2114 Y10.8307 
G01 X34.1188 Y10.8307 
G01 X33.3732 Y11.5763 
G01 X33.3732 Y21.2368 
G01 X35.7989 Y21.2368 
G01 X35.8200 Y21.1717 
G01 X35.8979 Y21.0188 
G01 X35.9987 Y20.8800 
G01 X36.1200 Y20.7587 
G01 X36.2588 Y20.6579 
G01 X36.4117 Y20.5800 
G01 X36.5748 Y20.5270 
G01 X36.7442 Y20.5002 
G01 X36.9158 Y20.5002 
G01 X37.0852 Y20.5270 
G01 X37.2483 Y20.5800 
G01 X37.4012 Y20.6579 
G01 X37.5400 Y20.7587 
G01 X37.6613 Y20.8800 
G01 X37.7621 Y21.0188 
G01 X37.8400 Y21.1717 
G01 X37.8930 Y21.3348 
G01 X37.9198 Y21.5042 
G01 X37.9198 Y21.6758 
G01 X37.8930 Y21.8452 
G01 X37.8400 Y22.0083 
G01 X37.7621 Y22.1612 
G01 X37.6613 Y22.3000 
G01 X37.5400 Y22.4213 
G01 X37.4012 Y22.5221 
G01 X37.2483 Y22.6000 
G01 X37.0852 Y22.6530 
G01 X36.9158 Y22.6798 
G01 X36.7442 Y22.6798 
G01 X36.5748 Y22.6530 
G01 X36.4117 Y22.6000 
G01 X36.2588 Y22.5221 
G01 X36.1200 Y22.4213 
G01 X35.9987 Y22.3000 
G01 X35.8979 Y22.1612 
G01 X35.8200 Y22.0083 
G01 X35.7989 Y21.9432 
G01 X20.4898 Y21.9432 
G01 X15.5932 Y28.0639 
G01 X15.5932 Y28.1388 
G01 X15.6730 Y28.1647 
G01 X15.8311 Y28.2453 
G01 X15.9748 Y28.3497 
G01 X16.1003 Y28.4752 
G01 X16.2047 Y28.6188 
G01 X16.2853 Y28.7770 
G01 X16.3401 Y28.9459 
G01 X16.3679 Y29.1212 
G01 X16.3679 Y29.2988 
G01 X16.3401 Y29.4741 
G01 X16.2853 Y29.6430 
G01 X16.2047 Y29.8011 
G01 X16.1003 Y29.9448 
G01 X15.9748 Y30.0703 
G01 X15.8311 Y30.1747 
G01 X15.6730 Y30.2553 
G01 X15.5932 Y30.2812 
G01 X15.5932 Y31.7965 
G01 X15.5691 Y31.8863 
G01 X15.5226 Y31.9669 
G01 X13.0532 Y34.4363 
G01 X13.0532 Y37.0689 
G01 X13.1183 Y37.0900 
G01 X13.2712 Y37.1679 
G01 X13.4100 Y37.2687 
G01 X13.5312 Y37.3900 
G01 X13.6321 Y37.5288 
G01 X13.7100 Y37.6817 
G01 X13.7630 Y37.8448 
G01 X13.7898 Y38.0142 
G01 X13.7898 Y38.1858 
G01 X13.7630 Y38.3552 
G01 X13.7100 Y38.5183 
G01 X13.6321 Y38.6712 
G01 X13.5312 Y38.8100 
G01 X13.4100 Y38.9312 
G01 X13.2712 Y39.0321 
G01 X13.1183 Y39.1100 
G01 X12.9552 Y39.1630 
G01 X12.7858 Y39.1898 
G01 X12.6142 Y39.1898 
G01 X12.4448 Y39.1630 
G01 X12.2817 Y39.1100 
G01 X12.1288 Y39.0321 
G01 X11.9900 Y38.9312 
G01 X11.8687 Y38.8100 
G01 X11.7679 Y38.6712 
G01 X11.6900 Y38.5183 
G01 X11.6370 Y38.3552 
G01 X11.6102 Y38.1858 
G01 X11.6102 Y38.0142 
G01 X11.6370 Y37.8448 
G01 X11.6900 Y37.6817 
G01 X11.7679 Y37.5288 
G01 X11.8687 Y37.3900 
G01 X11.9900 Y37.2687 
G01 X12.1288 Y37.1679 
G01 X12.2817 Y37.0900 
G01 X12.3468 Y37.0689 
G01 X12.3468 Y34.2435 
G01 X12.3709 Y34.1537 
G01 X12.4174 Y34.0731 
G01 X12.4831 Y34.0074 
G01 X14.8868 Y31.6037 
G01 X14.8868 Y30.2812 
G01 X14.8070 Y30.2553 
G01 X14.6488 Y30.1747 
G01 X14.5052 Y30.0703 
G01 X14.3797 Y29.9448 
G01 X14.2753 Y29.8011 
G01 X14.1947 Y29.6430 
G01 X14.1399 Y29.4741 
G01 X14.1121 Y29.2988 
G01 X14.1121 Y29.1212 
G01 X14.1399 Y28.9459 
G01 X14.1947 Y28.7770 
G01 X14.2753 Y28.6188 
G01 X14.3797 Y28.4752 
G01 X14.5052 Y28.3497 
G01 X14.6488 Y28.2453 
G01 X14.8070 Y28.1647 
G01 X14.8868 Y28.1388 
G01 X14.8868 Y27.9596 
G01 X14.8838 Y27.9328 
G01 X14.8868 Y27.9133 
G01 X14.8868 Y27.8935 
G01 X14.8938 Y27.8675 
G01 X14.8978 Y27.8408 
G01 X14.9058 Y27.8228 
G01 X14.9109 Y27.8037 
G01 X14.9243 Y27.7803 
G01 X14.9352 Y27.7557 
G01 X14.9475 Y27.7402 
G01 X14.9574 Y27.7231 
G01 X14.9764 Y27.7041 
G01 X20.0275 Y21.3902 
G01 X20.0374 Y21.3731 
G01 X20.0564 Y21.3541 
G01 X20.0732 Y21.3330 
G00 Z5.0000 
G00 X24.4697 Y28.4752 
G01 Z-0.1778 F200.00 
G01 X24.5952 Y28.3497 F100.00 
G01 X24.7388 Y28.2453 
G01 X24.8970 Y28.1647 
G01 X25.0659 Y28.1099 
G01 X25.2412 Y28.0821 
G01 X25.4188 Y28.0821 
G01 X25.5941 Y28.1099 
G01 X25.7630 Y28.1647 
G01 X25.9211 Y28.2453 
G01 X26.0648 Y28.3497 
G01 X26.1903 Y28.4752 
G01 X26.2947 Y28.6188 
G01 X26.3753 Y28.7770 
G01 X26.4301 Y28.9459 
G01 X26.4579 Y29.1212 
G01 X26.4579 Y29.2988 
G01 X26.4301 Y29.4741 
G01 X26.3753 Y29.6430 
G01 X26.2947 Y29.8011 
G01 X26.1903 Y29.9448 
G01 X26.0648 Y30.0703 
G01 X25.9211 Y30.1747 
G01 X25.7630 Y30.2553 
G01 X25.7532 Y30.2584 
G01 X25.7532 Y32.6668 
G01 X37.0422 Y32.6668 
G01 X37.0665 Y32.5919 
G01 X37.1462 Y32.4355 
G01 X37.2494 Y32.2935 
G01 X37.3735 Y32.1694 
G01 X37.5155 Y32.0662 
G01 X37.6719 Y31.9865 
G01 X37.8389 Y31.9323 
G01 X38.0122 Y31.9048 
G01 X38.1878 Y31.9048 
G01 X38.3611 Y31.9323 
G01 X38.5281 Y31.9865 
G01 X38.6845 Y32.0662 
G01 X38.8265 Y32.1694 
G01 X38.9506 Y32.2935 
G01 X39.0538 Y32.4355 
G01 X39.1335 Y32.5919 
G01 X39.1578 Y32.6668 
G01 X39.2237 Y32.6668 
G01 X41.5568 Y30.3337 
G01 X41.5568 Y19.0035 
G01 X41.5809 Y18.9137 
G01 X41.6274 Y18.8331 
G01 X41.6931 Y18.7674 
G01 X42.8268 Y17.6337 
G01 X42.8268 Y15.0011 
G01 X42.7617 Y14.9800 
G01 X42.6088 Y14.9021 
G01 X42.4700 Y14.8012 
G01 X42.3487 Y14.6800 
G01 X42.2479 Y14.5412 
G01 X42.1700 Y14.3883 
G01 X42.1170 Y14.2252 
G01 X42.0902 Y14.0558 
G01 X42.0902 Y13.8842 
G01 X42.1170 Y13.7148 
G01 X42.1700 Y13.5517 
G01 X42.2479 Y13.3988 
G01 X42.3487 Y13.2600 
G01 X42.4700 Y13.1387 
G01 X42.6088 Y13.0379 
G01 X42.7617 Y12.9600 
G01 X42.9248 Y12.9070 
G01 X43.0942 Y12.8802 
G01 X43.2658 Y12.8802 
G01 X43.4352 Y12.9070 
G01 X43.5983 Y12.9600 
G01 X43.7512 Y13.0379 
G01 X43.8900 Y13.1387 
G01 X44.0112 Y13.2600 
G01 X44.1121 Y13.3988 
G01 X44.1900 Y13.5517 
G01 X44.2111 Y13.6168 
G01 X48.6180 Y13.6168 
G01 X48.6180 Y13.1182 
G01 X48.6530 Y12.9420 
G01 X48.7218 Y12.7760 
G01 X48.8216 Y12.6266 
G01 X48.9486 Y12.4996 
G01 X49.0980 Y12.3998 
G01 X49.1768 Y12.3672 
G01 X49.1768 Y11.3835 
G01 X49.2009 Y11.2937 
G01 X49.2474 Y11.2131 
G01 X50.5174 Y9.9431 
G01 X50.5831 Y9.8774 
G01 X50.6637 Y9.8309 
G01 X50.7535 Y9.8068 
G01 X54.6565 Y9.8068 
G01 X54.7463 Y9.8309 
G01 X54.8269 Y9.8774 
G01 X55.8800 Y10.9305 
G01 X56.9331 Y9.8774 
G01 X57.0137 Y9.8309 
G01 X57.1035 Y9.8068 
G01 X63.5465 Y9.8068 
G01 X63.6363 Y9.8309 
G01 X63.7169 Y9.8774 
G01 X63.7826 Y9.9431 
G01 X64.9869 Y11.1474 
G01 X65.0526 Y11.2131 
G01 X65.0991 Y11.2937 
G01 X65.1232 Y11.3835 
G01 X65.1232 Y11.7880 
G01 X65.6218 Y11.7880 
G01 X65.7980 Y11.8230 
G01 X65.9640 Y11.8918 
G01 X66.1134 Y11.9916 
G01 X66.2404 Y12.1186 
G01 X66.3402 Y12.2680 
G01 X66.3728 Y12.3468 
G01 X67.2742 Y12.3468 
G01 X67.2847 Y12.3446 
G01 X67.3206 Y12.3468 
G01 X67.3565 Y12.3468 
G01 X67.3669 Y12.3496 
G01 X67.3776 Y12.3502 
G01 X67.4116 Y12.3616 
G01 X67.4463 Y12.3709 
G01 X67.4556 Y12.3762 
G01 X67.4658 Y12.3796 
G01 X67.4958 Y12.3994 
G01 X67.5269 Y12.4174 
G01 X67.5345 Y12.4250 
G01 X67.5434 Y12.4309 
G01 X67.5672 Y12.4577 
G01 X67.5926 Y12.4831 
G01 X67.5980 Y12.4924 
G01 X67.6051 Y12.5005 
G01 X67.6212 Y12.5325 
G01 X67.6391 Y12.5637 
G01 X67.6419 Y12.5740 
G01 X68.8912 Y15.0726 
G01 X68.9091 Y15.1037 
G01 X68.9119 Y15.1140 
G01 X68.9167 Y15.1236 
G01 X68.9239 Y15.1588 
G01 X68.9332 Y15.1935 
G01 X68.9332 Y15.2042 
G01 X68.9353 Y15.2147 
G01 X68.9332 Y15.2506 
G01 X68.9332 Y17.6337 
G01 X69.9963 Y18.6968 
G01 X81.2365 Y18.6968 
G01 X81.2394 Y18.6961 
G01 X81.2830 Y18.6968 
G01 X81.3265 Y18.6968 
G01 X81.3294 Y18.6976 
G01 X81.3324 Y18.6976 
G01 X81.3743 Y18.7096 
G01 X81.4163 Y18.7209 
G01 X81.4189 Y18.7224 
G01 X81.4218 Y18.7232 
G01 X81.4592 Y18.7456 
G01 X81.4969 Y18.7674 
G01 X87.8091 Y22.5556 
G01 X87.8469 Y22.5774 
G01 X87.8516 Y22.5811 
G01 X87.8818 Y22.6123 
G01 X87.9126 Y22.6431 
G01 X87.9141 Y22.6457 
G01 X87.9374 Y22.6860 
G01 X87.9591 Y22.7237 
G01 X87.9599 Y22.7266 
G01 X87.9614 Y22.7292 
G01 X87.9719 Y22.7715 
G01 X87.9832 Y22.8135 
G01 X87.9832 Y22.8165 
G01 X87.9839 Y22.8194 
G01 X87.9832 Y22.8630 
G01 X87.9832 Y26.8916 
G01 X87.9930 Y26.8947 
G01 X88.1511 Y26.9753 
G01 X88.2948 Y27.0797 
G01 X88.4203 Y27.2052 
G01 X88.5247 Y27.3488 
G01 X88.6053 Y27.5070 
G01 X88.6312 Y27.5868 
G01 X88.9465 Y27.5868 
G01 X89.0363 Y27.6109 
G01 X89.1169 Y27.6574 
G01 X91.6569 Y30.1974 
G01 X91.7226 Y30.2631 
G01 X91.7691 Y30.3437 
G01 X91.7932 Y30.4335 
G01 X91.7932 Y35.7989 
G01 X91.8583 Y35.8200 
G01 X92.0112 Y35.8979 
G01 X92.1500 Y35.9987 
G01 X92.2712 Y36.1200 
G01 X92.3721 Y36.2588 
G01 X92.4500 Y36.4117 
G01 X92.5030 Y36.5748 
G01 X92.5298 Y36.7442 
G01 X92.5298 Y36.9158 
G01 X92.5030 Y37.0852 
G01 X92.4500 Y37.2483 
G01 X92.3721 Y37.4012 
G01 X92.2712 Y37.5400 
G01 X92.1500 Y37.6613 
G01 X92.0112 Y37.7621 
G01 X91.8583 Y37.8400 
G01 X91.6952 Y37.8930 
G01 X91.5258 Y37.9198 
G01 X91.3542 Y37.9198 
G01 X91.1848 Y37.8930 
G01 X91.0217 Y37.8400 
G01 X90.8688 Y37.7621 
G01 X90.7300 Y37.6613 
G01 X90.6758 Y37.6070 
G01 X89.1092 Y38.3903 
G01 X87.8469 Y39.6526 
G01 X87.7663 Y39.6991 
G01 X87.6765 Y39.7232 
G01 X84.8511 Y39.7232 
G01 X84.8300 Y39.7883 
G01 X84.7521 Y39.9412 
G01 X84.6513 Y40.0800 
G01 X84.5300 Y40.2013 
G01 X84.3912 Y40.3021 
G01 X84.2383 Y40.3800 
G01 X84.1732 Y40.4011 
G01 X84.1732 Y48.3065 
G01 X84.1491 Y48.3963 
G01 X84.1026 Y48.4769 
G01 X82.8326 Y49.7469 
G01 X82.7669 Y49.8126 
G01 X82.6863 Y49.8591 
G01 X82.5965 Y49.8832 
G01 X81.1512 Y49.8832 
G01 X81.1253 Y49.9630 
G01 X81.0447 Y50.1211 
G01 X80.9403 Y50.2648 
G01 X80.8148 Y50.3903 
G01 X80.6711 Y50.4947 
G01 X80.5130 Y50.5753 
G01 X80.3441 Y50.6301 
G01 X80.1688 Y50.6579 
G01 X79.9912 Y50.6579 
G01 X79.8159 Y50.6301 
G01 X79.6470 Y50.5753 
G01 X79.5586 Y50.5302 
G01 X77.7181 Y52.3214 
G01 X75.2832 Y54.7563 
G01 X75.2832 Y60.7871 
G01 X75.4429 Y60.6949 
G01 X75.6498 Y60.6092 
G01 X75.8661 Y60.5512 
G01 X76.0880 Y60.5220 
G01 X76.3119 Y60.5220 
G01 X76.5339 Y60.5512 
G01 X76.7502 Y60.6092 
G01 X76.9570 Y60.6949 
G01 X77.1509 Y60.8068 
G01 X77.3286 Y60.9431 
G01 X77.4869 Y61.1014 
G01 X77.6232 Y61.2790 
G01 X77.7351 Y61.4729 
G01 X77.8208 Y61.6798 
G01 X77.8788 Y61.8961 
G01 X77.9080 Y62.1180 
G01 X77.9080 Y62.3419 
G01 X77.8788 Y62.5639 
G01 X77.8208 Y62.7802 
G01 X77.7351 Y62.9871 
G01 X77.6232 Y63.1809 
G01 X77.4869 Y63.3586 
G01 X77.3286 Y63.5169 
G01 X77.1509 Y63.6532 
G01 X76.9570 Y63.7651 
G01 X76.7502 Y63.8508 
G01 X76.5339 Y63.9088 
G01 X76.3119 Y63.9380 
G01 X76.0880 Y63.9380 
G01 X75.8661 Y63.9088 
G01 X75.6498 Y63.8508 
G01 X75.4429 Y63.7651 
G01 X75.2490 Y63.6532 
G01 X75.0714 Y63.5169 
G01 X74.9131 Y63.3586 
G01 X74.7768 Y63.1809 
G01 X74.6649 Y62.9871 
G01 X74.5792 Y62.7802 
G01 X74.5212 Y62.5639 
G01 X74.4920 Y62.3419 
G01 X74.4920 Y62.1180 
G01 X74.5212 Y61.8961 
G01 X74.5792 Y61.6798 
G01 X74.6649 Y61.4729 
G01 X74.7668 Y61.2963 
G01 X74.7404 Y61.2699 
G01 X74.7265 Y61.2560 
G01 X74.6531 Y61.1462 
G01 X74.6026 Y61.0241 
G01 X74.5768 Y60.8945 
G01 X74.5768 Y60.5427 
G01 X71.3369 Y63.7826 
G01 X71.2563 Y63.8291 
G01 X71.1665 Y63.8532 
G01 X69.6111 Y63.8532 
G01 X69.5900 Y63.9183 
G01 X69.5121 Y64.0712 
G01 X69.4112 Y64.2100 
G01 X69.2900 Y64.3312 
G01 X69.1512 Y64.4321 
G01 X68.9983 Y64.5100 
G01 X68.8352 Y64.5630 
G01 X68.6658 Y64.5898 
G01 X68.4942 Y64.5898 
G01 X68.3248 Y64.5630 
G01 X68.1617 Y64.5100 
G01 X68.0088 Y64.4321 
G01 X67.8700 Y64.3312 
G01 X67.7487 Y64.2100 
G01 X67.6479 Y64.0712 
G01 X67.5700 Y63.9183 
G01 X67.5170 Y63.7552 
G01 X67.4902 Y63.5858 
G01 X67.4902 Y63.4142 
G01 X67.5170 Y63.2448 
G01 X67.5700 Y63.0817 
G01 X67.6479 Y62.9288 
G01 X67.7487 Y62.7900 
G01 X67.8700 Y62.6687 
G01 X68.0088 Y62.5679 
G01 X68.1617 Y62.4900 
G01 X68.3248 Y62.4370 
G01 X68.4942 Y62.4102 
G01 X68.6658 Y62.4102 
G01 X68.8352 Y62.4370 
G01 X68.9983 Y62.4900 
G01 X69.1512 Y62.5679 
G01 X69.2900 Y62.6687 
G01 X69.4112 Y62.7900 
G01 X69.5121 Y62.9288 
G01 X69.5900 Y63.0817 
G01 X69.6111 Y63.1468 
G01 X70.9737 Y63.1468 
G01 X74.5768 Y59.5437 
G01 X74.5768 Y54.5635 
G01 X74.6009 Y54.4737 
G01 X74.6474 Y54.3931 
G01 X77.1891 Y51.8514 
G01 X77.2219 Y51.8186 
G01 X77.2531 Y51.7874 
G01 X79.0659 Y50.0241 
G01 X79.0347 Y49.9630 
G01 X78.9799 Y49.7941 
G01 X78.9521 Y49.6188 
G01 X78.9521 Y49.4412 
G01 X78.9799 Y49.2659 
G01 X79.0347 Y49.0970 
G01 X79.1153 Y48.9389 
G01 X79.2197 Y48.7952 
G01 X79.3452 Y48.6697 
G01 X79.4888 Y48.5653 
G01 X79.6470 Y48.4847 
G01 X79.8159 Y48.4299 
G01 X79.9912 Y48.4021 
G01 X80.1688 Y48.4021 
G01 X80.3441 Y48.4299 
G01 X80.5130 Y48.4847 
G01 X80.6711 Y48.5653 
G01 X80.8148 Y48.6697 
G01 X80.9403 Y48.7952 
G01 X81.0447 Y48.9389 
G01 X81.1253 Y49.0970 
G01 X81.1512 Y49.1768 
G01 X82.4037 Y49.1768 
G01 X83.4668 Y48.1137 
G01 X83.4668 Y40.4011 
G01 X83.4017 Y40.3800 
G01 X83.2488 Y40.3021 
G01 X83.1100 Y40.2013 
G01 X82.9887 Y40.0800 
G01 X82.8879 Y39.9412 
G01 X82.8100 Y39.7883 
G01 X82.7889 Y39.7232 
G01 X77.2311 Y39.7232 
G01 X77.2100 Y39.7883 
G01 X77.1321 Y39.9412 
G01 X77.0312 Y40.0800 
G01 X76.9100 Y40.2013 
G01 X76.7712 Y40.3021 
G01 X76.6183 Y40.3800 
G01 X76.4552 Y40.4330 
G01 X76.2858 Y40.4598 
G01 X76.1142 Y40.4598 
G01 X75.9448 Y40.4330 
G01 X75.7817 Y40.3800 
G01 X75.6288 Y40.3021 
G01 X75.4900 Y40.2013 
G01 X75.3687 Y40.0800 
G01 X75.2679 Y39.9412 
G01 X75.1900 Y39.7883 
G01 X75.1370 Y39.6252 
G01 X75.1102 Y39.4558 
G01 X75.1102 Y39.2842 
G01 X75.1370 Y39.1148 
G01 X75.1900 Y38.9517 
G01 X75.2679 Y38.7988 
G01 X75.3687 Y38.6600 
G01 X75.4900 Y38.5387 
G01 X75.6288 Y38.4379 
G01 X75.7817 Y38.3600 
G01 X75.9448 Y38.3070 
G01 X76.1142 Y38.2802 
G01 X76.2858 Y38.2802 
G01 X76.4552 Y38.3070 
G01 X76.6183 Y38.3600 
G01 X76.7712 Y38.4379 
G01 X76.9100 Y38.5387 
G01 X77.0312 Y38.6600 
G01 X77.1321 Y38.7988 
G01 X77.2100 Y38.9517 
G01 X77.2311 Y39.0168 
G01 X82.7889 Y39.0168 
G01 X82.8100 Y38.9517 
G01 X82.8879 Y38.7988 
G01 X82.9887 Y38.6600 
G01 X83.1100 Y38.5387 
G01 X83.2488 Y38.4379 
G01 X83.4017 Y38.3600 
G01 X83.5648 Y38.3070 
G01 X83.7342 Y38.2802 
G01 X83.9058 Y38.2802 
G01 X84.0752 Y38.3070 
G01 X84.2383 Y38.3600 
G01 X84.3912 Y38.4379 
G01 X84.5300 Y38.5387 
G01 X84.6513 Y38.6600 
G01 X84.7521 Y38.7988 
G01 X84.8300 Y38.9517 
G01 X84.8511 Y39.0168 
G01 X87.4837 Y39.0168 
G01 X88.6250 Y37.8755 
G01 X88.6309 Y37.8666 
G01 X88.6577 Y37.8428 
G01 X88.6831 Y37.8174 
G01 X88.6924 Y37.8120 
G01 X88.7005 Y37.8049 
G01 X88.7325 Y37.7888 
G01 X88.7637 Y37.7709 
G01 X88.7740 Y37.7681 
G01 X90.3596 Y36.9753 
G01 X90.3502 Y36.9158 
G01 X90.3502 Y36.7442 
G01 X90.3770 Y36.5748 
G01 X90.4300 Y36.4117 
G01 X90.5079 Y36.2588 
G01 X90.6087 Y36.1200 
G01 X90.7300 Y35.9987 
G01 X90.8688 Y35.8979 
G01 X91.0217 Y35.8200 
G01 X91.0868 Y35.7989 
G01 X91.0868 Y30.6263 
G01 X88.7537 Y28.2932 
G01 X88.6312 Y28.2932 
G01 X88.6053 Y28.3730 
G01 X88.5247 Y28.5311 
G01 X88.4203 Y28.6748 
G01 X88.2948 Y28.8003 
G01 X88.1511 Y28.9047 
G01 X87.9930 Y28.9853 
G01 X87.8241 Y29.0401 
G01 X87.6488 Y29.0679 
G01 X87.4712 Y29.0679 
G01 X87.2959 Y29.0401 
G01 X87.1270 Y28.9853 
G01 X86.9689 Y28.9047 
G01 X86.8252 Y28.8003 
G01 X86.6997 Y28.6748 
G01 X86.5953 Y28.5311 
G01 X86.5147 Y28.3730 
G01 X86.4599 Y28.2041 
G01 X86.4321 Y28.0288 
G01 X86.4321 Y27.8512 
G01 X86.4599 Y27.6759 
G01 X86.5147 Y27.5070 
G01 X86.5953 Y27.3488 
G01 X86.6997 Y27.2052 
G01 X86.8252 Y27.0797 
G01 X86.9689 Y26.9753 
G01 X87.1270 Y26.8947 
G01 X87.2768 Y26.8461 
G01 X87.2768 Y23.0600 
G01 X81.1822 Y19.4032 
G01 X69.8035 Y19.4032 
G01 X69.7137 Y19.3791 
G01 X69.6331 Y19.3326 
G01 X69.5674 Y19.2669 
G01 X68.2974 Y17.9969 
G01 X68.2509 Y17.9163 
G01 X68.2268 Y17.8265 
G01 X68.2268 Y15.3234 
G01 X67.0917 Y13.0532 
G01 X66.3728 Y13.0532 
G01 X66.3402 Y13.1320 
G01 X66.2404 Y13.2814 
G01 X66.1134 Y13.4084 
G01 X65.9640 Y13.5082 
G01 X65.7980 Y13.5770 
G01 X65.6218 Y13.6120 
G01 X63.9182 Y13.6120 
G01 X63.7420 Y13.5770 
G01 X63.5760 Y13.5082 
G01 X63.4266 Y13.4084 
G01 X63.2996 Y13.2814 
G01 X63.1998 Y13.1320 
G01 X63.1310 Y12.9660 
G01 X63.0960 Y12.7898 
G01 X63.0960 Y12.6102 
G01 X63.1310 Y12.4340 
G01 X63.1998 Y12.2680 
G01 X63.2996 Y12.1186 
G01 X63.4266 Y11.9916 
G01 X63.5760 Y11.8918 
G01 X63.7420 Y11.8230 
G01 X63.9182 Y11.7880 
G01 X64.4168 Y11.7880 
G01 X64.4168 Y11.5763 
G01 X63.3537 Y10.5132 
G01 X57.2963 Y10.5132 
G01 X56.2332 Y11.5763 
G01 X56.2332 Y12.3672 
G01 X56.3120 Y12.3998 
G01 X56.4614 Y12.4996 
G01 X56.5884 Y12.6266 
G01 X56.6882 Y12.7760 
G01 X56.7570 Y12.9420 
G01 X56.7920 Y13.1182 
G01 X56.7920 Y14.8218 
G01 X56.7570 Y14.9980 
G01 X56.6882 Y15.1640 
G01 X56.5884 Y15.3134 
G01 X56.4614 Y15.4404 
G01 X56.3120 Y15.5402 
G01 X56.1460 Y15.6090 
G01 X55.9698 Y15.6440 
G01 X55.7902 Y15.6440 
G01 X55.6140 Y15.6090 
G01 X55.4480 Y15.5402 
G01 X55.2986 Y15.4404 
G01 X55.1716 Y15.3134 
G01 X55.0718 Y15.1640 
G01 X55.0030 Y14.9980 
G01 X54.9680 Y14.8218 
G01 X54.9680 Y13.1182 
G01 X55.0030 Y12.9420 
G01 X55.0718 Y12.7760 
G01 X55.1716 Y12.6266 
G01 X55.2986 Y12.4996 
G01 X55.4480 Y12.3998 
G01 X55.5268 Y12.3672 
G01 X55.5268 Y11.5763 
G01 X54.4637 Y10.5132 
G01 X50.9463 Y10.5132 
G01 X49.8832 Y11.5763 
G01 X49.8832 Y12.3672 
G01 X49.9620 Y12.3998 
G01 X50.1114 Y12.4996 
G01 X50.2384 Y12.6266 
G01 X50.3382 Y12.7760 
G01 X50.4070 Y12.9420 
G01 X50.4420 Y13.1182 
G01 X50.4420 Y14.8218 
G01 X50.4070 Y14.9980 
G01 X50.3382 Y15.1640 
G01 X50.2384 Y15.3134 
G01 X50.1114 Y15.4404 
G01 X49.9620 Y15.5402 
G01 X49.7960 Y15.6090 
G01 X49.6198 Y15.6440 
G01 X49.4402 Y15.6440 
G01 X49.2640 Y15.6090 
G01 X49.0980 Y15.5402 
G01 X48.9486 Y15.4404 
G01 X48.8216 Y15.3134 
G01 X48.7218 Y15.1640 
G01 X48.6530 Y14.9980 
G01 X48.6180 Y14.8218 
G01 X48.6180 Y14.3232 
G01 X44.2111 Y14.3232 
G01 X44.1900 Y14.3883 
G01 X44.1121 Y14.5412 
G01 X44.0112 Y14.6800 
G01 X43.8900 Y14.8012 
G01 X43.7512 Y14.9021 
G01 X43.5983 Y14.9800 
G01 X43.5332 Y15.0011 
G01 X43.5332 Y17.8265 
G01 X43.5091 Y17.9163 
G01 X43.4626 Y17.9969 
G01 X43.3969 Y18.0626 
G01 X42.2632 Y19.1963 
G01 X42.2632 Y30.5265 
G01 X42.2391 Y30.6163 
G01 X42.1926 Y30.6969 
G01 X42.1269 Y30.7626 
G01 X39.5869 Y33.3026 
G01 X39.5063 Y33.3491 
G01 X39.4165 Y33.3732 
G01 X39.1578 Y33.3732 
G01 X39.1335 Y33.4481 
G01 X39.0538 Y33.6045 
G01 X38.9506 Y33.7465 
G01 X38.8265 Y33.8706 
G01 X38.6845 Y33.9738 
G01 X38.5281 Y34.0535 
G01 X38.3611 Y34.1077 
G01 X38.1878 Y34.1352 
G01 X38.0122 Y34.1352 
G01 X37.8389 Y34.1077 
G01 X37.6719 Y34.0535 
G01 X37.5155 Y33.9738 
G01 X37.3735 Y33.8706 
G01 X37.2494 Y33.7465 
G01 X37.1462 Y33.6045 
G01 X37.0665 Y33.4481 
G01 X37.0422 Y33.3732 
G01 X25.7532 Y33.3732 
G01 X25.7532 Y34.3365 
G01 X25.7291 Y34.4263 
G01 X25.6826 Y34.5069 
G01 X25.6169 Y34.5726 
G01 X21.8069 Y38.3826 
G01 X21.7263 Y38.4291 
G01 X21.6365 Y38.4532 
G01 X21.3511 Y38.4532 
G01 X21.3300 Y38.5183 
G01 X21.2521 Y38.6712 
G01 X21.1513 Y38.8100 
G01 X21.0300 Y38.9312 
G01 X20.8912 Y39.0321 
G01 X20.7383 Y39.1100 
G01 X20.5752 Y39.1630 
G01 X20.4058 Y39.1898 
G01 X20.2342 Y39.1898 
G01 X20.0648 Y39.1630 
G01 X19.9017 Y39.1100 
G01 X19.7488 Y39.0321 
G01 X19.6100 Y38.9312 
G01 X19.4887 Y38.8100 
G01 X19.3879 Y38.6712 
G01 X19.3100 Y38.5183 
G01 X19.2889 Y38.4532 
G01 X17.9263 Y38.4532 
G01 X15.4569 Y40.9226 
G01 X15.3763 Y40.9691 
G01 X15.2865 Y40.9932 
G01 X13.7311 Y40.9932 
G01 X13.7100 Y41.0583 
G01 X13.6321 Y41.2112 
G01 X13.5312 Y41.3500 
G01 X13.4100 Y41.4712 
G01 X13.2712 Y41.5721 
G01 X13.1183 Y41.6500 
G01 X13.0532 Y41.6711 
G01 X13.0532 Y46.9542 
G01 X13.0553 Y46.9647 
G01 X13.0532 Y47.0006 
G01 X13.0532 Y47.0365 
G01 X13.0504 Y47.0469 
G01 X13.0498 Y47.0576 
G01 X13.0384 Y47.0916 
G01 X13.0291 Y47.1263 
G01 X13.0238 Y47.1356 
G01 X13.0204 Y47.1458 
G01 X13.0006 Y47.1758 
G01 X12.9826 Y47.2069 
G01 X12.9750 Y47.2145 
G01 X12.9691 Y47.2234 
G01 X12.9423 Y47.2472 
G01 X12.9169 Y47.2726 
G01 X12.9076 Y47.2780 
G01 X12.8995 Y47.2851 
G01 X12.8675 Y47.3012 
G01 X12.8363 Y47.3191 
G01 X12.8260 Y47.3219 
G01 X10.5644 Y48.4527 
G01 X10.6630 Y48.4847 
G01 X10.8211 Y48.5653 
G01 X10.9648 Y48.6697 
G01 X11.0903 Y48.7952 
G01 X11.1947 Y48.9389 
G01 X11.2753 Y49.0970 
G01 X11.3301 Y49.2659 
G01 X11.3579 Y49.4412 
G01 X11.3579 Y49.6188 
G01 X11.3301 Y49.7941 
G01 X11.2753 Y49.9630 
G01 X11.1947 Y50.1211 
G01 X11.0903 Y50.2648 
G01 X10.9648 Y50.3903 
G01 X10.8211 Y50.4947 
G01 X10.6630 Y50.5753 
G01 X10.5832 Y50.6012 
G01 X10.5832 Y58.3437 
G01 X11.5763 Y59.3368 
G01 X28.1789 Y59.3368 
G01 X28.2000 Y59.2717 
G01 X28.2779 Y59.1188 
G01 X28.3787 Y58.9800 
G01 X28.5000 Y58.8587 
G01 X28.6388 Y58.7579 
G01 X28.7917 Y58.6800 
G01 X28.9548 Y58.6270 
G01 X29.1242 Y58.6002 
G01 X29.2958 Y58.6002 
G01 X29.4652 Y58.6270 
G01 X29.6283 Y58.6800 
G01 X29.7812 Y58.7579 
G01 X29.9200 Y58.8587 
G01 X30.0413 Y58.9800 
G01 X30.1421 Y59.1188 
G01 X30.2200 Y59.2717 
G01 X30.2730 Y59.4348 
G01 X30.2998 Y59.6042 
G01 X30.2998 Y59.7758 
G01 X30.2730 Y59.9452 
G01 X30.2200 Y60.1083 
G01 X30.1421 Y60.2612 
G01 X30.0413 Y60.4000 
G01 X29.9200 Y60.5213 
G01 X29.7812 Y60.6221 
G01 X29.6283 Y60.7000 
G01 X29.5632 Y60.7211 
G01 X29.5632 Y78.5937 
G01 X30.6263 Y79.6568 
G01 X47.3480 Y79.6568 
G01 X47.3480 Y79.1582 
G01 X47.3830 Y78.9820 
G01 X47.4518 Y78.8160 
G01 X47.5516 Y78.6666 
G01 X47.6786 Y78.5396 
G01 X47.8280 Y78.4398 
G01 X47.9940 Y78.3710 
G01 X48.1702 Y78.3360 
G01 X48.3498 Y78.3360 
G01 X48.5260 Y78.3710 
G01 X48.6920 Y78.4398 
G01 X48.8414 Y78.5396 
G01 X48.9684 Y78.6666 
G01 X49.0682 Y78.8160 
G01 X49.1369 Y78.9820 
G01 X49.1720 Y79.1582 
G01 X49.1720 Y80.8618 
G01 X49.1369 Y81.0380 
G01 X49.0682 Y81.2040 
G01 X48.9684 Y81.3534 
G01 X48.8414 Y81.4804 
G01 X48.6920 Y81.5802 
G01 X48.5260 Y81.6489 
G01 X48.3498 Y81.6840 
G01 X48.1702 Y81.6840 
G01 X47.9940 Y81.6489 
G01 X47.8280 Y81.5802 
G01 X47.6786 Y81.4804 
G01 X47.5516 Y81.3534 
G01 X47.4518 Y81.2040 
G01 X47.3830 Y81.0380 
G01 X47.3480 Y80.8618 
G01 X47.3480 Y80.3632 
G01 X30.5455 Y80.3632 
G01 X30.4159 Y80.3374 
G01 X30.2938 Y80.2869 
G01 X30.1840 Y80.2135 
G01 X30.1701 Y80.1996 
G01 X28.9931 Y79.0226 
G01 X28.9274 Y78.9569 
G01 X28.8809 Y78.8763 
G01 X28.8568 Y78.7865 
G01 X28.8568 Y60.7211 
G01 X28.7917 Y60.7000 
G01 X28.6388 Y60.6221 
G01 X28.5000 Y60.5213 
G01 X28.3787 Y60.4000 
G01 X28.2779 Y60.2612 
G01 X28.2000 Y60.1083 
G01 X28.1789 Y60.0432 
G01 X11.3835 Y60.0432 
G01 X11.2937 Y60.0191 
G01 X11.2131 Y59.9726 
G01 X11.1474 Y59.9069 
G01 X9.9474 Y58.7069 
G01 X9.9009 Y58.6263 
G01 X9.8768 Y58.5365 
G01 X9.8768 Y50.6012 
G01 X9.7970 Y50.5753 
G01 X9.6388 Y50.4947 
G01 X9.4952 Y50.3903 
G01 X9.3697 Y50.2648 
G01 X9.2653 Y50.1211 
G01 X9.1847 Y49.9630 
G01 X9.1299 Y49.7941 
G01 X9.1021 Y49.6188 
G01 X9.1021 Y49.4412 
G01 X9.1299 Y49.2659 
G01 X9.1847 Y49.0970 
G01 X9.2653 Y48.9389 
G01 X9.3697 Y48.7952 
G01 X9.4952 Y48.6697 
G01 X9.6388 Y48.5653 
G01 X9.7970 Y48.4847 
G01 X9.8068 Y48.4816 
G01 X9.8068 Y48.2958 
G01 X9.8047 Y48.2853 
G01 X9.8068 Y48.2494 
G01 X9.8068 Y48.2135 
G01 X9.8096 Y48.2031 
G01 X9.8102 Y48.1924 
G01 X9.8216 Y48.1584 
G01 X9.8309 Y48.1237 
G01 X9.8362 Y48.1144 
G01 X9.8396 Y48.1042 
G01 X9.8594 Y48.0742 
G01 X9.8774 Y48.0431 
G01 X9.8850 Y48.0355 
G01 X9.8909 Y48.0266 
G01 X9.9177 Y48.0028 
G01 X9.9431 Y47.9774 
G01 X9.9524 Y47.9720 
G01 X9.9605 Y47.9649 
G01 X9.9925 Y47.9488 
G01 X10.0237 Y47.9309 
G01 X10.0340 Y47.9281 
G01 X12.3468 Y46.7717 
G01 X12.3468 Y41.6711 
G01 X12.2817 Y41.6500 
G01 X12.1288 Y41.5721 
G01 X11.9900 Y41.4712 
G01 X11.8687 Y41.3500 
G01 X11.7679 Y41.2112 
G01 X11.6900 Y41.0583 
G01 X11.6370 Y40.8952 
G01 X11.6102 Y40.7258 
G01 X11.6102 Y40.5542 
G01 X11.6370 Y40.3848 
G01 X11.6900 Y40.2217 
G01 X11.7679 Y40.0688 
G01 X11.8687 Y39.9300 
G01 X11.9900 Y39.8087 
G01 X12.1288 Y39.7079 
G01 X12.2817 Y39.6300 
G01 X12.4448 Y39.5770 
G01 X12.6142 Y39.5502 
G01 X12.7858 Y39.5502 
G01 X12.9552 Y39.5770 
G01 X13.1183 Y39.6300 
G01 X13.2712 Y39.7079 
G01 X13.4100 Y39.8087 
G01 X13.5312 Y39.9300 
G01 X13.6321 Y40.0688 
G01 X13.7100 Y40.2217 
G01 X13.7311 Y40.2868 
G01 X15.0937 Y40.2868 
G01 X17.4974 Y37.8831 
G01 X17.5631 Y37.8174 
G01 X17.6437 Y37.7709 
G01 X17.7335 Y37.7468 
G01 X19.2889 Y37.7468 
G01 X19.3100 Y37.6817 
G01 X19.3879 Y37.5288 
G01 X19.4887 Y37.3900 
G01 X19.6100 Y37.2687 
G01 X19.7488 Y37.1679 
G01 X19.9017 Y37.0900 
G01 X20.0648 Y37.0370 
G01 X20.2342 Y37.0102 
G01 X20.4058 Y37.0102 
G01 X20.5752 Y37.0370 
G01 X20.7383 Y37.0900 
G01 X20.8912 Y37.1679 
G01 X21.0300 Y37.2687 
G01 X21.1513 Y37.3900 
G01 X21.2521 Y37.5288 
G01 X21.3300 Y37.6817 
G01 X21.3511 Y37.7468 
G01 X21.4437 Y37.7468 
G01 X25.0468 Y34.1437 
G01 X25.0468 Y30.3039 
G01 X24.8970 Y30.2553 
G01 X24.7388 Y30.1747 
G01 X24.5952 Y30.0703 
G01 X24.4697 Y29.9448 
G01 X24.3653 Y29.8011 
G01 X24.2847 Y29.6430 
G01 X24.2299 Y29.4741 
G01 X24.2021 Y29.2988 
G01 X24.2021 Y29.1212 
G01 X24.2299 Y28.9459 
G01 X24.2847 Y28.7770 
G01 X24.3653 Y28.6188 
G01 X24.4697 Y28.4752 
G00 Z5.0000 
G00 X27.1087 Y37.3900 
G01 Z-0.1778 F200.00 
G01 X27.2300 Y37.2687 F100.00 
G01 X27.3688 Y37.1679 
G01 X27.5217 Y37.0900 
G01 X27.6848 Y37.0370 
G01 X27.8542 Y37.0102 
G01 X28.0258 Y37.0102 
G01 X28.1952 Y37.0370 
G01 X28.3583 Y37.0900 
G01 X28.5112 Y37.1679 
G01 X28.6500 Y37.2687 
G01 X28.7712 Y37.3900 
G01 X28.8721 Y37.5288 
G01 X28.9500 Y37.6817 
G01 X29.0030 Y37.8448 
G01 X29.0298 Y38.0142 
G01 X29.0298 Y38.1858 
G01 X29.0030 Y38.3552 
G01 X28.9500 Y38.5183 
G01 X28.9189 Y38.5794 
G01 X30.7626 Y40.4231 
G01 X30.8091 Y40.5037 
G01 X30.8332 Y40.5935 
G01 X30.8332 Y46.8437 
G01 X31.8963 Y47.9068 
G01 X33.0665 Y47.9068 
G01 X33.1563 Y47.9309 
G01 X33.2369 Y47.9774 
G01 X33.3026 Y48.0431 
G01 X34.5726 Y49.3131 
G01 X34.6191 Y49.3937 
G01 X34.6432 Y49.4835 
G01 X34.6432 Y54.6565 
G01 X34.6191 Y54.7463 
G01 X34.5726 Y54.8269 
G01 X34.5069 Y54.8926 
G01 X32.0326 Y57.3669 
G01 X31.9669 Y57.4326 
G01 X31.8863 Y57.4791 
G01 X31.7965 Y57.5032 
G01 X30.2411 Y57.5032 
G01 X30.2200 Y57.5683 
G01 X30.1421 Y57.7212 
G01 X30.0413 Y57.8600 
G01 X29.9200 Y57.9813 
G01 X29.7812 Y58.0821 
G01 X29.6283 Y58.1600 
G01 X29.4652 Y58.2130 
G01 X29.2958 Y58.2398 
G01 X29.1242 Y58.2398 
G01 X28.9548 Y58.2130 
G01 X28.7917 Y58.1600 
G01 X28.6388 Y58.0821 
G01 X28.5000 Y57.9813 
G01 X28.3787 Y57.8600 
G01 X28.2779 Y57.7212 
G01 X28.2000 Y57.5683 
G01 X28.1470 Y57.4052 
G01 X28.1202 Y57.2358 
G01 X28.1202 Y57.0642 
G01 X28.1470 Y56.8948 
G01 X28.2000 Y56.7317 
G01 X28.2779 Y56.5788 
G01 X28.3787 Y56.4400 
G01 X28.5000 Y56.3187 
G01 X28.6388 Y56.2179 
G01 X28.7917 Y56.1400 
G01 X28.9548 Y56.0870 
G01 X29.1242 Y56.0602 
G01 X29.2958 Y56.0602 
G01 X29.4652 Y56.0870 
G01 X29.6283 Y56.1400 
G01 X29.7812 Y56.2179 
G01 X29.9200 Y56.3187 
G01 X30.0413 Y56.4400 
G01 X30.1421 Y56.5788 
G01 X30.2200 Y56.7317 
G01 X30.2411 Y56.7968 
G01 X31.6037 Y56.7968 
G01 X33.9368 Y54.4637 
G01 X33.9368 Y49.6763 
G01 X32.8737 Y48.6132 
G01 X31.7035 Y48.6132 
G01 X31.6137 Y48.5891 
G01 X31.5331 Y48.5426 
G01 X30.2631 Y47.2726 
G01 X30.1974 Y47.2069 
G01 X30.1509 Y47.1263 
G01 X30.1268 Y47.0365 
G01 X30.1268 Y40.7863 
G01 X28.4194 Y39.0789 
G01 X28.3583 Y39.1100 
G01 X28.1952 Y39.1630 
G01 X28.0258 Y39.1898 
G01 X27.8542 Y39.1898 
G01 X27.6848 Y39.1630 
G01 X27.5217 Y39.1100 
G01 X27.3688 Y39.0321 
G01 X27.2300 Y38.9312 
G01 X27.1087 Y38.8100 
G01 X27.0079 Y38.6712 
G01 X26.9300 Y38.5183 
G01 X26.8770 Y38.3552 
G01 X26.8502 Y38.1858 
G01 X26.8502 Y38.0142 
G01 X26.8770 Y37.8448 
G01 X26.9300 Y37.6817 
G01 X27.0079 Y37.5288 
G01 X27.1087 Y37.3900 
G00 Z5.0000 
G00 X32.1887 Y37.3900 
G01 Z-0.1778 F200.00 
G01 X32.3100 Y37.2687 F100.00 
G01 X32.4488 Y37.1679 
G01 X32.6017 Y37.0900 
G01 X32.7648 Y37.0370 
G01 X32.9342 Y37.0102 
G01 X33.1058 Y37.0102 
G01 X33.2752 Y37.0370 
G01 X33.4383 Y37.0900 
G01 X33.5912 Y37.1679 
G01 X33.7300 Y37.2687 
G01 X33.8513 Y37.3900 
G01 X33.9521 Y37.5288 
G01 X34.0300 Y37.6817 
G01 X34.0830 Y37.8448 
G01 X34.1098 Y38.0142 
G01 X34.1098 Y38.1858 
G01 X34.0830 Y38.3552 
G01 X34.0300 Y38.5183 
G01 X33.9521 Y38.6712 
G01 X33.8513 Y38.8100 
G01 X33.7300 Y38.9312 
G01 X33.5912 Y39.0321 
G01 X33.4383 Y39.1100 
G01 X33.2752 Y39.1630 
G01 X33.1058 Y39.1898 
G01 X32.9342 Y39.1898 
G01 X32.7648 Y39.1630 
G01 X32.6017 Y39.1100 
G01 X32.4488 Y39.0321 
G01 X32.3100 Y38.9312 
G01 X32.1887 Y38.8100 
G01 X32.0879 Y38.6712 
G01 X32.0100 Y38.5183 
G01 X31.9570 Y38.3552 
G01 X31.9302 Y38.1858 
G01 X31.9302 Y38.0142 
G01 X31.9570 Y37.8448 
G01 X32.0100 Y37.6817 
G01 X32.0879 Y37.5288 
G01 X32.1887 Y37.3900 
G00 Z5.0000 
G00 X37.2494 Y37.3735 
G01 Z-0.1778 F200.00 
G01 X37.3735 Y37.2494 F100.00 
G01 X37.5155 Y37.1462 
G01 X37.6719 Y37.0665 
G01 X37.8389 Y37.0123 
G01 X38.0122 Y36.9848 
G01 X38.1878 Y36.9848 
G01 X38.3611 Y37.0123 
G01 X38.5281 Y37.0665 
G01 X38.6845 Y37.1462 
G01 X38.8265 Y37.2494 
G01 X38.9506 Y37.3735 
G01 X39.0538 Y37.5155 
G01 X39.1335 Y37.6719 
G01 X39.1877 Y37.8389 
G01 X39.2152 Y38.0122 
G01 X39.2152 Y38.1878 
G01 X39.1877 Y38.3611 
G01 X39.1335 Y38.5281 
G01 X39.0538 Y38.6845 
G01 X38.9506 Y38.8265 
G01 X38.8265 Y38.9506 
G01 X38.6845 Y39.0538 
G01 X38.5281 Y39.1335 
G01 X38.3611 Y39.1877 
G01 X38.1878 Y39.2152 
G01 X38.0122 Y39.2152 
G01 X37.8389 Y39.1877 
G01 X37.6719 Y39.1335 
G01 X37.5155 Y39.0538 
G01 X37.3735 Y38.9506 
G01 X37.2494 Y38.8265 
G01 X37.1462 Y38.6845 
G01 X37.0665 Y38.5281 
G01 X37.0123 Y38.3611 
G01 X36.9848 Y38.1878 
G01 X36.9848 Y38.0122 
G01 X37.0123 Y37.8389 
G01 X37.0665 Y37.6719 
G01 X37.1462 Y37.5155 
G01 X37.2494 Y37.3735 
G00 Z5.0000 
G00 X37.3735 Y36.4106 
G01 Z-0.1778 F200.00 
G01 X37.2494 Y36.2865 F100.00 
G01 X37.1462 Y36.1445 
G01 X37.0665 Y35.9881 
G01 X37.0123 Y35.8211 
G01 X36.9848 Y35.6478 
G01 X36.9848 Y35.4722 
G01 X37.0123 Y35.2989 
G01 X37.0665 Y35.1319 
G01 X37.1462 Y34.9755 
G01 X37.2494 Y34.8335 
G01 X37.3735 Y34.7094 
G01 X37.5155 Y34.6062 
G01 X37.6719 Y34.5265 
G01 X37.8389 Y34.4723 
G01 X38.0122 Y34.4448 
G01 X38.1878 Y34.4448 
G01 X38.3611 Y34.4723 
G01 X38.5281 Y34.5265 
G01 X38.6845 Y34.6062 
G01 X38.8265 Y34.7094 
G01 X38.9506 Y34.8335 
G01 X39.0538 Y34.9755 
G01 X39.1335 Y35.1319 
G01 X39.1877 Y35.2989 
G01 X39.2152 Y35.4722 
G01 X39.2152 Y35.6478 
G01 X39.1877 Y35.8211 
G01 X39.1335 Y35.9881 
G01 X39.0538 Y36.1445 
G01 X38.9506 Y36.2865 
G01 X38.8265 Y36.4106 
G01 X38.6845 Y36.5138 
G01 X38.5281 Y36.5935 
G01 X38.3611 Y36.6477 
G01 X38.1878 Y36.6752 
G01 X38.0122 Y36.6752 
G01 X37.8389 Y36.6477 
G01 X37.6719 Y36.5935 
G01 X37.5155 Y36.5138 
G01 X37.3735 Y36.4106 
G00 Z5.0000 
G00 X37.3735 Y39.7894 
G01 Z-0.1778 F200.00 
G01 X37.5155 Y39.6862 F100.00 
G01 X37.6719 Y39.6065 
G01 X37.8389 Y39.5523 
G01 X38.0122 Y39.5248 
G01 X38.1878 Y39.5248 
G01 X38.3611 Y39.5523 
G01 X38.5281 Y39.6065 
G01 X38.6845 Y39.6862 
G01 X38.8265 Y39.7894 
G01 X38.9506 Y39.9135 
G01 X39.0538 Y40.0555 
G01 X39.1335 Y40.2119 
G01 X39.1877 Y40.3789 
G01 X39.2152 Y40.5522 
G01 X39.2152 Y40.7278 
G01 X39.1877 Y40.9011 
G01 X39.1335 Y41.0681 
G01 X39.0538 Y41.2245 
G01 X38.9506 Y41.3665 
G01 X38.8265 Y41.4906 
G01 X38.6845 Y41.5938 
G01 X38.5281 Y41.6735 
G01 X38.3611 Y41.7277 
G01 X38.1878 Y41.7552 
G01 X38.0122 Y41.7552 
G01 X37.8389 Y41.7277 
G01 X37.6719 Y41.6735 
G01 X37.5155 Y41.5938 
G01 X37.3735 Y41.4906 
G01 X37.2494 Y41.3665 
G01 X37.1462 Y41.2245 
G01 X37.0665 Y41.0681 
G01 X37.0123 Y40.9011 
G01 X36.9848 Y40.7278 
G01 X36.9848 Y40.5522 
G01 X37.0123 Y40.3789 
G01 X37.0665 Y40.2119 
G01 X37.1462 Y40.0555 
G01 X37.2494 Y39.9135 
G01 X37.3735 Y39.7894 
G00 Z5.0000 
G00 X37.3735 Y42.3294 
G01 Z-0.1778 F200.00 
G01 X37.5155 Y42.2262 F100.00 
G01 X37.6719 Y42.1465 
G01 X37.8389 Y42.0923 
G01 X38.0122 Y42.0648 
G01 X38.1878 Y42.0648 
G01 X38.3611 Y42.0923 
G01 X38.5281 Y42.1465 
G01 X38.6845 Y42.2262 
G01 X38.8265 Y42.3294 
G01 X38.9506 Y42.4535 
G01 X39.0538 Y42.5955 
G01 X39.1335 Y42.7519 
G01 X39.1877 Y42.9189 
G01 X39.2152 Y43.0922 
G01 X39.2152 Y43.2678 
G01 X39.1877 Y43.4411 
G01 X39.1335 Y43.6081 
G01 X39.0538 Y43.7645 
G01 X38.9506 Y43.9065 
G01 X38.8265 Y44.0306 
G01 X38.6845 Y44.1338 
G01 X38.5281 Y44.2135 
G01 X38.3611 Y44.2677 
G01 X38.1878 Y44.2952 
G01 X38.0122 Y44.2952 
G01 X37.8389 Y44.2677 
G01 X37.6719 Y44.2135 
G01 X37.5155 Y44.1338 
G01 X37.3735 Y44.0306 
G01 X37.2494 Y43.9065 
G01 X37.1462 Y43.7645 
G01 X37.0665 Y43.6081 
G01 X37.0123 Y43.4411 
G01 X36.9848 Y43.2678 
G01 X36.9848 Y43.0922 
G01 X37.0123 Y42.9189 
G01 X37.0665 Y42.7519 
G01 X37.1462 Y42.5955 
G01 X37.2494 Y42.4535 
G01 X37.3735 Y42.3294 
G00 Z5.0000 
G00 X37.3735 Y44.8694 
G01 Z-0.1778 F200.00 
G01 X37.5155 Y44.7662 F100.00 
G01 X37.6719 Y44.6865 
G01 X37.8389 Y44.6323 
G01 X38.0122 Y44.6048 
G01 X38.1878 Y44.6048 
G01 X38.3611 Y44.6323 
G01 X38.5281 Y44.6865 
G01 X38.6845 Y44.7662 
G01 X38.8265 Y44.8694 
G01 X38.9506 Y44.9935 
G01 X39.0538 Y45.1355 
G01 X39.1335 Y45.2919 
G01 X39.1578 Y45.3668 
G01 X40.6370 Y45.3668 
G01 X40.6806 Y45.3661 
G01 X40.6835 Y45.3668 
G01 X40.6865 Y45.3668 
G01 X40.7286 Y45.3781 
G01 X45.7635 Y46.6368 
G01 X45.7665 Y46.6368 
G01 X45.8085 Y46.6480 
G01 X45.8508 Y46.6586 
G01 X45.8534 Y46.6601 
G01 X45.8563 Y46.6609 
G01 X45.8940 Y46.6826 
G01 X45.9321 Y46.7038 
G01 X45.9369 Y46.7074 
G01 X45.9677 Y46.7382 
G01 X45.9989 Y46.7684 
G01 X46.0005 Y46.7710 
G01 X46.0244 Y46.8108 
G01 X46.0468 Y46.8481 
G01 X46.0476 Y46.8511 
G01 X46.0491 Y46.8537 
G01 X46.0604 Y46.8957 
G01 X46.0724 Y46.9376 
G01 X46.0724 Y46.9406 
G01 X46.0732 Y46.9435 
G01 X46.0732 Y46.9870 
G01 X46.0739 Y47.0306 
G01 X46.0732 Y47.0335 
G01 X46.0732 Y74.3193 
G01 X46.1688 Y74.3832 
G01 X46.2668 Y74.4812 
G01 X46.3439 Y74.5965 
G01 X46.3969 Y74.7246 
G01 X46.4240 Y74.8607 
G01 X46.4240 Y74.9993 
G01 X46.3969 Y75.1353 
G01 X46.3439 Y75.2635 
G01 X46.2668 Y75.3788 
G01 X46.1688 Y75.4768 
G01 X46.0535 Y75.5539 
G01 X45.9253 Y75.6069 
G01 X45.7893 Y75.6340 
G01 X45.6507 Y75.6340 
G01 X45.5147 Y75.6069 
G01 X45.3865 Y75.5539 
G01 X45.2712 Y75.4768 
G01 X45.1732 Y75.3788 
G01 X45.0961 Y75.2635 
G01 X45.0431 Y75.1353 
G01 X45.0160 Y74.9993 
G01 X45.0160 Y74.8607 
G01 X45.0431 Y74.7246 
G01 X45.0961 Y74.5965 
G01 X45.1732 Y74.4812 
G01 X45.2712 Y74.3832 
G01 X45.3668 Y74.3193 
G01 X45.3668 Y47.2658 
G01 X40.5965 Y46.0732 
G01 X39.1578 Y46.0732 
G01 X39.1335 Y46.1481 
G01 X39.0538 Y46.3045 
G01 X38.9506 Y46.4465 
G01 X38.8265 Y46.5706 
G01 X38.6845 Y46.6738 
G01 X38.5281 Y46.7535 
G01 X38.3611 Y46.8077 
G01 X38.1878 Y46.8352 
G01 X38.0122 Y46.8352 
G01 X37.8389 Y46.8077 
G01 X37.6719 Y46.7535 
G01 X37.5155 Y46.6738 
G01 X37.3735 Y46.5706 
G01 X37.2494 Y46.4465 
G01 X37.1462 Y46.3045 
G01 X37.0665 Y46.1481 
G01 X37.0123 Y45.9811 
G01 X36.9848 Y45.8078 
G01 X36.9848 Y45.6322 
G01 X37.0123 Y45.4589 
G01 X37.0665 Y45.2919 
G01 X37.1462 Y45.1355 
G01 X37.2494 Y44.9935 
G01 X37.3735 Y44.8694 
G00 Z5.0000 
G00 X37.3735 Y47.4094 
G01 Z-0.1778 F200.00 
G01 X37.5155 Y47.3062 F100.00 
G01 X37.6719 Y47.2265 
G01 X37.8389 Y47.1723 
G01 X38.0122 Y47.1448 
G01 X38.1878 Y47.1448 
G01 X38.3611 Y47.1723 
G01 X38.5281 Y47.2265 
G01 X38.6845 Y47.3062 
G01 X38.8265 Y47.4094 
G01 X38.9506 Y47.5335 
G01 X39.0538 Y47.6755 
G01 X39.1335 Y47.8319 
G01 X39.1877 Y47.9989 
G01 X39.2152 Y48.1722 
G01 X39.2152 Y48.3478 
G01 X39.1877 Y48.5211 
G01 X39.1335 Y48.6881 
G01 X39.0538 Y48.8445 
G01 X38.9506 Y48.9865 
G01 X38.8265 Y49.1106 
G01 X38.6845 Y49.2138 
G01 X38.5281 Y49.2935 
G01 X38.3611 Y49.3477 
G01 X38.1878 Y49.3752 
G01 X38.0122 Y49.3752 
G01 X37.8389 Y49.3477 
G01 X37.6719 Y49.2935 
G01 X37.5155 Y49.2138 
G01 X37.3735 Y49.1106 
G01 X37.2494 Y48.9865 
G01 X37.1462 Y48.8445 
G01 X37.0665 Y48.6881 
G01 X37.0123 Y48.5211 
G01 X36.9848 Y48.3478 
G01 X36.9848 Y48.1722 
G01 X37.0123 Y47.9989 
G01 X37.0665 Y47.8319 
G01 X37.1462 Y47.6755 
G01 X37.2494 Y47.5335 
G01 X37.3735 Y47.4094 
G00 Z5.0000 
G00 X37.3735 Y49.9494 
G01 Z-0.1778 F200.00 
G01 X37.5155 Y49.8462 F100.00 
G01 X37.6719 Y49.7665 
G01 X37.8389 Y49.7123 
G01 X38.0122 Y49.6848 
G01 X38.1878 Y49.6848 
G01 X38.3611 Y49.7123 
G01 X38.5281 Y49.7665 
G01 X38.6845 Y49.8462 
G01 X38.8265 Y49.9494 
G01 X38.9506 Y50.0735 
G01 X39.0538 Y50.2155 
G01 X39.1335 Y50.3719 
G01 X39.1877 Y50.5389 
G01 X39.2152 Y50.7122 
G01 X39.2152 Y50.8878 
G01 X39.1877 Y51.0611 
G01 X39.1335 Y51.2281 
G01 X39.0538 Y51.3845 
G01 X38.9506 Y51.5265 
G01 X38.8265 Y51.6506 
G01 X38.6845 Y51.7538 
G01 X38.5281 Y51.8335 
G01 X38.3611 Y51.8877 
G01 X38.1878 Y51.9152 
G01 X38.0122 Y51.9152 
G01 X37.8389 Y51.8877 
G01 X37.6719 Y51.8335 
G01 X37.5155 Y51.7538 
G01 X37.3735 Y51.6506 
G01 X37.2494 Y51.5265 
G01 X37.1462 Y51.3845 
G01 X37.0665 Y51.2281 
G01 X37.0123 Y51.0611 
G01 X36.9848 Y50.8878 
G01 X36.9848 Y50.7122 
G01 X37.0123 Y50.5389 
G01 X37.0665 Y50.3719 
G01 X37.1462 Y50.2155 
G01 X37.2494 Y50.0735 
G01 X37.3735 Y49.9494 
G00 Z5.0000 
G00 X37.3735 Y52.4894 
G01 Z-0.1778 F200.00 
G01 X37.5155 Y52.3862 F100.00 
G01 X37.6719 Y52.3065 
G01 X37.8389 Y52.2523 
G01 X38.0122 Y52.2248 
G01 X38.1878 Y52.2248 
G01 X38.3611 Y52.2523 
G01 X38.5281 Y52.3065 
G01 X38.6845 Y52.3862 
G01 X38.8265 Y52.4894 
G01 X38.9506 Y52.6135 
G01 X39.0538 Y52.7555 
G01 X39.1335 Y52.9119 
G01 X39.1877 Y53.0789 
G01 X39.2152 Y53.2522 
G01 X39.2152 Y53.4278 
G01 X39.1877 Y53.6011 
G01 X39.1335 Y53.7681 
G01 X39.0538 Y53.9245 
G01 X38.9506 Y54.0665 
G01 X38.8265 Y54.1906 
G01 X38.6845 Y54.2938 
G01 X38.5281 Y54.3735 
G01 X38.3611 Y54.4277 
G01 X38.1878 Y54.4552 
G01 X38.0122 Y54.4552 
G01 X37.8389 Y54.4277 
G01 X37.6719 Y54.3735 
G01 X37.5155 Y54.2938 
G01 X37.3735 Y54.1906 
G01 X37.2494 Y54.0665 
G01 X37.1462 Y53.9245 
G01 X37.0665 Y53.7681 
G01 X37.0123 Y53.6011 
G01 X36.9848 Y53.4278 
G01 X36.9848 Y53.2522 
G01 X37.0123 Y53.0789 
G01 X37.0665 Y52.9119 
G01 X37.1462 Y52.7555 
G01 X37.2494 Y52.6135 
G01 X37.3735 Y52.4894 
G00 Z5.0000 
G00 X37.3735 Y55.0294 
G01 Z-0.1778 F200.00 
G01 X37.5155 Y54.9262 F100.00 
G01 X37.6719 Y54.8465 
G01 X37.8389 Y54.7923 
G01 X38.0122 Y54.7648 
G01 X38.1878 Y54.7648 
G01 X38.3611 Y54.7923 
G01 X38.5281 Y54.8465 
G01 X38.6845 Y54.9262 
G01 X38.8265 Y55.0294 
G01 X38.9506 Y55.1535 
G01 X39.0538 Y55.2955 
G01 X39.1335 Y55.4519 
G01 X39.1877 Y55.6189 
G01 X39.2152 Y55.7922 
G01 X39.2152 Y55.9678 
G01 X39.1877 Y56.1411 
G01 X39.1335 Y56.3081 
G01 X39.0538 Y56.4645 
G01 X38.9506 Y56.6065 
G01 X38.8265 Y56.7306 
G01 X38.6845 Y56.8338 
G01 X38.5281 Y56.9135 
G01 X38.3611 Y56.9677 
G01 X38.1878 Y56.9952 
G01 X38.0122 Y56.9952 
G01 X37.8389 Y56.9677 
G01 X37.6719 Y56.9135 
G01 X37.5155 Y56.8338 
G01 X37.3735 Y56.7306 
G01 X37.2494 Y56.6065 
G01 X37.1462 Y56.4645 
G01 X37.0665 Y56.3081 
G01 X37.0123 Y56.1411 
G01 X36.9848 Y55.9678 
G01 X36.9848 Y55.7922 
G01 X37.0123 Y55.6189 
G01 X37.0665 Y55.4519 
G01 X37.1462 Y55.2955 
G01 X37.2494 Y55.1535 
G01 X37.3735 Y55.0294 
G00 Z5.0000 
G00 X37.3735 Y57.5694 
G01 Z-0.1778 F200.00 
G01 X37.5155 Y57.4662 F100.00 
G01 X37.6719 Y57.3865 
G01 X37.8389 Y57.3323 
G01 X38.0122 Y57.3048 
G01 X38.1878 Y57.3048 
G01 X38.3611 Y57.3323 
G01 X38.5281 Y57.3865 
G01 X38.6845 Y57.4662 
G01 X38.8265 Y57.5694 
G01 X38.9506 Y57.6935 
G01 X39.0538 Y57.8355 
G01 X39.1335 Y57.9919 
G01 X39.1578 Y58.0668 
G01 X40.5745 Y58.0668 
G01 X40.7041 Y58.0926 
G01 X40.8262 Y58.1431 
G01 X40.9360 Y58.2165 
G01 X40.9402 Y58.2207 
G01 X43.3033 Y59.3574 
G01 X43.3163 Y59.3609 
G01 X43.3451 Y59.3775 
G01 X43.3750 Y59.3919 
G01 X43.3852 Y59.4006 
G01 X43.3969 Y59.4074 
G01 X43.4204 Y59.4309 
G01 X43.4455 Y59.4525 
G01 X43.4531 Y59.4636 
G01 X43.4626 Y59.4731 
G01 X43.4792 Y59.5019 
G01 X43.4979 Y59.5293 
G01 X43.5024 Y59.5420 
G01 X43.5091 Y59.5537 
G01 X43.5177 Y59.5857 
G01 X43.5287 Y59.6171 
G01 X43.5297 Y59.6305 
G01 X43.5332 Y59.6435 
G01 X43.5332 Y59.6767 
G01 X43.5357 Y59.7098 
G01 X43.5332 Y59.7230 
G01 X43.5332 Y74.7837 
G01 X44.5963 Y75.8468 
G01 X52.0045 Y75.8468 
G01 X52.1341 Y75.8726 
G01 X52.2562 Y75.9231 
G01 X52.3660 Y75.9965 
G01 X52.3799 Y76.0104 
G01 X53.5569 Y77.1874 
G01 X53.6226 Y77.2531 
G01 X53.6691 Y77.3337 
G01 X53.6932 Y77.4235 
G01 X53.6932 Y78.4072 
G01 X53.7720 Y78.4398 
G01 X53.9214 Y78.5396 
G01 X54.0484 Y78.6666 
G01 X54.1482 Y78.8160 
G01 X54.2169 Y78.9820 
G01 X54.2520 Y79.1582 
G01 X54.2520 Y80.8618 
G01 X54.2169 Y81.0380 
G01 X54.1482 Y81.2040 
G01 X54.0484 Y81.3534 
G01 X53.9214 Y81.4804 
G01 X53.7720 Y81.5802 
G01 X53.6060 Y81.6489 
G01 X53.4298 Y81.6840 
G01 X53.2502 Y81.6840 
G01 X53.0740 Y81.6489 
G01 X52.9080 Y81.5802 
G01 X52.7586 Y81.4804 
G01 X52.6316 Y81.3534 
G01 X52.5318 Y81.2040 
G01 X52.4630 Y81.0380 
G01 X52.4280 Y80.8618 
G01 X52.4280 Y79.1582 
G01 X52.4630 Y78.9820 
G01 X52.5318 Y78.8160 
G01 X52.6316 Y78.6666 
G01 X52.7586 Y78.5396 
G01 X52.9080 Y78.4398 
G01 X52.9868 Y78.4072 
G01 X52.9868 Y77.6163 
G01 X51.9237 Y76.5532 
G01 X44.4035 Y76.5532 
G01 X44.3137 Y76.5291 
G01 X44.2331 Y76.4826 
G01 X44.1674 Y76.4169 
G01 X42.9904 Y75.2399 
G01 X42.9765 Y75.2260 
G01 X42.9031 Y75.1162 
G01 X42.8526 Y74.9941 
G01 X42.8268 Y74.8645 
G01 X42.8268 Y59.9120 
G01 X40.6097 Y58.8456 
G01 X40.5967 Y58.8421 
G01 X40.5679 Y58.8255 
G01 X40.5380 Y58.8111 
G01 X40.5278 Y58.8024 
G01 X40.5161 Y58.7956 
G01 X40.4937 Y58.7732 
G01 X39.1578 Y58.7732 
G01 X39.1335 Y58.8481 
G01 X39.0538 Y59.0045 
G01 X38.9506 Y59.1465 
G01 X38.8265 Y59.2706 
G01 X38.6845 Y59.3738 
G01 X38.5281 Y59.4535 
G01 X38.3611 Y59.5077 
G01 X38.1878 Y59.5352 
G01 X38.0122 Y59.5352 
G01 X37.8389 Y59.5077 
G01 X37.6719 Y59.4535 
G01 X37.5155 Y59.3738 
G01 X37.3735 Y59.2706 
G01 X37.2494 Y59.1465 
G01 X37.1462 Y59.0045 
G01 X37.0665 Y58.8481 
G01 X37.0123 Y58.6811 
G01 X36.9848 Y58.5078 
G01 X36.9848 Y58.3322 
G01 X37.0123 Y58.1589 
G01 X37.0665 Y57.9919 
G01 X37.1462 Y57.8355 
G01 X37.2494 Y57.6935 
G01 X37.3735 Y57.5694 
G00 Z5.0000 
G00 X37.3735 Y60.1094 
G01 Z-0.1778 F200.00 
G01 X37.5155 Y60.0062 F100.00 
G01 X37.6719 Y59.9265 
G01 X37.8389 Y59.8723 
G01 X38.0122 Y59.8448 
G01 X38.1878 Y59.8448 
G01 X38.3611 Y59.8723 
G01 X38.5281 Y59.9265 
G01 X38.6845 Y60.0062 
G01 X38.8265 Y60.1094 
G01 X38.9506 Y60.2335 
G01 X39.0538 Y60.3755 
G01 X39.1335 Y60.5319 
G01 X39.1578 Y60.6068 
G01 X39.3045 Y60.6068 
G01 X39.4341 Y60.6326 
G01 X39.5562 Y60.6831 
G01 X39.6660 Y60.7565 
G01 X39.6702 Y60.7607 
G01 X42.0333 Y61.8974 
G01 X42.0463 Y61.9009 
G01 X42.0751 Y61.9175 
G01 X42.1050 Y61.9319 
G01 X42.1152 Y61.9406 
G01 X42.1269 Y61.9474 
G01 X42.1504 Y61.9709 
G01 X42.1755 Y61.9925 
G01 X42.1831 Y62.0036 
G01 X42.1926 Y62.0131 
G01 X42.2092 Y62.0419 
G01 X42.2279 Y62.0693 
G01 X42.2324 Y62.0820 
G01 X42.2391 Y62.0937 
G01 X42.2477 Y62.1257 
G01 X42.2587 Y62.1571 
G01 X42.2597 Y62.1705 
G01 X42.2632 Y62.1835 
G01 X42.2632 Y62.2167 
G01 X42.2657 Y62.2498 
G01 X42.2632 Y62.2630 
G01 X42.2632 Y76.0537 
G01 X43.3263 Y77.1168 
G01 X49.4645 Y77.1168 
G01 X49.5941 Y77.1426 
G01 X49.7162 Y77.1931 
G01 X49.8260 Y77.2665 
G01 X49.8399 Y77.2804 
G01 X50.8969 Y78.3374 
G01 X51.0660 Y78.3710 
G01 X51.2320 Y78.4398 
G01 X51.3814 Y78.5396 
G01 X51.5084 Y78.6666 
G01 X51.6082 Y78.8160 
G01 X51.6769 Y78.9820 
G01 X51.7120 Y79.1582 
G01 X51.7120 Y80.8618 
G01 X51.6769 Y81.0380 
G01 X51.6082 Y81.2040 
G01 X51.5084 Y81.3534 
G01 X51.3814 Y81.4804 
G01 X51.2320 Y81.5802 
G01 X51.0660 Y81.6489 
G01 X50.8898 Y81.6840 
G01 X50.7102 Y81.6840 
G01 X50.5340 Y81.6489 
G01 X50.3680 Y81.5802 
G01 X50.2186 Y81.4804 
G01 X50.0916 Y81.3534 
G01 X49.9918 Y81.2040 
G01 X49.9230 Y81.0380 
G01 X49.8880 Y80.8618 
G01 X49.8880 Y79.1582 
G01 X49.9230 Y78.9820 
G01 X49.9918 Y78.8160 
G01 X50.0916 Y78.6666 
G01 X50.1594 Y78.5989 
G01 X49.3837 Y77.8232 
G01 X43.1335 Y77.8232 
G01 X43.0437 Y77.7991 
G01 X42.9631 Y77.7526 
G01 X41.6274 Y76.4169 
G01 X41.5809 Y76.3363 
G01 X41.5568 Y76.2465 
G01 X41.5568 Y62.4520 
G01 X39.3397 Y61.3856 
G01 X39.3267 Y61.3821 
G01 X39.2979 Y61.3655 
G01 X39.2680 Y61.3511 
G01 X39.2578 Y61.3424 
G01 X39.2461 Y61.3356 
G01 X39.2237 Y61.3132 
G01 X39.1578 Y61.3132 
G01 X39.1335 Y61.3881 
G01 X39.0538 Y61.5445 
G01 X38.9506 Y61.6865 
G01 X38.8265 Y61.8106 
G01 X38.6845 Y61.9138 
G01 X38.5281 Y61.9935 
G01 X38.3611 Y62.0477 
G01 X38.1878 Y62.0752 
G01 X38.0122 Y62.0752 
G01 X37.8389 Y62.0477 
G01 X37.6719 Y61.9935 
G01 X37.5155 Y61.9138 
G01 X37.3735 Y61.8106 
G01 X37.2494 Y61.6865 
G01 X37.1462 Y61.5445 
G01 X37.0665 Y61.3881 
G01 X37.0123 Y61.2211 
G01 X36.9848 Y61.0478 
G01 X36.9848 Y60.8722 
G01 X37.0123 Y60.6989 
G01 X37.0665 Y60.5319 
G01 X37.1462 Y60.3755 
G01 X37.2494 Y60.2335 
G01 X37.3735 Y60.1094 
G00 Z5.0000 
G00 X37.3735 Y62.6494 
G01 Z-0.1778 F200.00 
G01 X37.5155 Y62.5462 F100.00 
G01 X37.6719 Y62.4665 
G01 X37.8389 Y62.4123 
G01 X38.0122 Y62.3848 
G01 X38.1878 Y62.3848 
G01 X38.3611 Y62.4123 
G01 X38.5281 Y62.4665 
G01 X38.6845 Y62.5462 
G01 X38.8265 Y62.6494 
G01 X38.9506 Y62.7735 
G01 X39.0538 Y62.9155 
G01 X39.1335 Y63.0719 
G01 X39.1877 Y63.2389 
G01 X39.2152 Y63.4122 
G01 X39.2152 Y63.5878 
G01 X39.1877 Y63.7611 
G01 X39.1335 Y63.9281 
G01 X39.0538 Y64.0845 
G01 X38.9506 Y64.2265 
G01 X38.8265 Y64.3506 
G01 X38.6845 Y64.4538 
G01 X38.5281 Y64.5335 
G01 X38.3611 Y64.5877 
G01 X38.1878 Y64.6152 
G01 X38.0122 Y64.6152 
G01 X37.8389 Y64.5877 
G01 X37.6719 Y64.5335 
G01 X37.5155 Y64.4538 
G01 X37.3735 Y64.3506 
G01 X37.2494 Y64.2265 
G01 X37.1462 Y64.0845 
G01 X37.0665 Y63.9281 
G01 X37.0123 Y63.7611 
G01 X36.9848 Y63.5878 
G01 X36.9848 Y63.4122 
G01 X37.0123 Y63.2389 
G01 X37.0665 Y63.0719 
G01 X37.1462 Y62.9155 
G01 X37.2494 Y62.7735 
G01 X37.3735 Y62.6494 
G00 Z5.0000 
G00 X37.3735 Y65.1894 
G01 Z-0.1778 F200.00 
G01 X37.5155 Y65.0862 F100.00 
G01 X37.6719 Y65.0065 
G01 X37.8389 Y64.9523 
G01 X38.0122 Y64.9248 
G01 X38.1878 Y64.9248 
G01 X38.3611 Y64.9523 
G01 X38.5281 Y65.0065 
G01 X38.6845 Y65.0862 
G01 X38.8265 Y65.1894 
G01 X38.9506 Y65.3135 
G01 X39.0538 Y65.4555 
G01 X39.1335 Y65.6119 
G01 X39.1877 Y65.7789 
G01 X39.2152 Y65.9522 
G01 X39.2152 Y66.1278 
G01 X39.1877 Y66.3011 
G01 X39.1335 Y66.4681 
G01 X39.0538 Y66.6245 
G01 X38.9506 Y66.7665 
G01 X38.8265 Y66.8906 
G01 X38.6845 Y66.9938 
G01 X38.5281 Y67.0735 
G01 X38.3611 Y67.1277 
G01 X38.1878 Y67.1552 
G01 X38.0122 Y67.1552 
G01 X37.8389 Y67.1277 
G01 X37.6719 Y67.0735 
G01 X37.5155 Y66.9938 
G01 X37.3735 Y66.8906 
G01 X37.2494 Y66.7665 
G01 X37.1462 Y66.6245 
G01 X37.0665 Y66.4681 
G01 X37.0123 Y66.3011 
G01 X36.9848 Y66.1278 
G01 X36.9848 Y65.9522 
G01 X37.0123 Y65.7789 
G01 X37.0665 Y65.6119 
G01 X37.1462 Y65.4555 
G01 X37.2494 Y65.3135 
G01 X37.3735 Y65.1894 
G00 Z5.0000 
G00 X37.3735 Y67.7294 
G01 Z-0.1778 F200.00 
G01 X37.5155 Y67.6262 F100.00 
G01 X37.6719 Y67.5465 
G01 X37.8389 Y67.4923 
G01 X38.0122 Y67.4648 
G01 X38.1878 Y67.4648 
G01 X38.3611 Y67.4923 
G01 X38.5281 Y67.5465 
G01 X38.6845 Y67.6262 
G01 X38.8265 Y67.7294 
G01 X38.9506 Y67.8535 
G01 X39.0538 Y67.9955 
G01 X39.1335 Y68.1519 
G01 X39.1877 Y68.3189 
G01 X39.2152 Y68.4922 
G01 X39.2152 Y68.6678 
G01 X39.1877 Y68.8411 
G01 X39.1335 Y69.0081 
G01 X39.0538 Y69.1645 
G01 X38.9506 Y69.3065 
G01 X38.8265 Y69.4306 
G01 X38.6845 Y69.5338 
G01 X38.5281 Y69.6135 
G01 X38.3611 Y69.6677 
G01 X38.1878 Y69.6952 
G01 X38.0122 Y69.6952 
G01 X37.8389 Y69.6677 
G01 X37.6719 Y69.6135 
G01 X37.5155 Y69.5338 
G01 X37.3735 Y69.4306 
G01 X37.2494 Y69.3065 
G01 X37.1462 Y69.1645 
G01 X37.0665 Y69.0081 
G01 X37.0123 Y68.8411 
G01 X36.9848 Y68.6678 
G01 X36.9848 Y68.4922 
G01 X37.0123 Y68.3189 
G01 X37.0665 Y68.1519 
G01 X37.1462 Y67.9955 
G01 X37.2494 Y67.8535 
G01 X37.3735 Y67.7294 
G00 Z5.0000 
G00 X25.7499 Y66.1906 
G01 Z-0.1778 F200.00 
G01 X21.2000 Y70.7406 F100.00 
G01 X21.2000 Y78.4557 
G01 X21.2146 Y78.4741 
G01 X21.3730 Y78.7261 
G01 X21.5021 Y78.9943 
G01 X21.6004 Y79.2752 
G01 X21.6667 Y79.5654 
G01 X21.7000 Y79.8612 
G01 X21.7000 Y80.1588 
G01 X21.6667 Y80.4546 
G01 X21.6004 Y80.7448 
G01 X21.5021 Y81.0257 
G01 X21.3730 Y81.2939 
G01 X21.2146 Y81.5459 
G01 X21.0291 Y81.7786 
G01 X20.8186 Y81.9891 
G01 X20.5859 Y82.1746 
G01 X20.3339 Y82.3330 
G01 X20.0657 Y82.4621 
G01 X19.7848 Y82.5604 
G01 X19.4946 Y82.6267 
G01 X19.1988 Y82.6600 
G01 X18.9012 Y82.6600 
G01 X18.6054 Y82.6267 
G01 X18.3152 Y82.5604 
G01 X18.0343 Y82.4621 
G01 X17.7661 Y82.3330 
G01 X17.5141 Y82.1746 
G01 X17.2814 Y81.9891 
G01 X17.0709 Y81.7786 
G01 X16.8854 Y81.5459 
G01 X16.7270 Y81.2939 
G01 X16.5979 Y81.0257 
G01 X16.4996 Y80.7448 
G01 X16.4333 Y80.4546 
G01 X16.4000 Y80.1588 
G01 X16.4000 Y79.8612 
G01 X16.4333 Y79.5654 
G01 X16.4996 Y79.2752 
G01 X16.5979 Y78.9943 
G01 X16.7270 Y78.7261 
G01 X16.8854 Y78.4741 
G01 X16.9000 Y78.4557 
G01 X16.9000 Y69.7091 
G01 X16.9368 Y69.4297 
G01 X17.0097 Y69.1574 
G01 X17.1176 Y68.8970 
G01 X17.2585 Y68.6530 
G01 X17.4301 Y68.4294 
G01 X17.6294 Y68.2301 
G01 X22.7094 Y63.1501 
G01 X22.9330 Y62.9785 
G01 X23.1770 Y62.8376 
G01 X23.4374 Y62.7297 
G01 X23.7097 Y62.6568 
G01 X23.9891 Y62.6200 
G01 X24.2709 Y62.6200 
G01 X24.5503 Y62.6568 
G01 X24.8226 Y62.7297 
G01 X25.0830 Y62.8376 
G01 X25.3270 Y62.9785 
G01 X25.5506 Y63.1501 
G01 X25.7499 Y63.3494 
G01 X25.9215 Y63.5730 
G01 X26.0624 Y63.8170 
G01 X26.1703 Y64.0774 
G01 X26.2432 Y64.3497 
G01 X26.2800 Y64.6291 
G01 X26.2800 Y64.9109 
G01 X26.2432 Y65.1903 
G01 X26.1703 Y65.4626 
G01 X26.0624 Y65.7230 
G01 X25.9215 Y65.9670 
G01 X25.7499 Y66.1906 
G00 Z5.0000 
G00 X25.2586 Y71.1031 
G01 Z-0.1778 F200.00 
G01 X25.4169 Y71.2614 F100.00 
G01 X25.5532 Y71.4390 
G01 X25.6651 Y71.6329 
G01 X25.7508 Y71.8398 
G01 X25.8088 Y72.0561 
G01 X25.8380 Y72.2780 
G01 X25.8380 Y72.5019 
G01 X25.8088 Y72.7239 
G01 X25.7508 Y72.9402 
G01 X25.6651 Y73.1470 
G01 X25.5532 Y73.3409 
G01 X25.4169 Y73.5186 
G01 X25.2586 Y73.6769 
G01 X25.0809 Y73.8132 
G01 X24.8870 Y73.9251 
G01 X24.6802 Y74.0108 
G01 X24.4639 Y74.0688 
G01 X24.2419 Y74.0980 
G01 X24.0180 Y74.0980 
G01 X23.7961 Y74.0688 
G01 X23.5798 Y74.0108 
G01 X23.3729 Y73.9251 
G01 X23.1791 Y73.8132 
G01 X23.0014 Y73.6769 
G01 X22.8431 Y73.5186 
G01 X22.7068 Y73.3409 
G01 X22.5949 Y73.1470 
G01 X22.5092 Y72.9402 
G01 X22.4512 Y72.7239 
G01 X22.4220 Y72.5019 
G01 X22.4220 Y72.2780 
G01 X22.4512 Y72.0561 
G01 X22.5092 Y71.8398 
G01 X22.5949 Y71.6329 
G01 X22.7068 Y71.4390 
G01 X22.8431 Y71.2614 
G01 X23.0014 Y71.1031 
G01 X23.1791 Y70.9668 
G01 X23.3729 Y70.8549 
G01 X23.5798 Y70.7692 
G01 X23.7961 Y70.7112 
G01 X24.0180 Y70.6820 
G01 X24.2419 Y70.6820 
G01 X24.4639 Y70.7112 
G01 X24.6802 Y70.7692 
G01 X24.8870 Y70.8549 
G01 X25.0809 Y70.9668 
G01 X25.2586 Y71.1031 
G00 Z5.0000 
G00 X28.5000 Y52.9012 
G01 Z-0.1778 F200.00 
G01 X28.3787 Y52.7800 F100.00 
G01 X28.2779 Y52.6412 
G01 X28.2000 Y52.4883 
G01 X28.1470 Y52.3252 
G01 X28.1202 Y52.1558 
G01 X28.1202 Y51.9842 
G01 X28.1470 Y51.8148 
G01 X28.2000 Y51.6517 
G01 X28.2779 Y51.4988 
G01 X28.3787 Y51.3600 
G01 X28.5000 Y51.2387 
G01 X28.6388 Y51.1379 
G01 X28.7917 Y51.0600 
G01 X28.9548 Y51.0070 
G01 X29.1242 Y50.9802 
G01 X29.2958 Y50.9802 
G01 X29.4652 Y51.0070 
G01 X29.6283 Y51.0600 
G01 X29.7812 Y51.1379 
G01 X29.9200 Y51.2387 
G01 X30.0413 Y51.3600 
G01 X30.1421 Y51.4988 
G01 X30.2200 Y51.6517 
G01 X30.2730 Y51.8148 
G01 X30.2998 Y51.9842 
G01 X30.2998 Y52.1558 
G01 X30.2730 Y52.3252 
G01 X30.2200 Y52.4883 
G01 X30.1421 Y52.6412 
G01 X30.0413 Y52.7800 
G01 X29.9200 Y52.9012 
G01 X29.7812 Y53.0021 
G01 X29.6283 Y53.0800 
G01 X29.4652 Y53.1330 
G01 X29.2958 Y53.1598 
G01 X29.1242 Y53.1598 
G01 X28.9548 Y53.1330 
G01 X28.7917 Y53.0800 
G01 X28.6388 Y53.0021 
G01 X28.5000 Y52.9012 
G00 Z5.0000 
G00 X28.5000 Y50.3612 
G01 Z-0.1778 F200.00 
G01 X28.3787 Y50.2400 F100.00 
G01 X28.2779 Y50.1012 
G01 X28.2000 Y49.9483 
G01 X28.1789 Y49.8832 
G01 X21.3912 Y49.8832 
G01 X21.3653 Y49.9630 
G01 X21.2847 Y50.1211 
G01 X21.1803 Y50.2648 
G01 X21.0548 Y50.3903 
G01 X20.9111 Y50.4947 
G01 X20.7530 Y50.5753 
G01 X20.5841 Y50.6301 
G01 X20.4088 Y50.6579 
G01 X20.2312 Y50.6579 
G01 X20.0559 Y50.6301 
G01 X19.8870 Y50.5753 
G01 X19.7289 Y50.4947 
G01 X19.5852 Y50.3903 
G01 X19.4597 Y50.2648 
G01 X19.3553 Y50.1211 
G01 X19.2747 Y49.9630 
G01 X19.2199 Y49.7941 
G01 X19.1921 Y49.6188 
G01 X19.1921 Y49.4412 
G01 X19.2199 Y49.2659 
G01 X19.2747 Y49.0970 
G01 X19.3553 Y48.9389 
G01 X19.4597 Y48.7952 
G01 X19.5852 Y48.6697 
G01 X19.7289 Y48.5653 
G01 X19.8870 Y48.4847 
G01 X19.9668 Y48.4588 
G01 X19.9668 Y41.6711 
G01 X19.9017 Y41.6500 
G01 X19.7488 Y41.5721 
G01 X19.6100 Y41.4712 
G01 X19.4887 Y41.3500 
G01 X19.3879 Y41.2112 
G01 X19.3100 Y41.0583 
G01 X19.2570 Y40.8952 
G01 X19.2302 Y40.7258 
G01 X19.2302 Y40.5542 
G01 X19.2570 Y40.3848 
G01 X19.3100 Y40.2217 
G01 X19.3879 Y40.0688 
G01 X19.4887 Y39.9300 
G01 X19.6100 Y39.8087 
G01 X19.7488 Y39.7079 
G01 X19.9017 Y39.6300 
G01 X20.0648 Y39.5770 
G01 X20.2342 Y39.5502 
G01 X20.4058 Y39.5502 
G01 X20.5752 Y39.5770 
G01 X20.7383 Y39.6300 
G01 X20.8912 Y39.7079 
G01 X21.0300 Y39.8087 
G01 X21.1513 Y39.9300 
G01 X21.2521 Y40.0688 
G01 X21.3300 Y40.2217 
G01 X21.3830 Y40.3848 
G01 X21.4098 Y40.5542 
G01 X21.4098 Y40.7258 
G01 X21.3830 Y40.8952 
G01 X21.3300 Y41.0583 
G01 X21.2521 Y41.2112 
G01 X21.1513 Y41.3500 
G01 X21.0300 Y41.4712 
G01 X20.8912 Y41.5721 
G01 X20.7383 Y41.6500 
G01 X20.6732 Y41.6711 
G01 X20.6732 Y48.4588 
G01 X20.7530 Y48.4847 
G01 X20.9111 Y48.5653 
G01 X21.0548 Y48.6697 
G01 X21.1803 Y48.7952 
G01 X21.2847 Y48.9389 
G01 X21.3653 Y49.0970 
G01 X21.3912 Y49.1768 
G01 X28.1789 Y49.1768 
G01 X28.2000 Y49.1117 
G01 X28.2779 Y48.9588 
G01 X28.3787 Y48.8200 
G01 X28.5000 Y48.6987 
G01 X28.6388 Y48.5979 
G01 X28.7917 Y48.5200 
G01 X28.8568 Y48.4989 
G01 X28.8568 Y47.1363 
G01 X28.4194 Y46.6989 
G01 X28.3583 Y46.7300 
G01 X28.1952 Y46.7830 
G01 X28.0258 Y46.8098 
G01 X27.8542 Y46.8098 
G01 X27.6848 Y46.7830 
G01 X27.5217 Y46.7300 
G01 X27.3688 Y46.6521 
G01 X27.2300 Y46.5513 
G01 X27.1087 Y46.4300 
G01 X27.0079 Y46.2912 
G01 X26.9300 Y46.1383 
G01 X26.8770 Y45.9752 
G01 X26.8502 Y45.8058 
G01 X26.8502 Y45.6342 
G01 X26.8770 Y45.4648 
G01 X26.9300 Y45.3017 
G01 X27.0079 Y45.1488 
G01 X27.1087 Y45.0100 
G01 X27.2300 Y44.8887 
G01 X27.3688 Y44.7879 
G01 X27.5217 Y44.7100 
G01 X27.6848 Y44.6570 
G01 X27.8542 Y44.6302 
G01 X28.0258 Y44.6302 
G01 X28.1952 Y44.6570 
G01 X28.3583 Y44.7100 
G01 X28.5112 Y44.7879 
G01 X28.6500 Y44.8887 
G01 X28.7712 Y45.0100 
G01 X28.8721 Y45.1488 
G01 X28.9500 Y45.3017 
G01 X29.0030 Y45.4648 
G01 X29.0298 Y45.6342 
G01 X29.0298 Y45.8058 
G01 X29.0030 Y45.9752 
G01 X28.9500 Y46.1383 
G01 X28.9189 Y46.1994 
G01 X29.4926 Y46.7731 
G01 X29.5391 Y46.8537 
G01 X29.5632 Y46.9435 
G01 X29.5632 Y48.4989 
G01 X29.6283 Y48.5200 
G01 X29.7812 Y48.5979 
G01 X29.9200 Y48.6987 
G01 X30.0413 Y48.8200 
G01 X30.1421 Y48.9588 
G01 X30.2200 Y49.1117 
G01 X30.2730 Y49.2748 
G01 X30.2998 Y49.4442 
G01 X30.2998 Y49.6158 
G01 X30.2730 Y49.7852 
G01 X30.2200 Y49.9483 
G01 X30.1421 Y50.1012 
G01 X30.0413 Y50.2400 
G01 X29.9200 Y50.3612 
G01 X29.7812 Y50.4621 
G01 X29.6283 Y50.5400 
G01 X29.4652 Y50.5930 
G01 X29.2958 Y50.6198 
G01 X29.1242 Y50.6198 
G01 X28.9548 Y50.5930 
G01 X28.7917 Y50.5400 
G01 X28.6388 Y50.4621 
G01 X28.5000 Y50.3612 
G00 Z5.0000 
G00 X30.1050 Y50.3817 
G01 Z-0.1778 F200.00 
G01 X30.1829 Y50.2288 F100.00 
G01 X30.2837 Y50.0900 
G01 X30.4050 Y49.9687 
G01 X30.5438 Y49.8679 
G01 X30.6967 Y49.7900 
G01 X30.8598 Y49.7370 
G01 X31.0292 Y49.7102 
G01 X31.2008 Y49.7102 
G01 X31.3702 Y49.7370 
G01 X31.5333 Y49.7900 
G01 X31.6862 Y49.8679 
G01 X31.8250 Y49.9687 
G01 X31.9462 Y50.0900 
G01 X32.0471 Y50.2288 
G01 X32.1250 Y50.3817 
G01 X32.1780 Y50.5448 
G01 X32.2048 Y50.7142 
G01 X32.2048 Y50.8858 
G01 X32.1780 Y51.0552 
G01 X32.1250 Y51.2183 
G01 X32.0471 Y51.3712 
G01 X31.9462 Y51.5100 
G01 X31.8250 Y51.6313 
G01 X31.6862 Y51.7321 
G01 X31.5333 Y51.8100 
G01 X31.3702 Y51.8630 
G01 X31.2008 Y51.8898 
G01 X31.0292 Y51.8898 
G01 X30.8598 Y51.8630 
G01 X30.6967 Y51.8100 
G01 X30.5438 Y51.7321 
G01 X30.4050 Y51.6313 
G01 X30.2837 Y51.5100 
G01 X30.1829 Y51.3712 
G01 X30.1050 Y51.2183 
G01 X30.0520 Y51.0552 
G01 X30.0252 Y50.8858 
G01 X30.0252 Y50.7142 
G01 X30.0520 Y50.5448 
G01 X30.1050 Y50.3817 
G00 Z5.0000 
G00 X32.3100 Y46.5513 
G01 Z-0.1778 F200.00 
G01 X32.1887 Y46.4300 F100.00 
G01 X32.0879 Y46.2912 
G01 X32.0100 Y46.1383 
G01 X31.9570 Y45.9752 
G01 X31.9302 Y45.8058 
G01 X31.9302 Y45.6342 
G01 X31.9570 Y45.4648 
G01 X32.0100 Y45.3017 
G01 X32.0879 Y45.1488 
G01 X32.1887 Y45.0100 
G01 X32.3100 Y44.8887 
G01 X32.4488 Y44.7879 
G01 X32.6017 Y44.7100 
G01 X32.7648 Y44.6570 
G01 X32.9342 Y44.6302 
G01 X33.1058 Y44.6302 
G01 X33.2752 Y44.6570 
G01 X33.4383 Y44.7100 
G01 X33.5912 Y44.7879 
G01 X33.7300 Y44.8887 
G01 X33.8513 Y45.0100 
G01 X33.9521 Y45.1488 
G01 X34.0300 Y45.3017 
G01 X34.0830 Y45.4648 
G01 X34.1098 Y45.6342 
G01 X34.1098 Y45.8058 
G01 X34.0830 Y45.9752 
G01 X34.0300 Y46.1383 
G01 X33.9521 Y46.2912 
G01 X33.8513 Y46.4300 
G01 X33.7300 Y46.5513 
G01 X33.5912 Y46.6521 
G01 X33.4383 Y46.7300 
G01 X33.2752 Y46.7830 
G01 X33.1058 Y46.8098 
G01 X32.9342 Y46.8098 
G01 X32.7648 Y46.7830 
G01 X32.6017 Y46.7300 
G01 X32.4488 Y46.6521 
G01 X32.3100 Y46.5513 
G00 Z5.0000 
G00 X52.9868 Y46.9688 
G01 Z-0.1778 F200.00 
G01 X52.9868 Y19.0712 F100.00 
G01 X52.9838 Y19.0461 
G01 X52.9868 Y19.0249 
G01 X52.9868 Y19.0035 
G01 X52.9933 Y18.9791 
G01 X52.9969 Y18.9540 
G01 X53.0053 Y18.9343 
G01 X53.0109 Y18.9137 
G01 X53.0235 Y18.8918 
G01 X53.0335 Y18.8685 
G01 X53.0467 Y18.8517 
G01 X53.0574 Y18.8331 
G01 X53.0753 Y18.8152 
G01 X53.0909 Y18.7953 
G01 X53.1080 Y18.7825 
G01 X53.1231 Y18.7674 
G01 X53.1450 Y18.7547 
G01 X57.7210 Y15.3228 
G01 X57.7116 Y15.3134 
G01 X57.6118 Y15.1640 
G01 X57.5430 Y14.9980 
G01 X57.5080 Y14.8218 
G01 X57.5080 Y13.1182 
G01 X57.5430 Y12.9420 
G01 X57.6118 Y12.7760 
G01 X57.7116 Y12.6266 
G01 X57.8386 Y12.4996 
G01 X57.9880 Y12.3998 
G01 X58.1540 Y12.3310 
G01 X58.3302 Y12.2960 
G01 X58.5098 Y12.2960 
G01 X58.6860 Y12.3310 
G01 X58.8520 Y12.3998 
G01 X59.0014 Y12.4996 
G01 X59.1284 Y12.6266 
G01 X59.2282 Y12.7760 
G01 X59.2970 Y12.9420 
G01 X59.3320 Y13.1182 
G01 X59.3320 Y14.8218 
G01 X59.2970 Y14.9980 
G01 X59.2282 Y15.1640 
G01 X59.1284 Y15.3134 
G01 X59.0014 Y15.4404 
G01 X58.8520 Y15.5402 
G01 X58.6860 Y15.6090 
G01 X58.5098 Y15.6440 
G01 X58.4700 Y15.6440 
G01 X53.6932 Y19.2266 
G01 X53.6932 Y46.8134 
G01 X58.5377 Y50.4468 
G01 X59.9022 Y50.4468 
G01 X59.9265 Y50.3719 
G01 X60.0062 Y50.2155 
G01 X60.1094 Y50.0735 
G01 X60.2335 Y49.9494 
G01 X60.3755 Y49.8462 
G01 X60.5319 Y49.7665 
G01 X60.6989 Y49.7123 
G01 X60.8722 Y49.6848 
G01 X61.0478 Y49.6848 
G01 X61.2211 Y49.7123 
G01 X61.3881 Y49.7665 
G01 X61.5445 Y49.8462 
G01 X61.6865 Y49.9494 
G01 X61.8106 Y50.0735 
G01 X61.9138 Y50.2155 
G01 X61.9935 Y50.3719 
G01 X62.0477 Y50.5389 
G01 X62.0752 Y50.7122 
G01 X62.0752 Y50.8878 
G01 X62.0477 Y51.0611 
G01 X61.9935 Y51.2281 
G01 X61.9138 Y51.3845 
G01 X61.8106 Y51.5265 
G01 X61.6865 Y51.6506 
G01 X61.5445 Y51.7538 
G01 X61.3881 Y51.8335 
G01 X61.2211 Y51.8877 
G01 X61.0478 Y51.9152 
G01 X60.8722 Y51.9152 
G01 X60.6989 Y51.8877 
G01 X60.5319 Y51.8335 
G01 X60.3755 Y51.7538 
G01 X60.2335 Y51.6506 
G01 X60.1094 Y51.5265 
G01 X60.0062 Y51.3845 
G01 X59.9265 Y51.2281 
G01 X59.9022 Y51.1532 
G01 X58.4451 Y51.1532 
G01 X58.4239 Y51.1562 
G01 X58.3988 Y51.1532 
G01 X58.3735 Y51.1532 
G01 X58.3528 Y51.1477 
G01 X58.3316 Y51.1451 
G01 X58.3081 Y51.1357 
G01 X58.2837 Y51.1291 
G01 X58.2651 Y51.1184 
G01 X58.2453 Y51.1105 
G01 X58.2251 Y51.0953 
G01 X58.2031 Y51.0826 
G01 X58.1880 Y51.0675 
G01 X53.1450 Y47.2853 
G01 X53.1231 Y47.2726 
G01 X53.1080 Y47.2575 
G01 X53.0909 Y47.2447 
G01 X53.0753 Y47.2248 
G01 X53.0574 Y47.2069 
G01 X53.0467 Y47.1883 
G01 X53.0335 Y47.1715 
G01 X53.0235 Y47.1482 
G01 X53.0109 Y47.1263 
G01 X53.0053 Y47.1057 
G01 X52.9969 Y47.0860 
G01 X52.9933 Y47.0609 
G01 X52.9868 Y47.0365 
G01 X52.9868 Y47.0151 
G01 X52.9838 Y46.9939 
G01 X52.9868 Y46.9688 
G00 Z5.0000 
G00 X55.6454 Y45.9881 
G01 Z-0.1778 F200.00 
G01 X55.6222 Y45.9617 F100.00 
G01 X55.5974 Y45.9369 
G01 X55.5916 Y45.9269 
G01 X55.5840 Y45.9182 
G01 X55.5684 Y45.8868 
G01 X55.5509 Y45.8563 
G01 X55.5479 Y45.8452 
G01 X55.5428 Y45.8349 
G01 X55.5359 Y45.8004 
G01 X55.5268 Y45.7665 
G01 X55.5268 Y45.7550 
G01 X55.5245 Y45.7437 
G01 X55.5268 Y45.7086 
G01 X55.5268 Y19.0858 
G01 X55.5247 Y19.0753 
G01 X55.5268 Y19.0394 
G01 X55.5268 Y19.0035 
G01 X55.5296 Y18.9931 
G01 X55.5302 Y18.9824 
G01 X55.5416 Y18.9484 
G01 X55.5509 Y18.9137 
G01 X55.5562 Y18.9044 
G01 X55.5596 Y18.8942 
G01 X55.5794 Y18.8642 
G01 X55.5974 Y18.8331 
G01 X55.6050 Y18.8255 
G01 X55.6109 Y18.8166 
G01 X55.6377 Y18.7928 
G01 X55.6631 Y18.7674 
G01 X55.6724 Y18.7620 
G01 X55.6805 Y18.7549 
G01 X55.7125 Y18.7388 
G01 X55.7437 Y18.7209 
G01 X55.7540 Y18.7181 
G01 X57.7160 Y17.7371 
G01 X57.7160 Y17.7107 
G01 X57.7431 Y17.5746 
G01 X57.7961 Y17.4465 
G01 X57.8732 Y17.3312 
G01 X57.9712 Y17.2332 
G01 X58.0865 Y17.1561 
G01 X58.2146 Y17.1031 
G01 X58.3507 Y17.0760 
G01 X58.4893 Y17.0760 
G01 X58.6253 Y17.1031 
G01 X58.7535 Y17.1561 
G01 X58.8688 Y17.2332 
G01 X58.9668 Y17.3312 
G01 X59.0439 Y17.4465 
G01 X59.0969 Y17.5746 
G01 X59.1240 Y17.7107 
G01 X59.1240 Y17.8493 
G01 X59.0969 Y17.9853 
G01 X59.0439 Y18.1135 
G01 X58.9668 Y18.2288 
G01 X58.8688 Y18.3268 
G01 X58.7535 Y18.4039 
G01 X58.6253 Y18.4569 
G01 X58.4893 Y18.4840 
G01 X58.3507 Y18.4840 
G01 X58.2146 Y18.4569 
G01 X58.0865 Y18.4039 
G01 X58.0332 Y18.3683 
G01 X56.2332 Y19.2683 
G01 X56.2332 Y45.5310 
G01 X59.7969 Y47.9068 
G01 X59.9022 Y47.9068 
G01 X59.9265 Y47.8319 
G01 X60.0062 Y47.6755 
G01 X60.1094 Y47.5335 
G01 X60.2335 Y47.4094 
G01 X60.3755 Y47.3062 
G01 X60.5319 Y47.2265 
G01 X60.6989 Y47.1723 
G01 X60.8722 Y47.1448 
G01 X61.0478 Y47.1448 
G01 X61.2211 Y47.1723 
G01 X61.3881 Y47.2265 
G01 X61.5445 Y47.3062 
G01 X61.6865 Y47.4094 
G01 X61.8106 Y47.5335 
G01 X61.9138 Y47.6755 
G01 X61.9935 Y47.8319 
G01 X62.0477 Y47.9989 
G01 X62.0752 Y48.1722 
G01 X62.0752 Y48.3478 
G01 X62.0477 Y48.5211 
G01 X61.9935 Y48.6881 
G01 X61.9138 Y48.8445 
G01 X61.8106 Y48.9865 
G01 X61.6865 Y49.1106 
G01 X61.5445 Y49.2138 
G01 X61.3881 Y49.2935 
G01 X61.2211 Y49.3477 
G01 X61.0478 Y49.3752 
G01 X60.8722 Y49.3752 
G01 X60.6989 Y49.3477 
G01 X60.5319 Y49.2935 
G01 X60.3755 Y49.2138 
G01 X60.2335 Y49.1106 
G01 X60.1094 Y48.9865 
G01 X60.0062 Y48.8445 
G01 X59.9265 Y48.6881 
G01 X59.9022 Y48.6132 
G01 X59.7250 Y48.6132 
G01 X59.7137 Y48.6155 
G01 X59.6786 Y48.6132 
G01 X59.6435 Y48.6132 
G01 X59.6324 Y48.6102 
G01 X59.6209 Y48.6095 
G01 X59.5876 Y48.5982 
G01 X59.5537 Y48.5891 
G01 X59.5437 Y48.5834 
G01 X59.5328 Y48.5797 
G01 X59.5035 Y48.5602 
G01 X59.4731 Y48.5426 
G01 X59.4650 Y48.5345 
G01 X55.6935 Y46.0202 
G01 X55.6631 Y46.0026 
G01 X55.6550 Y45.9945 
G01 X55.6454 Y45.9881 
G00 Z5.0000 
G00 X57.7431 Y45.9253 
G01 Z-0.1778 F200.00 
G01 X57.7160 Y45.7893 F100.00 
G01 X57.7160 Y45.6507 
G01 X57.7431 Y45.5147 
G01 X57.7961 Y45.3865 
G01 X57.8732 Y45.2712 
G01 X57.9712 Y45.1732 
G01 X58.0865 Y45.0961 
G01 X58.2146 Y45.0431 
G01 X58.3507 Y45.0160 
G01 X58.4893 Y45.0160 
G01 X58.6253 Y45.0431 
G01 X58.7535 Y45.0961 
G01 X58.8688 Y45.1732 
G01 X58.9668 Y45.2712 
G01 X59.0307 Y45.3668 
G01 X59.9022 Y45.3668 
G01 X59.9265 Y45.2919 
G01 X60.0062 Y45.1355 
G01 X60.1094 Y44.9935 
G01 X60.2335 Y44.8694 
G01 X60.3755 Y44.7662 
G01 X60.5319 Y44.6865 
G01 X60.6989 Y44.6323 
G01 X60.8722 Y44.6048 
G01 X61.0478 Y44.6048 
G01 X61.2211 Y44.6323 
G01 X61.3881 Y44.6865 
G01 X61.5445 Y44.7662 
G01 X61.6865 Y44.8694 
G01 X61.8106 Y44.9935 
G01 X61.9138 Y45.1355 
G01 X61.9935 Y45.2919 
G01 X62.0477 Y45.4589 
G01 X62.0752 Y45.6322 
G01 X62.0752 Y45.8078 
G01 X62.0477 Y45.9811 
G01 X61.9935 Y46.1481 
G01 X61.9138 Y46.3045 
G01 X61.8106 Y46.4465 
G01 X61.6865 Y46.5706 
G01 X61.5445 Y46.6738 
G01 X61.3881 Y46.7535 
G01 X61.2211 Y46.8077 
G01 X61.0478 Y46.8352 
G01 X60.8722 Y46.8352 
G01 X60.6989 Y46.8077 
G01 X60.5319 Y46.7535 
G01 X60.3755 Y46.6738 
G01 X60.2335 Y46.5706 
G01 X60.1094 Y46.4465 
G01 X60.0062 Y46.3045 
G01 X59.9265 Y46.1481 
G01 X59.9022 Y46.0732 
G01 X59.0307 Y46.0732 
G01 X58.9668 Y46.1688 
G01 X58.8688 Y46.2668 
G01 X58.7535 Y46.3439 
G01 X58.6253 Y46.3969 
G01 X58.4893 Y46.4240 
G01 X58.3507 Y46.4240 
G01 X58.2146 Y46.3969 
G01 X58.0865 Y46.3439 
G01 X57.9712 Y46.2668 
G01 X57.8732 Y46.1688 
G01 X57.7961 Y46.0535 
G01 X57.7431 Y45.9253 
G00 Z5.0000 
G00 X60.2335 Y44.0306 
G01 Z-0.1778 F200.00 
G01 X60.1094 Y43.9065 F100.00 
G01 X60.0062 Y43.7645 
G01 X59.9265 Y43.6081 
G01 X59.8723 Y43.4411 
G01 X59.8448 Y43.2678 
G01 X59.8448 Y43.0922 
G01 X59.8723 Y42.9189 
G01 X59.9265 Y42.7519 
G01 X60.0062 Y42.5955 
G01 X60.1094 Y42.4535 
G01 X60.2335 Y42.3294 
G01 X60.3755 Y42.2262 
G01 X60.5319 Y42.1465 
G01 X60.6989 Y42.0923 
G01 X60.8722 Y42.0648 
G01 X61.0478 Y42.0648 
G01 X61.2211 Y42.0923 
G01 X61.3881 Y42.1465 
G01 X61.5445 Y42.2262 
G01 X61.6865 Y42.3294 
G01 X61.8106 Y42.4535 
G01 X61.9138 Y42.5955 
G01 X61.9935 Y42.7519 
G01 X62.0477 Y42.9189 
G01 X62.0752 Y43.0922 
G01 X62.0752 Y43.2678 
G01 X62.0477 Y43.4411 
G01 X61.9935 Y43.6081 
G01 X61.9138 Y43.7645 
G01 X61.8106 Y43.9065 
G01 X61.6865 Y44.0306 
G01 X61.5445 Y44.1338 
G01 X61.3881 Y44.2135 
G01 X61.2211 Y44.2677 
G01 X61.0478 Y44.2952 
G01 X60.8722 Y44.2952 
G01 X60.6989 Y44.2677 
G01 X60.5319 Y44.2135 
G01 X60.3755 Y44.1338 
G01 X60.2335 Y44.0306 
G00 Z5.0000 
G00 X60.2335 Y41.4906 
G01 Z-0.1778 F200.00 
G01 X60.1094 Y41.3665 F100.00 
G01 X60.0062 Y41.2245 
G01 X59.9265 Y41.0681 
G01 X59.8723 Y40.9011 
G01 X59.8448 Y40.7278 
G01 X59.8448 Y40.5522 
G01 X59.8723 Y40.3789 
G01 X59.9265 Y40.2119 
G01 X60.0062 Y40.0555 
G01 X60.1094 Y39.9135 
G01 X60.2335 Y39.7894 
G01 X60.3755 Y39.6862 
G01 X60.5319 Y39.6065 
G01 X60.6989 Y39.5523 
G01 X60.8722 Y39.5248 
G01 X61.0478 Y39.5248 
G01 X61.2211 Y39.5523 
G01 X61.3881 Y39.6065 
G01 X61.5445 Y39.6862 
G01 X61.6865 Y39.7894 
G01 X61.8106 Y39.9135 
G01 X61.9138 Y40.0555 
G01 X61.9935 Y40.2119 
G01 X62.0477 Y40.3789 
G01 X62.0752 Y40.5522 
G01 X62.0752 Y40.7278 
G01 X62.0477 Y40.9011 
G01 X61.9935 Y41.0681 
G01 X61.9138 Y41.2245 
G01 X61.8106 Y41.3665 
G01 X61.6865 Y41.4906 
G01 X61.5445 Y41.5938 
G01 X61.3881 Y41.6735 
G01 X61.2211 Y41.7277 
G01 X61.0478 Y41.7552 
G01 X60.8722 Y41.7552 
G01 X60.6989 Y41.7277 
G01 X60.5319 Y41.6735 
G01 X60.3755 Y41.5938 
G01 X60.2335 Y41.4906 
G00 Z5.0000 
G00 X60.2335 Y38.9506 
G01 Z-0.1778 F200.00 
G01 X60.1094 Y38.8265 F100.00 
G01 X60.0062 Y38.6845 
G01 X59.9265 Y38.5281 
G01 X59.8723 Y38.3611 
G01 X59.8448 Y38.1878 
G01 X59.8448 Y38.0122 
G01 X59.8723 Y37.8389 
G01 X59.9265 Y37.6719 
G01 X60.0062 Y37.5155 
G01 X60.1094 Y37.3735 
G01 X60.2335 Y37.2494 
G01 X60.3755 Y37.1462 
G01 X60.5319 Y37.0665 
G01 X60.6989 Y37.0123 
G01 X60.8722 Y36.9848 
G01 X61.0478 Y36.9848 
G01 X61.2211 Y37.0123 
G01 X61.3881 Y37.0665 
G01 X61.5445 Y37.1462 
G01 X61.6865 Y37.2494 
G01 X61.8106 Y37.3735 
G01 X61.9138 Y37.5155 
G01 X61.9935 Y37.6719 
G01 X62.0477 Y37.8389 
G01 X62.0752 Y38.0122 
G01 X62.0752 Y38.1878 
G01 X62.0477 Y38.3611 
G01 X61.9935 Y38.5281 
G01 X61.9138 Y38.6845 
G01 X61.8106 Y38.8265 
G01 X61.6865 Y38.9506 
G01 X61.5445 Y39.0538 
G01 X61.3881 Y39.1335 
G01 X61.2211 Y39.1877 
G01 X61.0478 Y39.2152 
G01 X60.8722 Y39.2152 
G01 X60.6989 Y39.1877 
G01 X60.5319 Y39.1335 
G01 X60.3755 Y39.0538 
G01 X60.2335 Y38.9506 
G00 Z5.0000 
G00 X60.2335 Y36.4106 
G01 Z-0.1778 F200.00 
G01 X60.1094 Y36.2865 F100.00 
G01 X60.0062 Y36.1445 
G01 X59.9265 Y35.9881 
G01 X59.8723 Y35.8211 
G01 X59.8448 Y35.6478 
G01 X59.8448 Y35.4722 
G01 X59.8723 Y35.2989 
G01 X59.9265 Y35.1319 
G01 X60.0062 Y34.9755 
G01 X60.1094 Y34.8335 
G01 X60.2335 Y34.7094 
G01 X60.3755 Y34.6062 
G01 X60.5319 Y34.5265 
G01 X60.6989 Y34.4723 
G01 X60.8722 Y34.4448 
G01 X61.0478 Y34.4448 
G01 X61.2211 Y34.4723 
G01 X61.3881 Y34.5265 
G01 X61.5445 Y34.6062 
G01 X61.6865 Y34.7094 
G01 X61.8106 Y34.8335 
G01 X61.9138 Y34.9755 
G01 X61.9935 Y35.1319 
G01 X62.0178 Y35.2068 
G01 X63.1468 Y35.2068 
G01 X63.1468 Y29.3563 
G01 X60.6774 Y26.8869 
G01 X60.6309 Y26.8063 
G01 X60.6068 Y26.7165 
G01 X60.6068 Y15.5728 
G01 X60.5280 Y15.5402 
G01 X60.3786 Y15.4404 
G01 X60.2516 Y15.3134 
G01 X60.1518 Y15.1640 
G01 X60.0830 Y14.9980 
G01 X60.0480 Y14.8218 
G01 X60.0480 Y13.1182 
G01 X60.0830 Y12.9420 
G01 X60.1518 Y12.7760 
G01 X60.2516 Y12.6266 
G01 X60.3786 Y12.4996 
G01 X60.5280 Y12.3998 
G01 X60.6940 Y12.3310 
G01 X60.8702 Y12.2960 
G01 X61.0498 Y12.2960 
G01 X61.2260 Y12.3310 
G01 X61.3920 Y12.3998 
G01 X61.5414 Y12.4996 
G01 X61.6684 Y12.6266 
G01 X61.7682 Y12.7760 
G01 X61.8370 Y12.9420 
G01 X61.8720 Y13.1182 
G01 X61.8720 Y14.8218 
G01 X61.8370 Y14.9980 
G01 X61.7682 Y15.1640 
G01 X61.6684 Y15.3134 
G01 X61.5414 Y15.4404 
G01 X61.3920 Y15.5402 
G01 X61.3132 Y15.5728 
G01 X61.3132 Y26.5237 
G01 X63.7169 Y28.9274 
G01 X63.7826 Y28.9931 
G01 X63.8291 Y29.0737 
G01 X63.8532 Y29.1635 
G01 X63.8532 Y35.3417 
G01 X66.1234 Y36.4768 
G01 X67.5489 Y36.4768 
G01 X67.5700 Y36.4117 
G01 X67.6479 Y36.2588 
G01 X67.7487 Y36.1200 
G01 X67.8700 Y35.9987 
G01 X68.0088 Y35.8979 
G01 X68.1617 Y35.8200 
G01 X68.3248 Y35.7670 
G01 X68.4942 Y35.7402 
G01 X68.6658 Y35.7402 
G01 X68.8352 Y35.7670 
G01 X68.9983 Y35.8200 
G01 X69.1512 Y35.8979 
G01 X69.2900 Y35.9987 
G01 X69.4112 Y36.1200 
G01 X69.5121 Y36.2588 
G01 X69.5900 Y36.4117 
G01 X69.6430 Y36.5748 
G01 X69.6698 Y36.7442 
G01 X69.6698 Y36.9158 
G01 X69.6430 Y37.0852 
G01 X69.5900 Y37.2483 
G01 X69.5121 Y37.4012 
G01 X69.4112 Y37.5400 
G01 X69.2900 Y37.6613 
G01 X69.1512 Y37.7621 
G01 X68.9983 Y37.8400 
G01 X68.9332 Y37.8611 
G01 X68.9332 Y42.1489 
G01 X68.9983 Y42.1700 
G01 X69.1512 Y42.2479 
G01 X69.2900 Y42.3487 
G01 X69.4112 Y42.4700 
G01 X69.5121 Y42.6088 
G01 X69.5900 Y42.7617 
G01 X69.6430 Y42.9248 
G01 X69.6698 Y43.0942 
G01 X69.6698 Y43.2658 
G01 X69.6430 Y43.4352 
G01 X69.5900 Y43.5983 
G01 X69.5121 Y43.7512 
G01 X69.4112 Y43.8900 
G01 X69.2900 Y44.0112 
G01 X69.1512 Y44.1121 
G01 X68.9983 Y44.1900 
G01 X68.8352 Y44.2430 
G01 X68.6658 Y44.2698 
G01 X68.4942 Y44.2698 
G01 X68.3248 Y44.2430 
G01 X68.1617 Y44.1900 
G01 X68.0088 Y44.1121 
G01 X67.8700 Y44.0112 
G01 X67.7487 Y43.8900 
G01 X67.6479 Y43.7512 
G01 X67.5700 Y43.5983 
G01 X67.5170 Y43.4352 
G01 X67.4902 Y43.2658 
G01 X67.4902 Y43.0942 
G01 X67.5170 Y42.9248 
G01 X67.5700 Y42.7617 
G01 X67.6479 Y42.6088 
G01 X67.7487 Y42.4700 
G01 X67.8700 Y42.3487 
G01 X68.0088 Y42.2479 
G01 X68.1617 Y42.1700 
G01 X68.2268 Y42.1489 
G01 X68.2268 Y40.9932 
G01 X64.9163 Y40.9932 
G01 X63.8532 Y42.0563 
G01 X63.8532 Y51.7168 
G01 X67.9693 Y51.7168 
G01 X68.0332 Y51.6212 
G01 X68.1312 Y51.5232 
G01 X68.2465 Y51.4461 
G01 X68.3747 Y51.3931 
G01 X68.5107 Y51.3660 
G01 X68.6493 Y51.3660 
G01 X68.7853 Y51.3931 
G01 X68.9135 Y51.4461 
G01 X69.0288 Y51.5232 
G01 X69.1268 Y51.6212 
G01 X69.2039 Y51.7365 
G01 X69.2569 Y51.8646 
G01 X69.2840 Y52.0007 
G01 X69.2840 Y52.1393 
G01 X69.2569 Y52.2753 
G01 X69.2039 Y52.4035 
G01 X69.1268 Y52.5188 
G01 X69.0288 Y52.6168 
G01 X68.9135 Y52.6939 
G01 X68.7853 Y52.7469 
G01 X68.6493 Y52.7740 
G01 X68.5107 Y52.7740 
G01 X68.3747 Y52.7469 
G01 X68.2465 Y52.6939 
G01 X68.1312 Y52.6168 
G01 X68.0332 Y52.5188 
G01 X67.9693 Y52.4232 
G01 X63.6463 Y52.4232 
G01 X62.4469 Y53.6226 
G01 X62.3663 Y53.6691 
G01 X62.2765 Y53.6932 
G01 X62.0178 Y53.6932 
G01 X61.9935 Y53.7681 
G01 X61.9138 Y53.9245 
G01 X61.8106 Y54.0665 
G01 X61.6865 Y54.1906 
G01 X61.5445 Y54.2938 
G01 X61.3881 Y54.3735 
G01 X61.2211 Y54.4277 
G01 X61.0478 Y54.4552 
G01 X60.8722 Y54.4552 
G01 X60.6989 Y54.4277 
G01 X60.5319 Y54.3735 
G01 X60.3755 Y54.2938 
G01 X60.2335 Y54.1906 
G01 X60.1094 Y54.0665 
G01 X60.0062 Y53.9245 
G01 X59.9265 Y53.7681 
G01 X59.8723 Y53.6011 
G01 X59.8448 Y53.4278 
G01 X59.8448 Y53.2522 
G01 X59.8723 Y53.0789 
G01 X59.9265 Y52.9119 
G01 X60.0062 Y52.7555 
G01 X60.1094 Y52.6135 
G01 X60.2335 Y52.4894 
G01 X60.3755 Y52.3862 
G01 X60.5319 Y52.3065 
G01 X60.6989 Y52.2523 
G01 X60.8722 Y52.2248 
G01 X61.0478 Y52.2248 
G01 X61.2211 Y52.2523 
G01 X61.3881 Y52.3065 
G01 X61.5445 Y52.3862 
G01 X61.6865 Y52.4894 
G01 X61.8106 Y52.6135 
G01 X61.9138 Y52.7555 
G01 X61.9935 Y52.9119 
G01 X62.0178 Y52.9868 
G01 X62.0837 Y52.9868 
G01 X63.1468 Y51.9237 
G01 X63.1468 Y41.8635 
G01 X63.1709 Y41.7737 
G01 X63.2174 Y41.6931 
G01 X64.4874 Y40.4231 
G01 X64.5531 Y40.3574 
G01 X64.6337 Y40.3109 
G01 X64.7235 Y40.2868 
G01 X68.2268 Y40.2868 
G01 X68.2268 Y37.8611 
G01 X68.1617 Y37.8400 
G01 X68.0088 Y37.7621 
G01 X67.8700 Y37.6613 
G01 X67.7487 Y37.5400 
G01 X67.6479 Y37.4012 
G01 X67.5700 Y37.2483 
G01 X67.5489 Y37.1832 
G01 X66.0506 Y37.1832 
G01 X66.0147 Y37.1853 
G01 X66.0042 Y37.1832 
G01 X65.9935 Y37.1832 
G01 X65.9588 Y37.1739 
G01 X65.9236 Y37.1667 
G01 X65.9140 Y37.1619 
G01 X65.9037 Y37.1591 
G01 X65.8726 Y37.1412 
G01 X63.4166 Y35.9132 
G01 X62.0178 Y35.9132 
G01 X61.9935 Y35.9881 
G01 X61.9138 Y36.1445 
G01 X61.8106 Y36.2865 
G01 X61.6865 Y36.4106 
G01 X61.5445 Y36.5138 
G01 X61.3881 Y36.5935 
G01 X61.2211 Y36.6477 
G01 X61.0478 Y36.6752 
G01 X60.8722 Y36.6752 
G01 X60.6989 Y36.6477 
G01 X60.5319 Y36.5935 
G01 X60.3755 Y36.5138 
G01 X60.2335 Y36.4106 
G00 Z5.0000 
G00 X60.2335 Y33.8706 
G01 Z-0.1778 F200.00 
G01 X60.1094 Y33.7465 F100.00 
G01 X60.0062 Y33.6045 
G01 X59.9265 Y33.4481 
G01 X59.8723 Y33.2811 
G01 X59.8448 Y33.1078 
G01 X59.8448 Y32.9322 
G01 X59.8723 Y32.7589 
G01 X59.9265 Y32.5919 
G01 X60.0062 Y32.4355 
G01 X60.1094 Y32.2935 
G01 X60.2335 Y32.1694 
G01 X60.3755 Y32.0662 
G01 X60.5319 Y31.9865 
G01 X60.6989 Y31.9323 
G01 X60.8722 Y31.9048 
G01 X61.0478 Y31.9048 
G01 X61.2211 Y31.9323 
G01 X61.3881 Y31.9865 
G01 X61.5445 Y32.0662 
G01 X61.6865 Y32.1694 
G01 X61.8106 Y32.2935 
G01 X61.9138 Y32.4355 
G01 X61.9935 Y32.5919 
G01 X62.0477 Y32.7589 
G01 X62.0752 Y32.9322 
G01 X62.0752 Y33.1078 
G01 X62.0477 Y33.2811 
G01 X61.9935 Y33.4481 
G01 X61.9138 Y33.6045 
G01 X61.8106 Y33.7465 
G01 X61.6865 Y33.8706 
G01 X61.5445 Y33.9738 
G01 X61.3881 Y34.0535 
G01 X61.2211 Y34.1077 
G01 X61.0478 Y34.1352 
G01 X60.8722 Y34.1352 
G01 X60.6989 Y34.1077 
G01 X60.5319 Y34.0535 
G01 X60.3755 Y33.9738 
G01 X60.2335 Y33.8706 
G00 Z5.0000 
G00 X67.5700 Y33.8717 
G01 Z-0.1778 F200.00 
G01 X67.6011 Y33.8106 F100.00 
G01 X65.7574 Y31.9669 
G01 X65.7109 Y31.8863 
G01 X65.6868 Y31.7965 
G01 X65.6868 Y31.5111 
G01 X65.6217 Y31.4900 
G01 X65.4688 Y31.4121 
G01 X65.3300 Y31.3113 
G01 X65.2087 Y31.1900 
G01 X65.1079 Y31.0512 
G01 X65.0300 Y30.8983 
G01 X64.9770 Y30.7352 
G01 X64.9502 Y30.5658 
G01 X64.9502 Y30.3942 
G01 X64.9770 Y30.2248 
G01 X65.0300 Y30.0617 
G01 X65.1079 Y29.9088 
G01 X65.2087 Y29.7700 
G01 X65.3300 Y29.6487 
G01 X65.4688 Y29.5479 
G01 X65.6217 Y29.4700 
G01 X65.7848 Y29.4170 
G01 X65.9542 Y29.3902 
G01 X66.1258 Y29.3902 
G01 X66.2952 Y29.4170 
G01 X66.4583 Y29.4700 
G01 X66.6112 Y29.5479 
G01 X66.7500 Y29.6487 
G01 X66.8713 Y29.7700 
G01 X66.9721 Y29.9088 
G01 X67.0500 Y30.0617 
G01 X67.1030 Y30.2248 
G01 X67.1298 Y30.3942 
G01 X67.1298 Y30.5658 
G01 X67.1030 Y30.7352 
G01 X67.0500 Y30.8983 
G01 X66.9721 Y31.0512 
G01 X66.8713 Y31.1900 
G01 X66.7500 Y31.3113 
G01 X66.6112 Y31.4121 
G01 X66.4583 Y31.4900 
G01 X66.3932 Y31.5111 
G01 X66.3932 Y31.6037 
G01 X68.1006 Y33.3111 
G01 X68.1617 Y33.2800 
G01 X68.3248 Y33.2270 
G01 X68.4942 Y33.2002 
G01 X68.6658 Y33.2002 
G01 X68.8352 Y33.2270 
G01 X68.9983 Y33.2800 
G01 X69.1512 Y33.3579 
G01 X69.2900 Y33.4587 
G01 X69.4112 Y33.5800 
G01 X69.5121 Y33.7188 
G01 X69.5900 Y33.8717 
G01 X69.6430 Y34.0348 
G01 X69.6698 Y34.2042 
G01 X69.6698 Y34.3758 
G01 X69.6430 Y34.5452 
G01 X69.5900 Y34.7083 
G01 X69.5121 Y34.8612 
G01 X69.4112 Y35.0000 
G01 X69.2900 Y35.1213 
G01 X69.1512 Y35.2221 
G01 X68.9983 Y35.3000 
G01 X68.8352 Y35.3530 
G01 X68.6658 Y35.3798 
G01 X68.4942 Y35.3798 
G01 X68.3248 Y35.3530 
G01 X68.1617 Y35.3000 
G01 X68.0088 Y35.2221 
G01 X67.8700 Y35.1213 
G01 X67.7487 Y35.0000 
G01 X67.6479 Y34.8612 
G01 X67.5700 Y34.7083 
G01 X67.5170 Y34.5452 
G01 X67.4902 Y34.3758 
G01 X67.4902 Y34.2042 
G01 X67.5170 Y34.0348 
G01 X67.5700 Y33.8717 
G00 Z5.0000 
G00 X69.6537 Y34.8500 
G01 Z-0.1778 F200.00 
G01 X69.7750 Y34.7287 F100.00 
G01 X69.9138 Y34.6279 
G01 X70.0667 Y34.5500 
G01 X70.2298 Y34.4970 
G01 X70.3992 Y34.4702 
G01 X70.5708 Y34.4702 
G01 X70.7402 Y34.4970 
G01 X70.7668 Y34.5057 
G01 X70.7668 Y31.8963 
G01 X70.3294 Y31.4589 
G01 X70.2683 Y31.4900 
G01 X70.1052 Y31.5430 
G01 X69.9358 Y31.5698 
G01 X69.7642 Y31.5698 
G01 X69.5948 Y31.5430 
G01 X69.4317 Y31.4900 
G01 X69.2788 Y31.4121 
G01 X69.1400 Y31.3113 
G01 X69.0187 Y31.1900 
G01 X68.9179 Y31.0512 
G01 X68.8400 Y30.8983 
G01 X68.7870 Y30.7352 
G01 X68.7602 Y30.5658 
G01 X68.7602 Y30.3942 
G01 X68.7870 Y30.2248 
G01 X68.8400 Y30.0617 
G01 X68.9179 Y29.9088 
G01 X69.0187 Y29.7700 
G01 X69.1400 Y29.6487 
G01 X69.2788 Y29.5479 
G01 X69.4317 Y29.4700 
G01 X69.5948 Y29.4170 
G01 X69.7642 Y29.3902 
G01 X69.9358 Y29.3902 
G01 X70.1052 Y29.4170 
G01 X70.2683 Y29.4700 
G01 X70.4212 Y29.5479 
G01 X70.5600 Y29.6487 
G01 X70.6813 Y29.7700 
G01 X70.7821 Y29.9088 
G01 X70.8600 Y30.0617 
G01 X70.9130 Y30.2248 
G01 X70.9398 Y30.3942 
G01 X70.9398 Y30.5658 
G01 X70.9130 Y30.7352 
G01 X70.8600 Y30.8983 
G01 X70.8289 Y30.9594 
G01 X71.3369 Y31.4674 
G01 X71.4026 Y31.5331 
G01 X71.4491 Y31.6137 
G01 X71.4732 Y31.7035 
G01 X71.4732 Y34.9715 
G01 X71.4508 Y35.0550 
G01 X71.4950 Y35.1417 
G01 X71.5480 Y35.3048 
G01 X71.5748 Y35.4742 
G01 X71.5748 Y35.6458 
G01 X71.5480 Y35.8152 
G01 X71.4950 Y35.9783 
G01 X71.4171 Y36.1312 
G01 X71.3162 Y36.2700 
G01 X71.1950 Y36.3912 
G01 X71.0562 Y36.4921 
G01 X70.9033 Y36.5700 
G01 X70.7402 Y36.6230 
G01 X70.5708 Y36.6498 
G01 X70.3992 Y36.6498 
G01 X70.2298 Y36.6230 
G01 X70.0667 Y36.5700 
G01 X69.9138 Y36.4921 
G01 X69.7750 Y36.3912 
G01 X69.6537 Y36.2700 
G01 X69.5529 Y36.1312 
G01 X69.4750 Y35.9783 
G01 X69.4220 Y35.8152 
G01 X69.3952 Y35.6458 
G01 X69.3952 Y35.4742 
G01 X69.4220 Y35.3048 
G01 X69.4750 Y35.1417 
G01 X69.5529 Y34.9888 
G01 X69.6537 Y34.8500 
G00 Z5.0000 
G00 X74.6062 Y33.1656 
G01 Z-0.1778 F200.00 
G01 X74.6009 Y33.1563 F100.00 
G01 X74.5916 Y33.1216 
G01 X74.5802 Y33.0876 
G01 X74.5796 Y33.0769 
G01 X74.5768 Y33.0665 
G01 X74.5768 Y33.0306 
G01 X74.5747 Y32.9947 
G01 X74.5768 Y32.9842 
G01 X74.5768 Y20.6732 
G01 X67.5283 Y20.6732 
G01 X66.8170 Y22.0958 
G01 X66.8713 Y22.1500 
G01 X66.9721 Y22.2888 
G01 X67.0500 Y22.4417 
G01 X67.1030 Y22.6048 
G01 X67.1298 Y22.7742 
G01 X67.1298 Y22.9458 
G01 X67.1030 Y23.1152 
G01 X67.0500 Y23.2783 
G01 X66.9721 Y23.4312 
G01 X66.8713 Y23.5700 
G01 X66.7500 Y23.6913 
G01 X66.6112 Y23.7921 
G01 X66.4583 Y23.8700 
G01 X66.2952 Y23.9230 
G01 X66.1258 Y23.9498 
G01 X65.9542 Y23.9498 
G01 X65.7848 Y23.9230 
G01 X65.6217 Y23.8700 
G01 X65.4688 Y23.7921 
G01 X65.3300 Y23.6913 
G01 X65.2087 Y23.5700 
G01 X65.1079 Y23.4312 
G01 X65.0300 Y23.2783 
G01 X64.9770 Y23.1152 
G01 X64.9502 Y22.9458 
G01 X64.9502 Y22.7742 
G01 X64.9770 Y22.6048 
G01 X65.0300 Y22.4417 
G01 X65.1079 Y22.2888 
G01 X65.2087 Y22.1500 
G01 X65.3300 Y22.0287 
G01 X65.4688 Y21.9279 
G01 X65.6217 Y21.8500 
G01 X65.7848 Y21.7970 
G01 X65.9542 Y21.7702 
G01 X66.1258 Y21.7702 
G01 X66.1853 Y21.7796 
G01 X66.9781 Y20.1940 
G01 X66.9809 Y20.1837 
G01 X66.9988 Y20.1525 
G01 X67.0149 Y20.1205 
G01 X67.0220 Y20.1124 
G01 X67.0274 Y20.1031 
G01 X67.0528 Y20.0777 
G01 X67.0766 Y20.0509 
G01 X67.0855 Y20.0450 
G01 X67.0931 Y20.0374 
G01 X67.1242 Y20.0194 
G01 X67.1542 Y19.9996 
G01 X67.1644 Y19.9962 
G01 X67.1737 Y19.9909 
G01 X67.2084 Y19.9816 
G01 X67.2424 Y19.9702 
G01 X67.2531 Y19.9696 
G01 X67.2635 Y19.9668 
G01 X67.2994 Y19.9668 
G01 X67.3353 Y19.9646 
G01 X67.3458 Y19.9668 
G01 X74.9765 Y19.9668 
G01 X75.0663 Y19.9909 
G01 X75.1469 Y20.0374 
G01 X75.2126 Y20.1031 
G01 X75.2591 Y20.1837 
G01 X75.2832 Y20.2735 
G01 X75.2832 Y32.9627 
G01 X76.2090 Y35.7402 
G01 X76.2858 Y35.7402 
G01 X76.4552 Y35.7670 
G01 X76.6183 Y35.8200 
G01 X76.7712 Y35.8979 
G01 X76.9100 Y35.9987 
G01 X77.0312 Y36.1200 
G01 X77.1321 Y36.2588 
G01 X77.2100 Y36.4117 
G01 X77.2630 Y36.5748 
G01 X77.2898 Y36.7442 
G01 X77.2898 Y36.9158 
G01 X77.2630 Y37.0852 
G01 X77.2100 Y37.2483 
G01 X77.1321 Y37.4012 
G01 X77.0312 Y37.5400 
G01 X76.9100 Y37.6613 
G01 X76.7712 Y37.7621 
G01 X76.6183 Y37.8400 
G01 X76.4552 Y37.8930 
G01 X76.2858 Y37.9198 
G01 X76.1142 Y37.9198 
G01 X75.9448 Y37.8930 
G01 X75.7817 Y37.8400 
G01 X75.6288 Y37.7621 
G01 X75.4900 Y37.6613 
G01 X75.3687 Y37.5400 
G01 X75.2679 Y37.4012 
G01 X75.1900 Y37.2483 
G01 X75.1370 Y37.0852 
G01 X75.1102 Y36.9158 
G01 X75.1102 Y36.7442 
G01 X75.1370 Y36.5748 
G01 X75.1900 Y36.4117 
G01 X75.2679 Y36.2588 
G01 X75.3687 Y36.1200 
G01 X75.4900 Y35.9987 
G01 X75.5388 Y35.9633 
G01 X74.6062 Y33.1656 
G00 Z5.0000 
G00 X76.7352 Y28.8003 
G01 Z-0.1778 F200.00 
G01 X76.6097 Y28.6748 F100.00 
G01 X76.5053 Y28.5311 
G01 X76.4247 Y28.3730 
G01 X76.3699 Y28.2041 
G01 X76.3421 Y28.0288 
G01 X76.3421 Y27.8512 
G01 X76.3699 Y27.6759 
G01 X76.4247 Y27.5070 
G01 X76.5053 Y27.3488 
G01 X76.6097 Y27.2052 
G01 X76.7352 Y27.0797 
G01 X76.8788 Y26.9753 
G01 X77.0370 Y26.8947 
G01 X77.2059 Y26.8399 
G01 X77.3812 Y26.8121 
G01 X77.5588 Y26.8121 
G01 X77.7341 Y26.8399 
G01 X77.9030 Y26.8947 
G01 X78.0611 Y26.9753 
G01 X78.2048 Y27.0797 
G01 X78.3303 Y27.2052 
G01 X78.4347 Y27.3488 
G01 X78.5153 Y27.5070 
G01 X78.5412 Y27.5868 
G01 X80.0565 Y27.5868 
G01 X80.1463 Y27.6109 
G01 X80.2269 Y27.6574 
G01 X84.0369 Y31.4674 
G01 X84.1026 Y31.5331 
G01 X84.1491 Y31.6137 
G01 X84.1732 Y31.7035 
G01 X84.1732 Y35.7989 
G01 X84.2383 Y35.8200 
G01 X84.3912 Y35.8979 
G01 X84.5300 Y35.9987 
G01 X84.6513 Y36.1200 
G01 X84.7521 Y36.2588 
G01 X84.8300 Y36.4117 
G01 X84.8830 Y36.5748 
G01 X84.9098 Y36.7442 
G01 X84.9098 Y36.9158 
G01 X84.8830 Y37.0852 
G01 X84.8300 Y37.2483 
G01 X84.7521 Y37.4012 
G01 X84.6513 Y37.5400 
G01 X84.5300 Y37.6613 
G01 X84.3912 Y37.7621 
G01 X84.2383 Y37.8400 
G01 X84.0752 Y37.8930 
G01 X83.9058 Y37.9198 
G01 X83.7342 Y37.9198 
G01 X83.5648 Y37.8930 
G01 X83.4017 Y37.8400 
G01 X83.2488 Y37.7621 
G01 X83.1100 Y37.6613 
G01 X82.9887 Y37.5400 
G01 X82.8879 Y37.4012 
G01 X82.8100 Y37.2483 
G01 X82.7570 Y37.0852 
G01 X82.7302 Y36.9158 
G01 X82.7302 Y36.7442 
G01 X82.7570 Y36.5748 
G01 X82.8100 Y36.4117 
G01 X82.8879 Y36.2588 
G01 X82.9887 Y36.1200 
G01 X83.1100 Y35.9987 
G01 X83.2488 Y35.8979 
G01 X83.4017 Y35.8200 
G01 X83.4668 Y35.7989 
G01 X83.4668 Y31.8963 
G01 X79.8637 Y28.2932 
G01 X78.5412 Y28.2932 
G01 X78.5153 Y28.3730 
G01 X78.4347 Y28.5311 
G01 X78.3303 Y28.6748 
G01 X78.2048 Y28.8003 
G01 X78.0611 Y28.9047 
G01 X77.9030 Y28.9853 
G01 X77.7341 Y29.0401 
G01 X77.5588 Y29.0679 
G01 X77.3812 Y29.0679 
G01 X77.2059 Y29.0401 
G01 X77.0370 Y28.9853 
G01 X76.8788 Y28.9047 
G01 X76.7352 Y28.8003 
G00 Z5.0000 
G00 X70.6813 Y23.5700 
G01 Z-0.1778 F200.00 
G01 X70.5600 Y23.6913 F100.00 
G01 X70.4212 Y23.7921 
G01 X70.2683 Y23.8700 
G01 X70.1052 Y23.9230 
G01 X69.9358 Y23.9498 
G01 X69.7642 Y23.9498 
G01 X69.5948 Y23.9230 
G01 X69.4317 Y23.8700 
G01 X69.2788 Y23.7921 
G01 X69.1400 Y23.6913 
G01 X69.0187 Y23.5700 
G01 X68.9179 Y23.4312 
G01 X68.8400 Y23.2783 
G01 X68.7870 Y23.1152 
G01 X68.7602 Y22.9458 
G01 X68.7602 Y22.7742 
G01 X68.7870 Y22.6048 
G01 X68.8400 Y22.4417 
G01 X68.9179 Y22.2888 
G01 X69.0187 Y22.1500 
G01 X69.1400 Y22.0287 
G01 X69.2788 Y21.9279 
G01 X69.4317 Y21.8500 
G01 X69.5948 Y21.7970 
G01 X69.7642 Y21.7702 
G01 X69.9358 Y21.7702 
G01 X70.1052 Y21.7970 
G01 X70.2683 Y21.8500 
G01 X70.4212 Y21.9279 
G01 X70.5600 Y22.0287 
G01 X70.6813 Y22.1500 
G01 X70.7821 Y22.2888 
G01 X70.8600 Y22.4417 
G01 X70.9130 Y22.6048 
G01 X70.9398 Y22.7742 
G01 X70.9398 Y22.9458 
G01 X70.9130 Y23.1152 
G01 X70.8600 Y23.2783 
G01 X70.7821 Y23.4312 
G01 X70.6813 Y23.5700 
G00 Z5.0000 
G00 X64.0468 Y18.2288 
G01 Z-0.1778 F200.00 
G01 X63.9488 Y18.3268 F100.00 
G01 X63.8335 Y18.4039 
G01 X63.7053 Y18.4569 
G01 X63.5693 Y18.4840 
G01 X63.4307 Y18.4840 
G01 X63.2946 Y18.4569 
G01 X63.1665 Y18.4039 
G01 X63.0512 Y18.3268 
G01 X62.9532 Y18.2288 
G01 X62.8761 Y18.1135 
G01 X62.8231 Y17.9853 
G01 X62.7960 Y17.8493 
G01 X62.7960 Y17.7107 
G01 X62.8231 Y17.5746 
G01 X62.8761 Y17.4465 
G01 X62.9532 Y17.3312 
G01 X63.0512 Y17.2332 
G01 X63.1665 Y17.1561 
G01 X63.2946 Y17.1031 
G01 X63.4307 Y17.0760 
G01 X63.4571 Y17.0760 
G01 X63.9191 Y16.1520 
G01 X63.7420 Y16.1169 
G01 X63.5760 Y16.0482 
G01 X63.4266 Y15.9484 
G01 X63.2996 Y15.8214 
G01 X63.1998 Y15.6720 
G01 X63.1310 Y15.5060 
G01 X63.0960 Y15.3298 
G01 X63.0960 Y15.1502 
G01 X63.1310 Y14.9740 
G01 X63.1998 Y14.8080 
G01 X63.2996 Y14.6586 
G01 X63.4266 Y14.5316 
G01 X63.5760 Y14.4318 
G01 X63.7420 Y14.3630 
G01 X63.9182 Y14.3280 
G01 X65.6218 Y14.3280 
G01 X65.7980 Y14.3630 
G01 X65.9640 Y14.4318 
G01 X66.1134 Y14.5316 
G01 X66.2404 Y14.6586 
G01 X66.3402 Y14.8080 
G01 X66.4090 Y14.9740 
G01 X66.4440 Y15.1502 
G01 X66.4440 Y15.3298 
G01 X66.4090 Y15.5060 
G01 X66.3402 Y15.6720 
G01 X66.2404 Y15.8214 
G01 X66.1134 Y15.9484 
G01 X65.9640 Y16.0482 
G01 X65.7980 Y16.1169 
G01 X65.6218 Y16.1520 
G01 X64.7089 Y16.1520 
G01 X64.0883 Y17.3932 
G01 X64.1239 Y17.4465 
G01 X64.1769 Y17.5746 
G01 X64.2040 Y17.7107 
G01 X64.2040 Y17.8493 
G01 X64.1769 Y17.9853 
G01 X64.1239 Y18.1135 
G01 X64.0468 Y18.2288 
G00 Z5.0000 
G00 X52.7784 Y15.3134 
G01 Z-0.1778 F200.00 
G01 X52.6514 Y15.4404 F100.00 
G01 X52.5020 Y15.5402 
G01 X52.4232 Y15.5728 
G01 X52.4232 Y55.7337 
G01 X54.7563 Y58.0668 
G01 X59.9022 Y58.0668 
G01 X59.9265 Y57.9919 
G01 X60.0062 Y57.8355 
G01 X60.1094 Y57.6935 
G01 X60.2335 Y57.5694 
G01 X60.3755 Y57.4662 
G01 X60.5319 Y57.3865 
G01 X60.6989 Y57.3323 
G01 X60.8722 Y57.3048 
G01 X61.0478 Y57.3048 
G01 X61.2211 Y57.3323 
G01 X61.3881 Y57.3865 
G01 X61.5445 Y57.4662 
G01 X61.6865 Y57.5694 
G01 X61.8106 Y57.6935 
G01 X61.9138 Y57.8355 
G01 X61.9935 Y57.9919 
G01 X62.0477 Y58.1589 
G01 X62.0752 Y58.3322 
G01 X62.0752 Y58.5078 
G01 X62.0477 Y58.6811 
G01 X61.9935 Y58.8481 
G01 X61.9138 Y59.0045 
G01 X61.8106 Y59.1465 
G01 X61.6865 Y59.2706 
G01 X61.5445 Y59.3738 
G01 X61.3881 Y59.4535 
G01 X61.2211 Y59.5077 
G01 X61.0478 Y59.5352 
G01 X60.8722 Y59.5352 
G01 X60.6989 Y59.5077 
G01 X60.5319 Y59.4535 
G01 X60.3755 Y59.3738 
G01 X60.2335 Y59.2706 
G01 X60.1094 Y59.1465 
G01 X60.0062 Y59.0045 
G01 X59.9265 Y58.8481 
G01 X59.9022 Y58.7732 
G01 X54.5635 Y58.7732 
G01 X54.4737 Y58.7491 
G01 X54.3931 Y58.7026 
G01 X54.3274 Y58.6369 
G01 X51.7874 Y56.0969 
G01 X51.7409 Y56.0163 
G01 X51.7168 Y55.9265 
G01 X51.7168 Y15.5728 
G01 X51.6380 Y15.5402 
G01 X51.4886 Y15.4404 
G01 X51.3616 Y15.3134 
G01 X51.2618 Y15.1640 
G01 X51.1930 Y14.9980 
G01 X51.1580 Y14.8218 
G01 X51.1580 Y13.1182 
G01 X51.1930 Y12.9420 
G01 X51.2618 Y12.7760 
G01 X51.3616 Y12.6266 
G01 X51.4886 Y12.4996 
G01 X51.6380 Y12.3998 
G01 X51.8040 Y12.3310 
G01 X51.9802 Y12.2960 
G01 X52.1598 Y12.2960 
G01 X52.3360 Y12.3310 
G01 X52.5020 Y12.3998 
G01 X52.6514 Y12.4996 
G01 X52.7784 Y12.6266 
G01 X52.8782 Y12.7760 
G01 X52.9470 Y12.9420 
G01 X52.9820 Y13.1182 
G01 X52.9820 Y14.8218 
G01 X52.9470 Y14.9980 
G01 X52.8782 Y15.1640 
G01 X52.7784 Y15.3134 
G00 Z5.0000 
G00 X49.9788 Y18.5032 
G01 Z-0.1778 F200.00 
G01 X50.0768 Y18.6012 F100.00 
G01 X50.1539 Y18.7165 
G01 X50.2069 Y18.8447 
G01 X50.2340 Y18.9807 
G01 X50.2340 Y19.1193 
G01 X50.2069 Y19.2553 
G01 X50.1539 Y19.3835 
G01 X50.0768 Y19.4988 
G01 X49.9788 Y19.5968 
G01 X49.8832 Y19.6607 
G01 X49.8832 Y64.6237 
G01 X50.9463 Y65.6868 
G01 X59.9022 Y65.6868 
G01 X59.9265 Y65.6119 
G01 X60.0062 Y65.4555 
G01 X60.1094 Y65.3135 
G01 X60.2335 Y65.1894 
G01 X60.3755 Y65.0862 
G01 X60.5319 Y65.0065 
G01 X60.6989 Y64.9523 
G01 X60.8722 Y64.9248 
G01 X61.0478 Y64.9248 
G01 X61.2211 Y64.9523 
G01 X61.3881 Y65.0065 
G01 X61.5445 Y65.0862 
G01 X61.6865 Y65.1894 
G01 X61.8106 Y65.3135 
G01 X61.9138 Y65.4555 
G01 X61.9935 Y65.6119 
G01 X62.0477 Y65.7789 
G01 X62.0752 Y65.9522 
G01 X62.0752 Y66.1278 
G01 X62.0477 Y66.3011 
G01 X61.9935 Y66.4681 
G01 X61.9138 Y66.6245 
G01 X61.8106 Y66.7665 
G01 X61.6865 Y66.8906 
G01 X61.5445 Y66.9938 
G01 X61.3881 Y67.0735 
G01 X61.2211 Y67.1277 
G01 X61.0478 Y67.1552 
G01 X60.8722 Y67.1552 
G01 X60.6989 Y67.1277 
G01 X60.5319 Y67.0735 
G01 X60.3755 Y66.9938 
G01 X60.2335 Y66.8906 
G01 X60.1094 Y66.7665 
G01 X60.0062 Y66.6245 
G01 X59.9265 Y66.4681 
G01 X59.9022 Y66.3932 
G01 X50.7535 Y66.3932 
G01 X50.6637 Y66.3691 
G01 X50.5831 Y66.3226 
G01 X49.3131 Y65.0526 
G01 X49.2474 Y64.9869 
G01 X49.2009 Y64.9063 
G01 X49.1768 Y64.8165 
G01 X49.1768 Y19.6607 
G01 X49.0812 Y19.5968 
G01 X48.9832 Y19.4988 
G01 X48.9061 Y19.3835 
G01 X48.8531 Y19.2553 
G01 X48.8260 Y19.1193 
G01 X48.8260 Y18.9807 
G01 X48.8531 Y18.8447 
G01 X48.9061 Y18.7165 
G01 X48.9832 Y18.6012 
G01 X49.0812 Y18.5032 
G01 X49.1965 Y18.4261 
G01 X49.3246 Y18.3731 
G01 X49.4607 Y18.3460 
G01 X49.5993 Y18.3460 
G01 X49.7353 Y18.3731 
G01 X49.8635 Y18.4261 
G01 X49.9788 Y18.5032 
G00 Z5.0000 
G00 X39.6526 Y18.8331 
G01 Z-0.1778 F200.00 
G01 X39.6991 Y18.9137 F100.00 
G01 X39.7232 Y19.0035 
G01 X39.7232 Y21.6365 
G01 X39.6991 Y21.7263 
G01 X39.6526 Y21.8069 
G01 X39.5869 Y21.8726 
G01 X39.4367 Y22.0228 
G01 X39.4450 Y22.0287 
G01 X39.5662 Y22.1500 
G01 X39.6671 Y22.2888 
G01 X39.7450 Y22.4417 
G01 X39.7980 Y22.6048 
G01 X39.8248 Y22.7742 
G01 X39.8248 Y22.9458 
G01 X39.7980 Y23.1152 
G01 X39.7450 Y23.2783 
G01 X39.6671 Y23.4312 
G01 X39.5662 Y23.5700 
G01 X39.4450 Y23.6913 
G01 X39.3062 Y23.7921 
G01 X39.1533 Y23.8700 
G01 X38.9902 Y23.9230 
G01 X38.8208 Y23.9498 
G01 X38.6492 Y23.9498 
G01 X38.4798 Y23.9230 
G01 X38.3167 Y23.8700 
G01 X38.1638 Y23.7921 
G01 X38.0250 Y23.6913 
G01 X37.9037 Y23.5700 
G01 X37.8029 Y23.4312 
G01 X37.7250 Y23.2783 
G01 X37.6720 Y23.1152 
G01 X37.6452 Y22.9458 
G01 X37.6452 Y22.7742 
G01 X37.6720 Y22.6048 
G01 X37.7250 Y22.4417 
G01 X37.8029 Y22.2888 
G01 X37.9037 Y22.1500 
G01 X38.0250 Y22.0287 
G01 X38.1638 Y21.9279 
G01 X38.3167 Y21.8500 
G01 X38.4798 Y21.7970 
G01 X38.6492 Y21.7702 
G01 X38.6903 Y21.7702 
G01 X39.0168 Y21.4437 
G01 X39.0168 Y19.1963 
G01 X38.5794 Y18.7589 
G01 X38.5183 Y18.7900 
G01 X38.3552 Y18.8430 
G01 X38.1858 Y18.8698 
G01 X38.0142 Y18.8698 
G01 X37.8448 Y18.8430 
G01 X37.6817 Y18.7900 
G01 X37.5288 Y18.7121 
G01 X37.3900 Y18.6112 
G01 X37.2687 Y18.4900 
G01 X37.1679 Y18.3512 
G01 X37.0900 Y18.1983 
G01 X37.0370 Y18.0352 
G01 X37.0102 Y17.8658 
G01 X37.0102 Y17.6942 
G01 X37.0370 Y17.5248 
G01 X37.0900 Y17.3617 
G01 X37.1679 Y17.2088 
G01 X37.2687 Y17.0700 
G01 X37.3900 Y16.9487 
G01 X37.5288 Y16.8479 
G01 X37.6817 Y16.7700 
G01 X37.8448 Y16.7170 
G01 X38.0142 Y16.6902 
G01 X38.1858 Y16.6902 
G01 X38.3552 Y16.7170 
G01 X38.5183 Y16.7700 
G01 X38.6712 Y16.8479 
G01 X38.8100 Y16.9487 
G01 X38.9312 Y17.0700 
G01 X39.0321 Y17.2088 
G01 X39.1100 Y17.3617 
G01 X39.1630 Y17.5248 
G01 X39.1898 Y17.6942 
G01 X39.1898 Y17.8658 
G01 X39.1630 Y18.0352 
G01 X39.1100 Y18.1983 
G01 X39.0789 Y18.2594 
G01 X39.6526 Y18.8331 
G00 Z5.0000 
G00 X36.0737 Y18.8075 
G01 Z-0.1778 F200.00 
G01 X35.9525 Y18.9288 F100.00 
G01 X35.8137 Y19.0296 
G01 X35.6608 Y19.1075 
G01 X35.4977 Y19.1605 
G01 X35.3283 Y19.1873 
G01 X35.1567 Y19.1873 
G01 X34.9873 Y19.1605 
G01 X34.8242 Y19.1075 
G01 X34.6713 Y19.0296 
G01 X34.5325 Y18.9288 
G01 X34.4112 Y18.8075 
G01 X34.3104 Y18.6687 
G01 X34.2325 Y18.5158 
G01 X34.1795 Y18.3527 
G01 X34.1527 Y18.1833 
G01 X34.1527 Y18.0117 
G01 X34.1795 Y17.8423 
G01 X34.2325 Y17.6792 
G01 X34.3104 Y17.5263 
G01 X34.4112 Y17.3875 
G01 X34.5325 Y17.2662 
G01 X34.6713 Y17.1654 
G01 X34.8242 Y17.0875 
G01 X34.8893 Y17.0664 
G01 X34.8893 Y14.3071 
G01 X34.8863 Y14.2803 
G01 X34.8893 Y14.2608 
G01 X34.8893 Y14.2410 
G01 X34.8963 Y14.2150 
G01 X34.9003 Y14.1883 
G01 X34.9083 Y14.1703 
G01 X34.9134 Y14.1512 
G01 X34.9268 Y14.1278 
G01 X34.9376 Y14.1032 
G01 X34.9500 Y14.0877 
G01 X34.9599 Y14.0706 
G01 X34.9789 Y14.0516 
G01 X34.9957 Y14.0305 
G01 X35.0117 Y14.0188 
G01 X35.0256 Y14.0049 
G01 X35.0490 Y13.9914 
G01 X35.0707 Y13.9754 
G01 X35.0891 Y13.9682 
G01 X35.1062 Y13.9584 
G01 X35.1322 Y13.9514 
G01 X35.1573 Y13.9416 
G01 X35.1769 Y13.9394 
G01 X35.1960 Y13.9343 
G01 X35.2229 Y13.9343 
G01 X37.9984 Y13.6259 
G01 X42.0996 Y11.5753 
G01 X42.0902 Y11.5158 
G01 X42.0902 Y11.3442 
G01 X42.1170 Y11.1748 
G01 X42.1700 Y11.0117 
G01 X42.2479 Y10.8588 
G01 X42.3487 Y10.7200 
G01 X42.4700 Y10.5987 
G01 X42.6088 Y10.4979 
G01 X42.7617 Y10.4200 
G01 X42.9248 Y10.3670 
G01 X43.0942 Y10.3402 
