(.../Tools/pcb/gcode/pcb-gcode.ulp)
(Copyright 2005 - 2012 by John Johnson)
(See readme.txt for licensing terms.)
(This file generated from the board:)
(.../HeaterController/HeaterController.brd)
(Current profile is .../pcb/gcode/profiles/generic.pp  )
(This file generated 1/22/2017 11:34 AM)
(Settings from pcb-machine.h)
(spindle on time = 3.0000)
(spindle speed = 15000.0000)
(milling depth = -2.6000)
(tool change at 0.0000 0.0000 30.0000 )
(feed rate xy = F254.00 )
(feed rate z  = F127.00 )
(Z Axis Settings)
(  High     Up        Down     Drill)
(10.0000 	5.0000 	-0.1778 	-2.6000 )
(Settings from pcb-defaults.h)
(isolate min = 0.1000)
(isolate max = 0.2000)
(isolate step = 0.1000)
(Generated top outlines, top drill, bottom outlines, bottom drill, )
(Unit of measure: mm)
(Metric Mode)
G21
(Absolute Coordinates)
G90
S15000
G00 Z10.0000 
G00 X0.0000 Y0.0000 
M03
G04 P3.000000
G00 Z5.0000 
G00 X2.5400 Y0.0000 
G01 Z-2.6000 F127.00 
G01 X99.0600 Y0.0000 F254.00 
G03 X101.6000 Y2.5400 R2.5400 F254.00 
G01 X101.6000 Y80.0100 
G03 X97.7900 Y83.8200 R3.8100 F254.00 
G01 X2.5400 Y83.8200 
G03 X0.0000 Y81.2800 R2.5400 F254.00 
G01 X0.0000 Y2.5400 
G03 X2.5400 Y0.0000 R2.5400 F254.00 
G00 Z10.0000 
M05
M02
