(.../Tools/pcb/gcode/pcb-gcode.ulp)
(Copyright 2005 - 2012 by John Johnson)
(See readme.txt for licensing terms.)
(This file generated from the board:)
(.../HeaterController/HeaterController.brd)
(Current profile is .../pcb/gcode/profiles/generic.pp  )
(This file generated 1/22/2017 11:34 AM)
(Settings from pcb-machine.h)
(spindle on time = 3.0000)
(spindle speed = 20000.0000)
(tool change at 0.0000 0.0000 30.0000 )
(feed rate xy = F0.00  )
(feed rate z  = F508.00 )
(Z Axis Settings)
(  High     Up        Down     Drill)
(10.0000 	5.0000 	-0.1778 	-2.6000 )
(Settings from pcb-defaults.h)
(isolate min = 0.1000)
(isolate max = 0.2000)
(isolate step = 0.1000)
(Generated top outlines, top drill, bottom outlines, bottom drill, )
(Unit of measure: mm)
( Tool|       Size       |  Min Sub |  Max Sub |   Count )
( T01  0.600mm 0.0236in 0.0000in 0.0000in )
( T02  0.800mm 0.0315in 0.0000in 0.0000in )
( T03  0.813mm 0.0320in 0.0000in 0.0000in )
( T04  0.900mm 0.0354in 0.0000in 0.0000in )
( T05  1.016mm 0.0400in 0.0000in 0.0000in )
( T06  1.100mm 0.0433in 0.0000in 0.0000in )
( T07  2.100mm 0.0827in 0.0000in 0.0000in )
( T08  3.000mm 0.1181in 0.0000in 0.0000in )
( T09  3.200mm 0.1260in 0.0000in 0.0000in )
( T10  3.302mm 0.1300in 0.0000in 0.0000in )
(Metric Mode)
G21
(Absolute Coordinates)
G90
S20000
G00 Z10.0000 
G00 X0.0000 Y0.0000 
M03
G04 P3.000000
M05
G00 Z30.0000 
M06 T01  ; 0.6000 
G01 Z0.0000 F508.00 
M06 
G00 Z5.0000 
M03
G04 P3.000000
G00 Z4.999990
G00 X45.7200 Y74.9300 
G01 Z-2.6000 F508.00 
G01 Z4.999990
(R5.0000  P1.000000)
G00 X57.1500 Y71.1200 
G01 Z-2.600000
G01 Z4.999990
G00 X63.5000 Y67.3100 
G01 Z-2.600000
G01 Z4.999990
G00 X63.5000 Y76.2000 
G01 Z-2.600000
G01 Z4.999990
G00 X52.0700 Y63.5000 
G01 Z-2.600000
G01 Z4.999990
G00 X58.4200 Y45.7200 
G01 Z-2.600000
G01 Z4.999990
G00 X68.5800 Y52.0700 
G01 Z-2.600000
G01 Z4.999990
G00 X63.5000 Y17.7800 
G01 Z-2.600000
G01 Z4.999990
G00 X58.4200 Y17.7800 
G01 Z-2.600000
G01 Z4.999990
G00 X49.5300 Y19.0500 
G01 Z-2.600000
G01 Z4.999990
M05
G00 Z30.0000 
G00 X0.0000 Y0.0000 
M06 T02  ; 0.8000 
G01 Z0.0000 F508.00 
M06 
G00 Z5.0000 
M03
G04 P3.000000
G00 Z4.999990
G00 X38.1000 Y33.0200 
G01 Z-2.6000 F508.00 
G01 Z4.999990
(R5.0000  P1.000000)
G00 X38.1000 Y35.5600 
G01 Z-2.600000
G01 Z4.999990
G00 X38.1000 Y38.1000 
G01 Z-2.600000
G01 Z4.999990
G00 X38.1000 Y40.6400 
G01 Z-2.600000
G01 Z4.999990
G00 X38.1000 Y43.1800 
G01 Z-2.600000
G01 Z4.999990
G00 X38.1000 Y45.7200 
G01 Z-2.600000
G01 Z4.999990
G00 X38.1000 Y48.2600 
G01 Z-2.600000
G01 Z4.999990
G00 X38.1000 Y50.8000 
G01 Z-2.600000
G01 Z4.999990
G00 X38.1000 Y53.3400 
G01 Z-2.600000
G01 Z4.999990
G00 X38.1000 Y55.8800 
G01 Z-2.600000
G01 Z4.999990
G00 X38.1000 Y58.4200 
G01 Z-2.600000
G01 Z4.999990
G00 X38.1000 Y60.9600 
G01 Z-2.600000
G01 Z4.999990
G00 X38.1000 Y63.5000 
G01 Z-2.600000
G01 Z4.999990
G00 X38.1000 Y66.0400 
G01 Z-2.600000
G01 Z4.999990
G00 X38.1000 Y68.5800 
G01 Z-2.600000
G01 Z4.999990
G00 X60.9600 Y68.5800 
G01 Z-2.600000
G01 Z4.999990
G00 X60.9600 Y66.0400 
G01 Z-2.600000
G01 Z4.999990
G00 X60.9600 Y63.5000 
G01 Z-2.600000
G01 Z4.999990
G00 X60.9600 Y60.9600 
G01 Z-2.600000
G01 Z4.999990
G00 X60.9600 Y58.4200 
G01 Z-2.600000
G01 Z4.999990
G00 X60.9600 Y55.8800 
G01 Z-2.600000
G01 Z4.999990
G00 X60.9600 Y53.3400 
G01 Z-2.600000
G01 Z4.999990
G00 X60.9600 Y50.8000 
G01 Z-2.600000
G01 Z4.999990
G00 X60.9600 Y48.2600 
G01 Z-2.600000
G01 Z4.999990
G00 X60.9600 Y45.7200 
G01 Z-2.600000
G01 Z4.999990
G00 X60.9600 Y43.1800 
G01 Z-2.600000
G01 Z4.999990
G00 X60.9600 Y40.6400 
G01 Z-2.600000
G01 Z4.999990
G00 X60.9600 Y38.1000 
G01 Z-2.600000
G01 Z4.999990
G00 X60.9600 Y35.5600 
G01 Z-2.600000
G01 Z4.999990
G00 X60.9600 Y33.0200 
G01 Z-2.600000
G01 Z4.999990
M05
G00 Z30.0000 
G00 X0.0000 Y0.0000 
M06 T03  ; 0.8128 
G01 Z0.0000 F508.00 
M06 
G00 Z5.0000 
M03
G04 P3.000000
G00 Z4.999990
G00 X29.2100 Y49.5300 
G01 Z-2.6000 F508.00 
G01 Z4.999990
(R5.0000  P1.000000)
G00 X31.1150 Y50.8000 
G01 Z-2.600000
G01 Z4.999990
G00 X29.2100 Y52.0700 
G01 Z-2.600000
G01 Z4.999990
G00 X29.2100 Y57.1500 
G01 Z-2.600000
G01 Z4.999990
G00 X29.2100 Y59.6900 
G01 Z-2.600000
G01 Z4.999990
G00 X36.8300 Y24.1300 
G01 Z-2.600000
G01 Z4.999990
G00 X38.7350 Y22.8600 
G01 Z-2.600000
G01 Z4.999990
G00 X36.8300 Y21.5900 
G01 Z-2.600000
G01 Z4.999990
G00 X43.1800 Y13.9700 
G01 Z-2.600000
G01 Z4.999990
G00 X43.1800 Y11.4300 
G01 Z-2.600000
G01 Z4.999990
G00 X68.5800 Y34.2900 
G01 Z-2.600000
G01 Z4.999990
G00 X70.4850 Y35.5600 
G01 Z-2.600000
G01 Z4.999990
G00 X68.5800 Y36.8300 
G01 Z-2.600000
G01 Z4.999990
G00 X68.5800 Y43.1800 
G01 Z-2.600000
G01 Z4.999990
G00 X66.6750 Y44.4500 
G01 Z-2.600000
G01 Z4.999990
G00 X68.5800 Y45.7200 
G01 Z-2.600000
G01 Z4.999990
G00 X76.2000 Y39.3700 
G01 Z-2.600000
G01 Z4.999990
G00 X76.2000 Y36.8300 
G01 Z-2.600000
G01 Z4.999990
G00 X68.5800 Y60.9600 
G01 Z-2.600000
G01 Z4.999990
G00 X68.5800 Y63.5000 
G01 Z-2.600000
G01 Z4.999990
M05
G00 Z30.0000 
G00 X0.0000 Y0.0000 
M06 T04  ; 0.9000 
G01 Z0.0000 F508.00 
M06 
G00 Z5.0000 
M03
G04 P3.000000
G00 Z4.999990
G00 X12.7000 Y38.1000 
G01 Z-2.6000 F508.00 
G01 Z4.999990
(R5.0000  P1.000000)
G00 X12.7000 Y40.6400 
G01 Z-2.600000
G01 Z4.999990
G00 X20.3200 Y40.6400 
G01 Z-2.600000
G01 Z4.999990
G00 X20.3200 Y38.1000 
G01 Z-2.600000
G01 Z4.999990
G00 X27.9400 Y38.1000 
G01 Z-2.600000
G01 Z4.999990
G00 X33.0200 Y38.1000 
G01 Z-2.600000
G01 Z4.999990
G00 X33.0200 Y45.7200 
G01 Z-2.600000
G01 Z4.999990
G00 X27.9400 Y45.7200 
G01 Z-2.600000
G01 Z4.999990
G00 X35.2425 Y18.0975 
G01 Z-2.600000
G01 Z4.999990
G00 X38.1000 Y17.7800 
G01 Z-2.600000
G01 Z4.999990
G00 X38.1000 Y10.1600 
G01 Z-2.600000
G01 Z4.999990
G00 X35.2425 Y10.4775 
G01 Z-2.600000
G01 Z4.999990
G00 X66.0400 Y22.8600 
G01 Z-2.600000
G01 Z4.999990
G00 X69.8500 Y22.8600 
G01 Z-2.600000
G01 Z4.999990
G00 X69.8500 Y30.4800 
G01 Z-2.600000
G01 Z4.999990
G00 X66.0400 Y30.4800 
G01 Z-2.600000
G01 Z4.999990
G00 X83.8200 Y36.8300 
G01 Z-2.600000
G01 Z4.999990
G00 X83.8200 Y39.3700 
G01 Z-2.600000
G01 Z4.999990
G00 X91.4400 Y39.3700 
G01 Z-2.600000
G01 Z4.999990
G00 X91.4400 Y36.8300 
G01 Z-2.600000
G01 Z4.999990
G00 X71.1200 Y49.5300 
G01 Z-2.600000
G01 Z4.999990
G00 X66.0400 Y49.5300 
G01 Z-2.600000
G01 Z4.999990
G00 X66.0400 Y57.1500 
G01 Z-2.600000
G01 Z4.999990
G00 X71.1200 Y57.1500 
G01 Z-2.600000
G01 Z4.999990
M05
G00 Z30.0000 
G00 X0.0000 Y0.0000 
M06 T05  ; 1.0160 
G01 Z0.0000 F508.00 
M06 
G00 Z5.0000 
M03
G04 P3.000000
G00 Z4.999990
G00 X48.2600 Y80.0100 
G01 Z-2.6000 F508.00 
G01 Z4.999990
(R5.0000  P1.000000)
G00 X50.8000 Y80.0100 
G01 Z-2.600000
G01 Z4.999990
G00 X53.3400 Y80.0100 
G01 Z-2.600000
G01 Z4.999990
G00 X55.8800 Y80.0100 
G01 Z-2.600000
G01 Z4.999990
G00 X63.5000 Y80.0100 
G01 Z-2.600000
G01 Z4.999990
G00 X66.0400 Y80.0100 
G01 Z-2.600000
G01 Z4.999990
G00 X68.5800 Y80.0100 
G01 Z-2.600000
G01 Z4.999990
G00 X64.7700 Y15.2400 
G01 Z-2.600000
G01 Z4.999990
G00 X64.7700 Y12.7000 
G01 Z-2.600000
G01 Z4.999990
G00 X60.9600 Y13.9700 
G01 Z-2.600000
G01 Z4.999990
G00 X58.4200 Y13.9700 
G01 Z-2.600000
G01 Z4.999990
G00 X55.8800 Y13.9700 
G01 Z-2.600000
G01 Z4.999990
G00 X52.0700 Y13.9700 
G01 Z-2.600000
G01 Z4.999990
G00 X49.5300 Y13.9700 
G01 Z-2.600000
G01 Z4.999990
M05
G00 Z30.0000 
G00 X0.0000 Y0.0000 
M06 T06  ; 1.1000 
G01 Z0.0000 F508.00 
M06 
G00 Z5.0000 
M03
G04 P3.000000
G00 Z4.999990
G00 X10.2300 Y49.5300 
G01 Z-2.6000 F508.00 
G01 Z4.999990
(R5.0000  P1.000000)
G00 X20.3200 Y49.5300 
G01 Z-2.600000
G01 Z4.999990
G00 X25.3300 Y29.2100 
G01 Z-2.600000
G01 Z4.999990
G00 X15.2400 Y29.2100 
G01 Z-2.600000
G01 Z4.999990
G00 X77.4700 Y27.9400 
G01 Z-2.600000
G01 Z4.999990
G00 X87.5600 Y27.9400 
G01 Z-2.600000
G01 Z4.999990
G00 X90.1700 Y49.5300 
G01 Z-2.600000
G01 Z4.999990
G00 X80.0800 Y49.5300 
G01 Z-2.600000
G01 Z4.999990
M05
G00 Z30.0000 
G00 X0.0000 Y0.0000 
M06 T07  ; 2.1000 
G01 Z0.0000 F508.00 
M06 
G00 Z5.0000 
M03
G04 P3.000000
G00 Z4.999990
G00 X6.3500 Y62.2300 
G01 Z-2.6000 F508.00 
G01 Z4.999990
(R5.0000  P1.000000)
G00 X24.1300 Y64.7700 
G01 Z-2.600000
G01 Z4.999990
G00 X24.1300 Y72.3900 
G01 Z-2.600000
G01 Z4.999990
G00 X76.2000 Y62.2300 
G01 Z-2.600000
G01 Z4.999990
G00 X93.9800 Y64.7700 
G01 Z-2.600000
G01 Z4.999990
G00 X93.9800 Y72.3900 
G01 Z-2.600000
G01 Z4.999990
G00 X91.4400 Y15.2400 
G01 Z-2.600000
G01 Z4.999990
G00 X73.6600 Y12.7000 
G01 Z-2.600000
G01 Z4.999990
G00 X73.6600 Y5.0800 
G01 Z-2.600000
G01 Z4.999990
G00 X29.2100 Y16.5100 
G01 Z-2.600000
G01 Z4.999990
G00 X11.4300 Y13.9700 
G01 Z-2.600000
G01 Z4.999990
G00 X11.4300 Y6.3500 
G01 Z-2.600000
G01 Z4.999990
M05
G00 Z30.0000 
G00 X0.0000 Y0.0000 
M06 T08  ; 3.0000 
G01 Z0.0000 F508.00 
M06 
G00 Z5.0000 
M03
G04 P3.000000
G00 Z4.999990
G00 X2.5400 Y16.5100 
G01 Z-2.6000 F508.00 
G01 Z4.999990
(R5.0000  P1.000000)
G00 X5.0400 Y23.0000 
G01 Z-2.600000
G01 Z4.999990
G00 X11.4300 Y80.0100 
G01 Z-2.600000
G01 Z4.999990
G00 X19.0500 Y80.0100 
G01 Z-2.600000
G01 Z4.999990
G00 X97.7900 Y19.0500 
G01 Z-2.600000
G01 Z4.999990
G00 X97.7900 Y10.1600 
G01 Z-2.600000
G01 Z4.999990
M05
G00 Z30.0000 
G00 X0.0000 Y0.0000 
M06 T09  ; 3.2000 
G01 Z0.0000 F508.00 
M06 
G00 Z5.0000 
M03
G04 P3.000000
G00 Z4.999990
G00 X39.3700 Y29.2100 
G01 Z-2.6000 F508.00 
G01 Z4.999990
(R5.0000  P1.000000)
G00 X59.6900 Y29.2100 
G01 Z-2.600000
G01 Z4.999990
G00 X59.6900 Y72.3900 
G01 Z-2.600000
G01 Z4.999990
G00 X39.3700 Y72.3900 
G01 Z-2.600000
G01 Z4.999990
M05
G00 Z30.0000 
G00 X0.0000 Y0.0000 
M06 T10  ; 3.3020 
G01 Z0.0000 F508.00 
M06 
G00 Z5.0000 
M03
G04 P3.000000
G00 Z4.999990
G00 X3.8100 Y3.8100 
G01 Z-2.6000 F508.00 
G01 Z4.999990
(R5.0000  P1.000000)
G00 X3.8100 Y80.0100 
G01 Z-2.600000
G01 Z4.999990
G00 X97.7900 Y80.0100 
G01 Z-2.600000
G01 Z4.999990
G00 X97.7900 Y3.8100 
G01 Z-2.600000
G01 Z4.999990
T01 
G00 Z10.0000 
M05
M02
