(.../Tools/pcb/gcode/pcb-gcode.ulp)
(Copyright 2005 - 2012 by John Johnson)
(See readme.txt for licensing terms.)
(This file generated from the board:)
(.../HeaterController/HeaterController.brd)
(Current profile is .../pcb/gcode/profiles/generic.pp  )
(This file generated 1/21/2017 4:05 PM)
(Settings from pcb-machine.h)
(spindle on time = 3.0000)
(  Tool Size)
(0.1000 )
(spindle speed = 30000.0000)
(tool change at 0.0000 0.0000 30.0000 )
(feed rate xy = F100.00 )
(feed rate z  = F200.00 )
(Z Axis Settings)
(  High     Up        Down     Drill)
(10.0000 	5.0000 	-0.1778 	-2.6000 )
(Settings from pcb-defaults.h)
(isolate min = 0.1000)
(isolate max = 0.2000)
(isolate step = 0.1000)
(Generated top outlines, top drill, bottom outlines, bottom drill, )
(Unit of measure: mm)
(Metric Mode)
G21
(Absolute Coordinates)
G90
S30000
G00 Z10.0000 
G00 X0.0000 Y0.0000 
M03
G04 P3.000000
G00 Z5.0000 
G00 X0.5609 Y14.7414 
G01 Z-0.1778 F200.00 
G01 X0.3754 Y14.9741 F100.00 
G01 X0.2170 Y15.2261 
G01 X0.0879 Y15.4943 
G01 X-0.0104 Y15.7752 
G01 X-0.0767 Y16.0654 
G01 X-0.1100 Y16.3612 
G01 X-0.1100 Y16.6588 
G01 X-0.0767 Y16.9546 
G01 X-0.0104 Y17.2448 
G01 X0.0879 Y17.5257 
G01 X0.2170 Y17.7939 
G01 X0.3754 Y18.0459 
G01 X0.5609 Y18.2786 
G01 X0.7714 Y18.4891 
G01 X1.0041 Y18.6746 
G01 X1.2561 Y18.8330 
G01 X1.5243 Y18.9621 
G01 X1.8052 Y19.0604 
G01 X2.0954 Y19.1267 
G01 X2.3912 Y19.1600 
G01 X2.6888 Y19.1600 
G01 X2.9846 Y19.1267 
G01 X3.2748 Y19.0604 
G01 X3.5557 Y18.9621 
G01 X3.8239 Y18.8330 
G01 X4.0759 Y18.6746 
G01 X4.3086 Y18.4891 
G01 X4.5191 Y18.2786 
G01 X4.7046 Y18.0459 
G01 X4.8630 Y17.7939 
G01 X4.9921 Y17.5257 
G01 X5.0904 Y17.2448 
G01 X5.1567 Y16.9546 
G01 X5.1900 Y16.6588 
G01 X5.1900 Y16.3612 
G01 X5.1567 Y16.0654 
G01 X5.0904 Y15.7752 
G01 X4.9921 Y15.4943 
G01 X4.8630 Y15.2261 
G01 X4.7046 Y14.9741 
G01 X4.5191 Y14.7414 
G01 X4.3086 Y14.5309 
G01 X4.0759 Y14.3454 
G01 X3.8239 Y14.1870 
G01 X3.5557 Y14.0579 
G01 X3.2748 Y13.9596 
G01 X2.9846 Y13.8933 
G01 X2.6888 Y13.8600 
G01 X2.3912 Y13.8600 
G01 X2.0954 Y13.8933 
G01 X1.8052 Y13.9596 
G01 X1.5243 Y14.0579 
G01 X1.2561 Y14.1870 
G01 X1.0041 Y14.3454 
G01 X0.7714 Y14.5309 
G01 X0.5609 Y14.7414 
G00 Z5.0000 
G00 X3.0609 Y21.2314 
G01 Z-0.1778 F200.00 
G01 X2.8754 Y21.4641 F100.00 
G01 X2.7170 Y21.7161 
G01 X2.5879 Y21.9843 
G01 X2.4896 Y22.2652 
G01 X2.4233 Y22.5554 
G01 X2.3900 Y22.8512 
G01 X2.3900 Y23.1488 
G01 X2.4233 Y23.4446 
G01 X2.4896 Y23.7348 
G01 X2.5879 Y24.0157 
G01 X2.7170 Y24.2839 
G01 X2.8754 Y24.5359 
G01 X3.0609 Y24.7686 
G01 X3.2714 Y24.9791 
G01 X3.5041 Y25.1646 
G01 X3.7561 Y25.3230 
G01 X4.0243 Y25.4521 
G01 X4.3052 Y25.5504 
G01 X4.5954 Y25.6167 
G01 X4.8912 Y25.6500 
G01 X5.1888 Y25.6500 
G01 X5.4846 Y25.6167 
G01 X5.7748 Y25.5504 
G01 X6.0557 Y25.4521 
G01 X6.3239 Y25.3230 
G01 X6.5759 Y25.1646 
G01 X6.8086 Y24.9791 
G01 X7.0191 Y24.7686 
G01 X7.2046 Y24.5359 
G01 X7.3630 Y24.2839 
G01 X7.4921 Y24.0157 
G01 X7.5904 Y23.7348 
G01 X7.6567 Y23.4446 
G01 X7.6900 Y23.1488 
G01 X7.6900 Y22.8512 
G01 X7.6567 Y22.5554 
G01 X7.5904 Y22.2652 
G01 X7.4921 Y21.9843 
G01 X7.3630 Y21.7161 
G01 X7.2046 Y21.4641 
G01 X7.0191 Y21.2314 
G01 X6.8086 Y21.0209 
G01 X6.5759 Y20.8354 
G01 X6.3239 Y20.6770 
G01 X6.0557 Y20.5479 
G01 X5.7748 Y20.4496 
G01 X5.4846 Y20.3833 
G01 X5.1888 Y20.3500 
G01 X4.8912 Y20.3500 
G01 X4.5954 Y20.3833 
G01 X4.3052 Y20.4496 
G01 X4.0243 Y20.5479 
G01 X3.7561 Y20.6770 
G01 X3.5041 Y20.8354 
G01 X3.2714 Y21.0209 
G01 X3.0609 Y21.2314 
G00 Z5.0000 
G00 X10.3014 Y15.2569 
G01 Z-0.1778 F200.00 
G01 X10.4791 Y15.3932 F100.00 
G01 X10.6729 Y15.5051 
G01 X10.8798 Y15.5908 
G01 X11.0961 Y15.6488 
G01 X11.3180 Y15.6780 
G01 X11.5419 Y15.6780 
G01 X11.7639 Y15.6488 
G01 X11.9802 Y15.5908 
G01 X12.1870 Y15.5051 
G01 X12.3809 Y15.3932 
G01 X12.5586 Y15.2569 
G01 X12.7169 Y15.0986 
G01 X12.8532 Y14.9209 
G01 X12.9651 Y14.7271 
G01 X13.0508 Y14.5202 
G01 X13.1088 Y14.3039 
G01 X13.1380 Y14.0819 
G01 X13.1380 Y13.8581 
G01 X13.1088 Y13.6361 
G01 X13.0508 Y13.4198 
G01 X12.9651 Y13.2129 
G01 X12.8532 Y13.0191 
G01 X12.7169 Y12.8414 
G01 X12.5586 Y12.6831 
G01 X12.3809 Y12.5468 
G01 X12.1870 Y12.4349 
G01 X11.9802 Y12.3492 
G01 X11.7639 Y12.2912 
G01 X11.5419 Y12.2620 
G01 X11.3180 Y12.2620 
G01 X11.0961 Y12.2912 
G01 X10.8798 Y12.3492 
G01 X10.6729 Y12.4349 
G01 X10.4791 Y12.5468 
G01 X10.3014 Y12.6831 
G01 X10.1431 Y12.8414 
G01 X10.0068 Y13.0191 
G01 X9.8949 Y13.2129 
G01 X9.8092 Y13.4198 
G01 X9.7512 Y13.6361 
G01 X9.7220 Y13.8581 
G01 X9.7220 Y14.0819 
G01 X9.7512 Y14.3039 
G01 X9.8092 Y14.5202 
G01 X9.8949 Y14.7271 
G01 X10.0068 Y14.9209 
G01 X10.1431 Y15.0986 
G01 X10.3014 Y15.2569 
G00 Z5.0000 
G00 X10.3014 Y7.6369 
G01 Z-0.1778 F200.00 
G01 X10.4791 Y7.7732 F100.00 
G01 X10.6729 Y7.8851 
G01 X10.8798 Y7.9708 
G01 X11.0961 Y8.0288 
G01 X11.3180 Y8.0580 
G01 X11.5419 Y8.0580 
G01 X11.7639 Y8.0288 
G01 X11.9802 Y7.9708 
G01 X12.1870 Y7.8851 
G01 X12.3809 Y7.7732 
G01 X12.5586 Y7.6369 
G01 X12.7169 Y7.4786 
G01 X12.8532 Y7.3009 
G01 X12.9651 Y7.1071 
G01 X13.0508 Y6.9002 
G01 X13.1088 Y6.6839 
G01 X13.1380 Y6.4619 
G01 X13.1380 Y6.2381 
G01 X13.1088 Y6.0161 
G01 X13.0508 Y5.7998 
G01 X12.9651 Y5.5929 
G01 X12.8532 Y5.3990 
G01 X12.7169 Y5.2214 
G01 X12.5586 Y5.0631 
G01 X12.3809 Y4.9268 
G01 X12.1870 Y4.8149 
G01 X11.9802 Y4.7292 
G01 X11.7639 Y4.6712 
G01 X11.5419 Y4.6420 
G01 X11.3180 Y4.6420 
G01 X11.0961 Y4.6712 
G01 X10.8798 Y4.7292 
G01 X10.6729 Y4.8149 
G01 X10.4791 Y4.9268 
G01 X10.3014 Y5.0631 
G01 X10.1431 Y5.2214 
G01 X10.0068 Y5.3990 
G01 X9.8949 Y5.5929 
G01 X9.8092 Y5.7998 
G01 X9.7512 Y6.0161 
G01 X9.7220 Y6.2381 
G01 X9.7220 Y6.4619 
G01 X9.7512 Y6.6839 
G01 X9.8092 Y6.9002 
G01 X9.8949 Y7.1071 
G01 X10.0068 Y7.3009 
G01 X10.1431 Y7.4786 
G01 X10.3014 Y7.6369 
G00 Z5.0000 
G00 X14.3797 Y28.4752 
G01 Z-0.1778 F200.00 
G01 X14.2753 Y28.6188 F100.00 
G01 X14.1947 Y28.7770 
G01 X14.1399 Y28.9459 
G01 X14.1121 Y29.1212 
G01 X14.1121 Y29.2988 
G01 X14.1399 Y29.4741 
G01 X14.1947 Y29.6430 
G01 X14.2753 Y29.8011 
G01 X14.3797 Y29.9448 
G01 X14.5052 Y30.0703 
G01 X14.6488 Y30.1747 
G01 X14.8070 Y30.2553 
G01 X14.9759 Y30.3101 
G01 X15.1512 Y30.3379 
G01 X15.3288 Y30.3379 
G01 X15.5041 Y30.3101 
G01 X15.6730 Y30.2553 
G01 X15.8311 Y30.1747 
G01 X15.9748 Y30.0703 
G01 X16.1003 Y29.9448 
G01 X16.2047 Y29.8011 
G01 X16.2853 Y29.6430 
G01 X16.3401 Y29.4741 
G01 X16.3679 Y29.2988 
G01 X16.3679 Y29.1212 
G01 X16.3401 Y28.9459 
G01 X16.2853 Y28.7770 
G01 X16.2047 Y28.6188 
G01 X16.1003 Y28.4752 
G01 X15.9748 Y28.3497 
G01 X15.8311 Y28.2453 
G01 X15.6730 Y28.1647 
G01 X15.5041 Y28.1099 
G01 X15.3288 Y28.0821 
G01 X15.1512 Y28.0821 
G01 X14.9759 Y28.1099 
G01 X14.8070 Y28.1647 
G01 X14.6488 Y28.2453 
G01 X14.5052 Y28.3497 
G01 X14.3797 Y28.4752 
G00 Z5.0000 
G00 X13.4100 Y37.2687 
G01 Z-0.1778 F200.00 
G01 X13.2712 Y37.1679 F100.00 
G01 X13.1183 Y37.0900 
G01 X12.9552 Y37.0370 
G01 X12.7858 Y37.0102 
G01 X12.6142 Y37.0102 
G01 X12.4448 Y37.0370 
G01 X12.2817 Y37.0900 
G01 X12.1288 Y37.1679 
G01 X11.9900 Y37.2687 
G01 X11.8687 Y37.3900 
G01 X11.7679 Y37.5288 
G01 X11.6900 Y37.6817 
G01 X11.6370 Y37.8448 
G01 X11.6102 Y38.0142 
G01 X11.6102 Y38.1858 
G01 X11.6370 Y38.3552 
G01 X11.6900 Y38.5183 
G01 X11.7679 Y38.6712 
G01 X11.8687 Y38.8100 
G01 X11.9900 Y38.9312 
G01 X12.1288 Y39.0321 
G01 X12.2817 Y39.1100 
G01 X12.4448 Y39.1630 
G01 X12.6142 Y39.1898 
G01 X12.7858 Y39.1898 
G01 X12.9552 Y39.1630 
G01 X13.1183 Y39.1100 
G01 X13.2712 Y39.0321 
G01 X13.4100 Y38.9312 
G01 X13.5312 Y38.8100 
G01 X13.6321 Y38.6712 
G01 X13.7100 Y38.5183 
G01 X13.7630 Y38.3552 
G01 X13.7898 Y38.1858 
G01 X13.7898 Y38.0142 
G01 X13.7630 Y37.8448 
G01 X13.7100 Y37.6817 
G01 X13.6321 Y37.5288 
G01 X13.5312 Y37.3900 
G01 X13.4100 Y37.2687 
G00 Z5.0000 
G00 X13.4100 Y39.8087 
G01 Z-0.1778 F200.00 
G01 X13.2712 Y39.7079 F100.00 
G01 X13.1183 Y39.6300 
G01 X12.9552 Y39.5770 
G01 X12.7858 Y39.5502 
G01 X12.6142 Y39.5502 
G01 X12.4448 Y39.5770 
G01 X12.2817 Y39.6300 
G01 X12.1288 Y39.7079 
G01 X11.9900 Y39.8087 
G01 X11.8687 Y39.9300 
G01 X11.7679 Y40.0688 
G01 X11.6900 Y40.2217 
G01 X11.6370 Y40.3848 
G01 X11.6102 Y40.5542 
G01 X11.6102 Y40.7258 
G01 X11.6370 Y40.8952 
G01 X11.6900 Y41.0583 
G01 X11.7679 Y41.2112 
G01 X11.8687 Y41.3500 
G01 X11.9900 Y41.4712 
G01 X12.1288 Y41.5721 
G01 X12.2817 Y41.6500 
G01 X12.4448 Y41.7030 
G01 X12.6142 Y41.7298 
G01 X12.7858 Y41.7298 
G01 X12.9552 Y41.7030 
G01 X13.1183 Y41.6500 
G01 X13.2712 Y41.5721 
G01 X13.4100 Y41.4712 
G01 X13.5312 Y41.3500 
G01 X13.6321 Y41.2112 
G01 X13.7100 Y41.0583 
G01 X13.7630 Y40.8952 
G01 X13.7898 Y40.7258 
G01 X13.7898 Y40.5542 
G01 X13.7630 Y40.3848 
G01 X13.7100 Y40.2217 
G01 X13.6321 Y40.0688 
G01 X13.5312 Y39.9300 
G01 X13.4100 Y39.8087 
G00 Z5.0000 
G00 X19.4887 Y39.9300 
G01 Z-0.1778 F200.00 
G01 X19.3879 Y40.0688 F100.00 
G01 X19.3100 Y40.2217 
G01 X19.2570 Y40.3848 
G01 X19.2302 Y40.5542 
G01 X19.2302 Y40.7258 
G01 X19.2570 Y40.8952 
G01 X19.3100 Y41.0583 
G01 X19.3879 Y41.2112 
G01 X19.4887 Y41.3500 
G01 X19.6100 Y41.4712 
G01 X19.7488 Y41.5721 
G01 X19.9017 Y41.6500 
G01 X20.0648 Y41.7030 
G01 X20.2342 Y41.7298 
G01 X20.4058 Y41.7298 
G01 X20.5752 Y41.7030 
G01 X20.7383 Y41.6500 
G01 X20.8912 Y41.5721 
G01 X21.0300 Y41.4712 
G01 X21.1513 Y41.3500 
G01 X21.2521 Y41.2112 
G01 X21.3300 Y41.0583 
G01 X21.3830 Y40.8952 
G01 X21.4098 Y40.7258 
G01 X21.4098 Y40.5542 
G01 X21.3830 Y40.3848 
G01 X21.3300 Y40.2217 
G01 X21.2521 Y40.0688 
G01 X21.1513 Y39.9300 
G01 X21.0300 Y39.8087 
G01 X20.8912 Y39.7079 
G01 X20.7383 Y39.6300 
G01 X20.5752 Y39.5770 
G01 X20.4058 Y39.5502 
G01 X20.2342 Y39.5502 
G01 X20.0648 Y39.5770 
G01 X19.9017 Y39.6300 
G01 X19.7488 Y39.7079 
G01 X19.6100 Y39.8087 
G01 X19.4887 Y39.9300 
G00 Z5.0000 
G00 X19.6100 Y38.9312 
G01 Z-0.1778 F200.00 
G01 X19.7488 Y39.0321 F100.00 
G01 X19.9017 Y39.1100 
G01 X20.0648 Y39.1630 
G01 X20.2342 Y39.1898 
G01 X20.4058 Y39.1898 
G01 X20.5752 Y39.1630 
G01 X20.7383 Y39.1100 
G01 X20.8912 Y39.0321 
G01 X21.0300 Y38.9312 
G01 X21.1513 Y38.8100 
G01 X21.2521 Y38.6712 
G01 X21.3300 Y38.5183 
G01 X21.3830 Y38.3552 
G01 X21.4098 Y38.1858 
G01 X21.4098 Y38.0142 
G01 X21.3830 Y37.8448 
G01 X21.3300 Y37.6817 
G01 X21.2521 Y37.5288 
G01 X21.1513 Y37.3900 
G01 X21.0300 Y37.2687 
G01 X20.8912 Y37.1679 
G01 X20.7383 Y37.0900 
G01 X20.5752 Y37.0370 
G01 X20.4058 Y37.0102 
G01 X20.2342 Y37.0102 
G01 X20.0648 Y37.0370 
G01 X19.9017 Y37.0900 
G01 X19.7488 Y37.1679 
G01 X19.6100 Y37.2687 
G01 X19.4887 Y37.3900 
G01 X19.3879 Y37.5288 
G01 X19.3100 Y37.6817 
G01 X19.2570 Y37.8448 
G01 X19.2302 Y38.0142 
G01 X19.2302 Y38.1858 
G01 X19.2570 Y38.3552 
G01 X19.3100 Y38.5183 
G01 X19.3879 Y38.6712 
G01 X19.4887 Y38.8100 
G01 X19.6100 Y38.9312 
G00 Z5.0000 
G00 X27.2300 Y38.9312 
G01 Z-0.1778 F200.00 
G01 X27.3688 Y39.0321 F100.00 
G01 X27.5217 Y39.1100 
G01 X27.6848 Y39.1630 
G01 X27.8542 Y39.1898 
G01 X28.0258 Y39.1898 
G01 X28.1952 Y39.1630 
G01 X28.3583 Y39.1100 
G01 X28.5112 Y39.0321 
G01 X28.6500 Y38.9312 
G01 X28.7712 Y38.8100 
G01 X28.8721 Y38.6712 
G01 X28.9500 Y38.5183 
G01 X29.0030 Y38.3552 
G01 X29.0298 Y38.1858 
G01 X29.0298 Y38.0142 
G01 X29.0030 Y37.8448 
G01 X28.9500 Y37.6817 
G01 X28.8721 Y37.5288 
G01 X28.7712 Y37.3900 
G01 X28.6500 Y37.2687 
G01 X28.5112 Y37.1679 
G01 X28.3583 Y37.0900 
G01 X28.1952 Y37.0370 
G01 X28.0258 Y37.0102 
G01 X27.8542 Y37.0102 
G01 X27.6848 Y37.0370 
G01 X27.5217 Y37.0900 
G01 X27.3688 Y37.1679 
G01 X27.2300 Y37.2687 
G01 X27.1087 Y37.3900 
G01 X27.0079 Y37.5288 
G01 X26.9300 Y37.6817 
G01 X26.8770 Y37.8448 
G01 X26.8502 Y38.0142 
G01 X26.8502 Y38.1858 
G01 X26.8770 Y38.3552 
G01 X26.9300 Y38.5183 
G01 X27.0079 Y38.6712 
G01 X27.1087 Y38.8100 
G01 X27.2300 Y38.9312 
G00 Z5.0000 
G00 X27.7231 Y41.6274 
G01 Z-0.1778 F200.00 
G01 X25.1831 Y44.1674 F100.00 
G01 X25.1174 Y44.2331 
G01 X25.0709 Y44.3137 
G01 X25.0468 Y44.4035 
G01 X25.0468 Y50.8465 
G01 X25.0709 Y50.9363 
G01 X25.1174 Y51.0169 
G01 X26.3874 Y52.2869 
G01 X26.4531 Y52.3526 
G01 X26.5337 Y52.3991 
G01 X26.6235 Y52.4232 
G01 X28.1789 Y52.4232 
G01 X28.2000 Y52.4883 
G01 X28.2779 Y52.6412 
G01 X28.3787 Y52.7800 
G01 X28.5000 Y52.9012 
G01 X28.6388 Y53.0021 
G01 X28.7917 Y53.0800 
G01 X28.8568 Y53.1011 
G01 X28.8568 Y53.3865 
G01 X28.8809 Y53.4763 
G01 X28.9274 Y53.5569 
G01 X28.9931 Y53.6226 
G01 X29.0737 Y53.6691 
G01 X29.1635 Y53.6932 
G01 X30.3337 Y53.6932 
G01 X31.4674 Y54.8269 
G01 X31.5331 Y54.8926 
G01 X31.6137 Y54.9391 
G01 X31.7035 Y54.9632 
G01 X32.6668 Y54.9632 
G01 X32.6668 Y73.7065 
G01 X32.6909 Y73.7963 
G01 X32.7374 Y73.8769 
G01 X34.0074 Y75.1469 
G01 X34.0731 Y75.2126 
G01 X34.1537 Y75.2591 
G01 X34.2435 Y75.2832 
G01 X45.1093 Y75.2832 
G01 X45.1732 Y75.3788 
G01 X45.2712 Y75.4768 
G01 X45.3865 Y75.5539 
G01 X45.5147 Y75.6069 
G01 X45.6507 Y75.6340 
G01 X45.7893 Y75.6340 
G01 X45.9253 Y75.6069 
G01 X46.0535 Y75.5539 
G01 X46.1688 Y75.4768 
G01 X46.2668 Y75.3788 
G01 X46.3307 Y75.2832 
G01 X63.1468 Y75.2832 
G01 X63.1468 Y75.5893 
G01 X63.0512 Y75.6532 
G01 X62.9532 Y75.7512 
G01 X62.8761 Y75.8665 
G01 X62.8231 Y75.9946 
G01 X62.7960 Y76.1307 
G01 X62.7960 Y76.2693 
G01 X62.8231 Y76.4053 
G01 X62.8761 Y76.5335 
G01 X62.9532 Y76.6488 
G01 X63.0512 Y76.7468 
G01 X63.1665 Y76.8239 
G01 X63.2946 Y76.8769 
G01 X63.4307 Y76.9040 
G01 X63.5693 Y76.9040 
G01 X63.7053 Y76.8769 
G01 X63.8335 Y76.8239 
G01 X63.9488 Y76.7468 
G01 X64.0468 Y76.6488 
G01 X64.1239 Y76.5335 
G01 X64.1769 Y76.4053 
G01 X64.2040 Y76.2693 
G01 X64.2040 Y76.1307 
G01 X64.1769 Y75.9946 
G01 X64.1239 Y75.8665 
G01 X64.0468 Y75.7512 
G01 X63.9488 Y75.6532 
G01 X63.8532 Y75.5893 
G01 X63.8532 Y75.1483 
G01 X66.1659 Y73.9919 
G01 X66.1763 Y73.9891 
G01 X66.2075 Y73.9712 
G01 X66.2395 Y73.9551 
G01 X66.2476 Y73.9480 
G01 X66.2569 Y73.9426 
G01 X66.2823 Y73.9172 
G01 X66.3091 Y73.8934 
G01 X66.3150 Y73.8845 
G01 X66.3226 Y73.8769 
G01 X66.3406 Y73.8458 
G01 X66.3604 Y73.8158 
G01 X66.3638 Y73.8056 
G01 X66.3691 Y73.7963 
G01 X66.3784 Y73.7616 
G01 X66.3898 Y73.7276 
G01 X66.3904 Y73.7169 
G01 X66.3932 Y73.7065 
G01 X66.3932 Y73.6706 
G01 X66.3953 Y73.6347 
G01 X66.3932 Y73.6242 
G01 X66.3932 Y61.1063 
G01 X68.7969 Y58.7026 
G01 X68.8626 Y58.6369 
G01 X68.9091 Y58.5563 
G01 X68.9332 Y58.4665 
G01 X68.9332 Y52.6807 
G01 X69.0288 Y52.6168 
G01 X69.1268 Y52.5188 
G01 X69.2039 Y52.4035 
G01 X69.2569 Y52.2753 
G01 X69.2840 Y52.1393 
G01 X69.2840 Y52.0007 
G01 X69.2569 Y51.8646 
G01 X69.2039 Y51.7365 
G01 X69.1268 Y51.6212 
G01 X69.0288 Y51.5232 
G01 X68.9135 Y51.4461 
G01 X68.7853 Y51.3931 
G01 X68.6493 Y51.3660 
G01 X68.5107 Y51.3660 
G01 X68.3747 Y51.3931 
G01 X68.2465 Y51.4461 
G01 X68.1312 Y51.5232 
G01 X68.0332 Y51.6212 
G01 X67.9561 Y51.7365 
G01 X67.9031 Y51.8646 
G01 X67.8760 Y52.0007 
G01 X67.8760 Y52.1393 
G01 X67.9031 Y52.2753 
G01 X67.9561 Y52.4035 
G01 X68.0332 Y52.5188 
G01 X68.1312 Y52.6168 
G01 X68.2268 Y52.6807 
G01 X68.2268 Y58.2737 
G01 X65.7574 Y60.7431 
G01 X65.7109 Y60.8237 
G01 X65.6868 Y60.9135 
G01 X65.6868 Y73.4417 
G01 X63.4166 Y74.5768 
G01 X46.3307 Y74.5768 
G01 X46.2668 Y74.4812 
G01 X46.1688 Y74.3832 
G01 X46.0535 Y74.3061 
G01 X45.9253 Y74.2531 
G01 X45.7893 Y74.2260 
G01 X45.6507 Y74.2260 
G01 X45.5147 Y74.2531 
G01 X45.3865 Y74.3061 
G01 X45.2712 Y74.3832 
G01 X45.1732 Y74.4812 
G01 X45.1093 Y74.5768 
G01 X34.4363 Y74.5768 
G01 X33.3732 Y73.5137 
G01 X33.3732 Y54.5635 
G01 X33.3491 Y54.4737 
G01 X33.3026 Y54.3931 
G01 X33.2369 Y54.3274 
G01 X33.1563 Y54.2809 
G01 X33.0665 Y54.2568 
G01 X31.8963 Y54.2568 
G01 X30.6969 Y53.0574 
G01 X30.6163 Y53.0109 
G01 X30.5265 Y52.9868 
G01 X29.8022 Y52.9868 
G01 X29.9200 Y52.9012 
G01 X30.0413 Y52.7800 
G01 X30.1421 Y52.6412 
G01 X30.2200 Y52.4883 
G01 X30.2730 Y52.3252 
G01 X30.2998 Y52.1558 
G01 X30.2998 Y51.9842 
G01 X30.2730 Y51.8148 
G01 X30.2200 Y51.6517 
G01 X30.1421 Y51.4988 
G01 X30.0413 Y51.3600 
G01 X29.9200 Y51.2387 
G01 X29.7812 Y51.1379 
G01 X29.6283 Y51.0600 
G01 X29.4652 Y51.0070 
G01 X29.2958 Y50.9802 
G01 X29.1242 Y50.9802 
G01 X28.9548 Y51.0070 
G01 X28.7917 Y51.0600 
G01 X28.6388 Y51.1379 
G01 X28.5000 Y51.2387 
G01 X28.3787 Y51.3600 
G01 X28.2779 Y51.4988 
G01 X28.2000 Y51.6517 
G01 X28.1789 Y51.7168 
G01 X26.8163 Y51.7168 
G01 X25.7532 Y50.6537 
G01 X25.7532 Y44.5963 
G01 X28.0863 Y42.2632 
G01 X30.5265 Y42.2632 
G01 X30.6163 Y42.2391 
G01 X30.6969 Y42.1926 
G01 X30.7626 Y42.1269 
G01 X30.8091 Y42.0463 
G01 X30.8332 Y41.9565 
G01 X30.8332 Y30.6263 
G01 X31.8963 Y29.5632 
G01 X35.6065 Y29.5632 
G01 X35.6963 Y29.5391 
G01 X35.7769 Y29.4926 
G01 X35.8426 Y29.4269 
G01 X37.1126 Y28.1569 
G01 X37.1591 Y28.0763 
G01 X37.1832 Y27.9865 
G01 X37.1832 Y25.1611 
G01 X37.2483 Y25.1400 
G01 X37.4012 Y25.0621 
G01 X37.5400 Y24.9612 
G01 X37.6613 Y24.8400 
G01 X37.7621 Y24.7012 
G01 X37.8400 Y24.5483 
G01 X37.8930 Y24.3852 
G01 X37.9198 Y24.2158 
G01 X37.9198 Y24.0442 
G01 X37.8930 Y23.8748 
G01 X37.8400 Y23.7117 
G01 X37.7621 Y23.5588 
G01 X37.6613 Y23.4200 
G01 X37.5400 Y23.2987 
G01 X37.4012 Y23.1979 
G01 X37.2483 Y23.1200 
G01 X37.0852 Y23.0670 
G01 X36.9158 Y23.0402 
G01 X36.7442 Y23.0402 
G01 X36.5748 Y23.0670 
G01 X36.4117 Y23.1200 
G01 X36.2588 Y23.1979 
G01 X36.1200 Y23.2987 
G01 X35.9987 Y23.4200 
G01 X35.8979 Y23.5588 
G01 X35.8200 Y23.7117 
G01 X35.7670 Y23.8748 
G01 X35.7402 Y24.0442 
G01 X35.7402 Y24.2158 
G01 X35.7670 Y24.3852 
G01 X35.8200 Y24.5483 
G01 X35.8979 Y24.7012 
G01 X35.9987 Y24.8400 
G01 X36.1200 Y24.9612 
G01 X36.2588 Y25.0621 
G01 X36.4117 Y25.1400 
G01 X36.4768 Y25.1611 
G01 X36.4768 Y27.7937 
G01 X35.4137 Y28.8568 
G01 X31.7035 Y28.8568 
G01 X31.6137 Y28.8809 
G01 X31.5331 Y28.9274 
G01 X30.2631 Y30.1974 
G01 X30.1974 Y30.2631 
G01 X30.1509 Y30.3437 
G01 X30.1268 Y30.4335 
G01 X30.1268 Y41.5568 
G01 X27.8935 Y41.5568 
G01 X27.8037 Y41.5809 
G01 X27.7231 Y41.6274 
G00 Z5.0000 
G00 X27.6848 Y44.6570 
G01 Z-0.1778 F200.00 
G01 X27.5217 Y44.7100 F100.00 
G01 X27.3688 Y44.7879 
G01 X27.2300 Y44.8887 
G01 X27.1087 Y45.0100 
G01 X27.0079 Y45.1488 
G01 X26.9300 Y45.3017 
G01 X26.8770 Y45.4648 
G01 X26.8502 Y45.6342 
G01 X26.8502 Y45.8058 
G01 X26.8770 Y45.9752 
G01 X26.9300 Y46.1383 
G01 X27.0079 Y46.2912 
G01 X27.1087 Y46.4300 
G01 X27.2300 Y46.5513 
G01 X27.3688 Y46.6521 
G01 X27.5217 Y46.7300 
G01 X27.6848 Y46.7830 
G01 X27.8542 Y46.8098 
G01 X28.0258 Y46.8098 
G01 X28.1952 Y46.7830 
G01 X28.3583 Y46.7300 
G01 X28.5112 Y46.6521 
G01 X28.6500 Y46.5513 
G01 X28.7712 Y46.4300 
G01 X28.8721 Y46.2912 
G01 X28.9500 Y46.1383 
G01 X29.0030 Y45.9752 
G01 X29.0298 Y45.8058 
G01 X29.0298 Y45.6342 
G01 X29.0030 Y45.4648 
G01 X28.9500 Y45.3017 
G01 X28.8721 Y45.1488 
G01 X28.7712 Y45.0100 
G01 X28.6500 Y44.8887 
G01 X28.5112 Y44.7879 
G01 X28.3583 Y44.7100 
G01 X28.1952 Y44.6570 
G01 X28.0258 Y44.6302 
G01 X27.8542 Y44.6302 
G01 X27.6848 Y44.6570 
G00 Z5.0000 
G00 X32.1887 Y45.0100 
G01 Z-0.1778 F200.00 
G01 X32.0879 Y45.1488 F100.00 
G01 X32.0100 Y45.3017 
G01 X31.9570 Y45.4648 
G01 X31.9302 Y45.6342 
G01 X31.9302 Y45.8058 
G01 X31.9570 Y45.9752 
G01 X32.0100 Y46.1383 
G01 X32.0879 Y46.2912 
G01 X32.1887 Y46.4300 
G01 X32.3100 Y46.5513 
G01 X32.4488 Y46.6521 
G01 X32.6017 Y46.7300 
G01 X32.6668 Y46.7511 
G01 X32.6668 Y49.3837 
G01 X31.9522 Y50.0983 
G01 X31.9462 Y50.0900 
G01 X31.8250 Y49.9687 
G01 X31.6862 Y49.8679 
G01 X31.5333 Y49.7900 
G01 X31.3702 Y49.7370 
G01 X31.2008 Y49.7102 
G01 X31.0292 Y49.7102 
G01 X30.8598 Y49.7370 
G01 X30.6967 Y49.7900 
G01 X30.5438 Y49.8679 
G01 X30.4050 Y49.9687 
G01 X30.2837 Y50.0900 
G01 X30.1829 Y50.2288 
G01 X30.1050 Y50.3817 
G01 X30.0520 Y50.5448 
G01 X30.0252 Y50.7142 
G01 X30.0252 Y50.8858 
G01 X30.0520 Y51.0552 
G01 X30.1050 Y51.2183 
G01 X30.1829 Y51.3712 
G01 X30.2837 Y51.5100 
G01 X30.4050 Y51.6313 
G01 X30.5438 Y51.7321 
G01 X30.6967 Y51.8100 
G01 X30.8598 Y51.8630 
G01 X31.0292 Y51.8898 
G01 X31.2008 Y51.8898 
G01 X31.3702 Y51.8630 
G01 X31.5333 Y51.8100 
G01 X31.6862 Y51.7321 
G01 X31.8250 Y51.6313 
G01 X31.9462 Y51.5100 
G01 X32.0471 Y51.3712 
G01 X32.1250 Y51.2183 
G01 X32.1780 Y51.0552 
G01 X32.2048 Y50.8858 
G01 X32.2048 Y50.8447 
G01 X33.2369 Y49.8126 
G01 X33.3026 Y49.7469 
G01 X33.3491 Y49.6663 
G01 X33.3732 Y49.5765 
G01 X33.3732 Y46.7511 
G01 X33.4383 Y46.7300 
G01 X33.5912 Y46.6521 
G01 X33.7300 Y46.5513 
G01 X33.8513 Y46.4300 
G01 X33.9521 Y46.2912 
G01 X34.0300 Y46.1383 
G01 X34.0830 Y45.9752 
G01 X34.1098 Y45.8058 
G01 X34.1098 Y45.6342 
G01 X34.0830 Y45.4648 
G01 X34.0300 Y45.3017 
G01 X33.9521 Y45.1488 
G01 X33.8513 Y45.0100 
G01 X33.7300 Y44.8887 
G01 X33.5912 Y44.7879 
G01 X33.4383 Y44.7100 
G01 X33.2752 Y44.6570 
G01 X33.1058 Y44.6302 
G01 X32.9342 Y44.6302 
G01 X32.7648 Y44.6570 
G01 X32.6017 Y44.7100 
G01 X32.4488 Y44.7879 
G01 X32.3100 Y44.8887 
G01 X32.1887 Y45.0100 
G00 Z5.0000 
G00 X37.2494 Y44.9935 
G01 Z-0.1778 F200.00 
G01 X37.1462 Y45.1355 F100.00 
G01 X37.0665 Y45.2919 
G01 X37.0123 Y45.4589 
G01 X36.9848 Y45.6322 
G01 X36.9848 Y45.8078 
G01 X37.0123 Y45.9811 
G01 X37.0665 Y46.1481 
G01 X37.1462 Y46.3045 
G01 X37.2494 Y46.4465 
G01 X37.3735 Y46.5706 
G01 X37.5155 Y46.6738 
G01 X37.6719 Y46.7535 
G01 X37.8389 Y46.8077 
G01 X38.0122 Y46.8352 
G01 X38.1878 Y46.8352 
G01 X38.3611 Y46.8077 
G01 X38.5281 Y46.7535 
G01 X38.6845 Y46.6738 
G01 X38.8265 Y46.5706 
G01 X38.9506 Y46.4465 
G01 X39.0538 Y46.3045 
G01 X39.1335 Y46.1481 
G01 X39.1877 Y45.9811 
G01 X39.2152 Y45.8078 
G01 X39.2152 Y45.6322 
G01 X39.1877 Y45.4589 
G01 X39.1335 Y45.2919 
G01 X39.0538 Y45.1355 
G01 X38.9506 Y44.9935 
G01 X38.8265 Y44.8694 
G01 X38.6845 Y44.7662 
G01 X38.5281 Y44.6865 
G01 X38.3611 Y44.6323 
G01 X38.1878 Y44.6048 
G01 X38.0122 Y44.6048 
G01 X37.8389 Y44.6323 
G01 X37.6719 Y44.6865 
G01 X37.5155 Y44.7662 
G01 X37.3735 Y44.8694 
G01 X37.2494 Y44.9935 
G00 Z5.0000 
G00 X37.3735 Y44.0306 
G01 Z-0.1778 F200.00 
G01 X37.5155 Y44.1338 F100.00 
G01 X37.6719 Y44.2135 
G01 X37.8389 Y44.2677 
G01 X38.0122 Y44.2952 
G01 X38.1878 Y44.2952 
G01 X38.3611 Y44.2677 
G01 X38.5281 Y44.2135 
G01 X38.6845 Y44.1338 
G01 X38.8265 Y44.0306 
G01 X38.9506 Y43.9065 
G01 X39.0538 Y43.7645 
G01 X39.1335 Y43.6081 
G01 X39.1877 Y43.4411 
G01 X39.2152 Y43.2678 
G01 X39.2152 Y43.0922 
G01 X39.1877 Y42.9189 
G01 X39.1335 Y42.7519 
G01 X39.0538 Y42.5955 
G01 X38.9506 Y42.4535 
G01 X38.8265 Y42.3294 
G01 X38.6845 Y42.2262 
G01 X38.5281 Y42.1465 
G01 X38.3611 Y42.0923 
G01 X38.1878 Y42.0648 
G01 X38.0122 Y42.0648 
G01 X37.8389 Y42.0923 
G01 X37.6719 Y42.1465 
G01 X37.5155 Y42.2262 
G01 X37.3735 Y42.3294 
G01 X37.2494 Y42.4535 
G01 X37.1462 Y42.5955 
G01 X37.0665 Y42.7519 
G01 X37.0123 Y42.9189 
G01 X36.9848 Y43.0922 
G01 X36.9848 Y43.2678 
G01 X37.0123 Y43.4411 
G01 X37.0665 Y43.6081 
G01 X37.1462 Y43.7645 
G01 X37.2494 Y43.9065 
G01 X37.3735 Y44.0306 
G00 Z5.0000 
G00 X37.3735 Y41.4906 
G01 Z-0.1778 F200.00 
G01 X37.5155 Y41.5938 F100.00 
G01 X37.6719 Y41.6735 
G01 X37.8389 Y41.7277 
G01 X38.0122 Y41.7552 
G01 X38.1878 Y41.7552 
G01 X38.3611 Y41.7277 
G01 X38.5281 Y41.6735 
G01 X38.6845 Y41.5938 
G01 X38.8265 Y41.4906 
G01 X38.9506 Y41.3665 
G01 X39.0538 Y41.2245 
G01 X39.1335 Y41.0681 
G01 X39.1877 Y40.9011 
G01 X39.2152 Y40.7278 
G01 X39.2152 Y40.5522 
G01 X39.1877 Y40.3789 
G01 X39.1335 Y40.2119 
G01 X39.0538 Y40.0555 
G01 X38.9506 Y39.9135 
G01 X38.8265 Y39.7894 
G01 X38.6845 Y39.6862 
G01 X38.5281 Y39.6065 
G01 X38.3611 Y39.5523 
G01 X38.1878 Y39.5248 
G01 X38.0122 Y39.5248 
G01 X37.8389 Y39.5523 
G01 X37.6719 Y39.6065 
G01 X37.5155 Y39.6862 
G01 X37.3735 Y39.7894 
G01 X37.2494 Y39.9135 
G01 X37.1462 Y40.0555 
G01 X37.0665 Y40.2119 
G01 X37.0123 Y40.3789 
G01 X36.9848 Y40.5522 
G01 X36.9848 Y40.7278 
G01 X37.0123 Y40.9011 
G01 X37.0665 Y41.0681 
G01 X37.1462 Y41.2245 
G01 X37.2494 Y41.3665 
G01 X37.3735 Y41.4906 
G00 Z5.0000 
G00 X35.9132 Y40.7054 
G01 Z-0.1778 F200.00 
G01 X35.8874 Y40.5759 F100.00 
G01 X35.8369 Y40.4538 
G01 X35.7635 Y40.3440 
G01 X35.7496 Y40.3301 
G01 X33.9989 Y38.5794 
G01 X34.0300 Y38.5183 
G01 X34.0830 Y38.3552 
G01 X34.1098 Y38.1858 
G01 X34.1098 Y38.0142 
G01 X34.0830 Y37.8448 
G01 X34.0300 Y37.6817 
G01 X33.9521 Y37.5288 
G01 X33.8513 Y37.3900 
G01 X33.7300 Y37.2687 
G01 X33.5912 Y37.1679 
G01 X33.4383 Y37.0900 
G01 X33.2752 Y37.0370 
G01 X33.1058 Y37.0102 
G01 X32.9342 Y37.0102 
G01 X32.7648 Y37.0370 
G01 X32.6017 Y37.0900 
G01 X32.4488 Y37.1679 
G01 X32.3100 Y37.2687 
G01 X32.1887 Y37.3900 
G01 X32.0879 Y37.5288 
G01 X32.0100 Y37.6817 
G01 X31.9570 Y37.8448 
G01 X31.9302 Y38.0142 
G01 X31.9302 Y38.1858 
G01 X31.9570 Y38.3552 
G01 X32.0100 Y38.5183 
G01 X32.0879 Y38.6712 
G01 X32.1887 Y38.8100 
G01 X32.3100 Y38.9312 
G01 X32.4488 Y39.0321 
G01 X32.6017 Y39.1100 
G01 X32.7648 Y39.1630 
G01 X32.9342 Y39.1898 
G01 X33.1058 Y39.1898 
G01 X33.2752 Y39.1630 
G01 X33.4383 Y39.1100 
G01 X33.4994 Y39.0789 
G01 X35.2068 Y40.7863 
G01 X35.2068 Y71.1665 
G01 X35.2309 Y71.2563 
G01 X35.2774 Y71.3369 
G01 X35.3431 Y71.4026 
G01 X35.4237 Y71.4491 
G01 X35.5135 Y71.4732 
G01 X49.5765 Y71.4732 
G01 X49.6663 Y71.4491 
G01 X49.7469 Y71.4026 
G01 X49.8126 Y71.3369 
G01 X52.2596 Y68.8899 
G01 X52.2735 Y68.8760 
G01 X52.3469 Y68.7662 
G01 X52.3974 Y68.6441 
G01 X52.4232 Y68.5145 
G01 X52.4232 Y64.1107 
G01 X52.5188 Y64.0468 
G01 X52.6168 Y63.9488 
G01 X52.6939 Y63.8335 
G01 X52.7469 Y63.7053 
G01 X52.7740 Y63.5693 
G01 X52.7740 Y63.4307 
G01 X52.7469 Y63.2946 
G01 X52.6939 Y63.1665 
G01 X52.6168 Y63.0512 
G01 X52.5188 Y62.9532 
G01 X52.4035 Y62.8761 
G01 X52.2753 Y62.8231 
G01 X52.1393 Y62.7960 
G01 X52.0007 Y62.7960 
G01 X51.8646 Y62.8231 
G01 X51.7365 Y62.8761 
G01 X51.6212 Y62.9532 
G01 X51.5232 Y63.0512 
G01 X51.4461 Y63.1665 
G01 X51.3931 Y63.2946 
G01 X51.3660 Y63.4307 
G01 X51.3660 Y63.5693 
G01 X51.3931 Y63.7053 
G01 X51.4461 Y63.8335 
G01 X51.5232 Y63.9488 
G01 X51.6212 Y64.0468 
G01 X51.7168 Y64.1107 
G01 X51.7168 Y68.4337 
G01 X49.3837 Y70.7668 
G01 X35.9132 Y70.7668 
G01 X35.9132 Y40.7054 
G00 Z5.0000 
G00 X37.3735 Y38.9506 
G01 Z-0.1778 F200.00 
G01 X37.5155 Y39.0538 F100.00 
G01 X37.6719 Y39.1335 
G01 X37.8389 Y39.1877 
G01 X38.0122 Y39.2152 
G01 X38.1878 Y39.2152 
G01 X38.3611 Y39.1877 
G01 X38.5281 Y39.1335 
G01 X38.6845 Y39.0538 
G01 X38.8265 Y38.9506 
G01 X38.9506 Y38.8265 
G01 X39.0538 Y38.6845 
G01 X39.1335 Y38.5281 
G01 X39.1877 Y38.3611 
G01 X39.2152 Y38.1878 
G01 X39.2152 Y38.0122 
G01 X39.1877 Y37.8389 
G01 X39.1335 Y37.6719 
G01 X39.0538 Y37.5155 
G01 X38.9506 Y37.3735 
G01 X38.8265 Y37.2494 
G01 X38.6845 Y37.1462 
G01 X38.5281 Y37.0665 
G01 X38.3611 Y37.0123 
G01 X38.1878 Y36.9848 
G01 X38.0122 Y36.9848 
G01 X37.8389 Y37.0123 
G01 X37.6719 Y37.0665 
G01 X37.5155 Y37.1462 
G01 X37.3735 Y37.2494 
G01 X37.2494 Y37.3735 
G01 X37.1462 Y37.5155 
G01 X37.0665 Y37.6719 
G01 X37.0123 Y37.8389 
G01 X36.9848 Y38.0122 
G01 X36.9848 Y38.1878 
G01 X37.0123 Y38.3611 
G01 X37.0665 Y38.5281 
G01 X37.1462 Y38.6845 
G01 X37.2494 Y38.8265 
G01 X37.3735 Y38.9506 
G00 Z5.0000 
G00 X37.3735 Y36.4106 
G01 Z-0.1778 F200.00 
G01 X37.5155 Y36.5138 F100.00 
G01 X37.6719 Y36.5935 
G01 X37.8389 Y36.6477 
G01 X38.0122 Y36.6752 
G01 X38.1878 Y36.6752 
G01 X38.3611 Y36.6477 
G01 X38.5281 Y36.5935 
G01 X38.6845 Y36.5138 
G01 X38.8265 Y36.4106 
G01 X38.9506 Y36.2865 
G01 X39.0538 Y36.1445 
G01 X39.1335 Y35.9881 
G01 X39.1877 Y35.8211 
G01 X39.2152 Y35.6478 
G01 X39.2152 Y35.4722 
G01 X39.1877 Y35.2989 
G01 X39.1335 Y35.1319 
G01 X39.0538 Y34.9755 
G01 X38.9506 Y34.8335 
G01 X38.8265 Y34.7094 
G01 X38.6845 Y34.6062 
G01 X38.5281 Y34.5265 
G01 X38.3611 Y34.4723 
G01 X38.1878 Y34.4448 
G01 X38.0122 Y34.4448 
G01 X37.8389 Y34.4723 
G01 X37.6719 Y34.5265 
G01 X37.5155 Y34.6062 
G01 X37.3735 Y34.7094 
G01 X37.2494 Y34.8335 
G01 X37.1462 Y34.9755 
G01 X37.0665 Y35.1319 
G01 X37.0123 Y35.2989 
G01 X36.9848 Y35.4722 
G01 X36.9848 Y35.6478 
G01 X37.0123 Y35.8211 
G01 X37.0665 Y35.9881 
G01 X37.1462 Y36.1445 
G01 X37.2494 Y36.2865 
G01 X37.3735 Y36.4106 
G00 Z5.0000 
G00 X37.3735 Y33.8706 
G01 Z-0.1778 F200.00 
G01 X37.5155 Y33.9738 F100.00 
G01 X37.6719 Y34.0535 
G01 X37.8389 Y34.1077 
G01 X38.0122 Y34.1352 
G01 X38.1878 Y34.1352 
G01 X38.3611 Y34.1077 
G01 X38.5281 Y34.0535 
G01 X38.6845 Y33.9738 
G01 X38.8265 Y33.8706 
G01 X38.9506 Y33.7465 
G01 X39.0538 Y33.6045 
G01 X39.1335 Y33.4481 
G01 X39.1877 Y33.2811 
G01 X39.2152 Y33.1078 
G01 X39.2152 Y32.9322 
G01 X39.1877 Y32.7589 
G01 X39.1335 Y32.5919 
G01 X39.0538 Y32.4355 
G01 X38.9506 Y32.2935 
G01 X38.8265 Y32.1694 
G01 X38.6845 Y32.0662 
G01 X38.5281 Y31.9865 
G01 X38.3611 Y31.9323 
G01 X38.1878 Y31.9048 
G01 X38.0122 Y31.9048 
G01 X37.8389 Y31.9323 
G01 X37.6719 Y31.9865 
G01 X37.5155 Y32.0662 
G01 X37.3735 Y32.1694 
G01 X37.2494 Y32.2935 
G01 X37.1462 Y32.4355 
G01 X37.0665 Y32.5919 
G01 X37.0123 Y32.7589 
G01 X36.9848 Y32.9322 
G01 X36.9848 Y33.1078 
G01 X37.0123 Y33.2811 
G01 X37.0665 Y33.4481 
G01 X37.1462 Y33.6045 
G01 X37.2494 Y33.7465 
G01 X37.3735 Y33.8706 
G00 Z5.0000 
G00 X38.0250 Y23.6913 
G01 Z-0.1778 F200.00 
G01 X38.1638 Y23.7921 F100.00 
G01 X38.3167 Y23.8700 
G01 X38.4798 Y23.9230 
G01 X38.6492 Y23.9498 
G01 X38.8208 Y23.9498 
G01 X38.9902 Y23.9230 
G01 X39.1533 Y23.8700 
G01 X39.3062 Y23.7921 
G01 X39.4450 Y23.6913 
G01 X39.5662 Y23.5700 
G01 X39.6671 Y23.4312 
G01 X39.7450 Y23.2783 
G01 X39.7980 Y23.1152 
G01 X39.8248 Y22.9458 
G01 X39.8248 Y22.7742 
G01 X39.7980 Y22.6048 
G01 X39.7450 Y22.4417 
G01 X39.6671 Y22.2888 
G01 X39.5662 Y22.1500 
G01 X39.4450 Y22.0287 
G01 X39.3062 Y21.9279 
G01 X39.1533 Y21.8500 
G01 X38.9902 Y21.7970 
G01 X38.8208 Y21.7702 
G01 X38.6492 Y21.7702 
G01 X38.4798 Y21.7970 
G01 X38.3167 Y21.8500 
G01 X38.1638 Y21.9279 
G01 X38.0250 Y22.0287 
G01 X37.9037 Y22.1500 
G01 X37.8029 Y22.2888 
G01 X37.7250 Y22.4417 
G01 X37.6720 Y22.6048 
G01 X37.6452 Y22.7742 
G01 X37.6452 Y22.9458 
G01 X37.6720 Y23.1152 
G01 X37.7250 Y23.2783 
G01 X37.8029 Y23.4312 
G01 X37.9037 Y23.5700 
G01 X38.0250 Y23.6913 
G00 Z5.0000 
G00 X37.6613 Y22.3000 
G01 Z-0.1778 F200.00 
G01 X37.7621 Y22.1612 F100.00 
G01 X37.8400 Y22.0083 
G01 X37.8930 Y21.8452 
G01 X37.9198 Y21.6758 
G01 X37.9198 Y21.5042 
G01 X37.8930 Y21.3348 
G01 X37.8400 Y21.1717 
G01 X37.7621 Y21.0188 
G01 X37.6613 Y20.8800 
G01 X37.5400 Y20.7587 
G01 X37.4012 Y20.6579 
G01 X37.2483 Y20.5800 
G01 X37.0852 Y20.5270 
G01 X36.9158 Y20.5002 
G01 X36.7442 Y20.5002 
G01 X36.5748 Y20.5270 
G01 X36.4117 Y20.5800 
G01 X36.2588 Y20.6579 
G01 X36.1200 Y20.7587 
G01 X35.9987 Y20.8800 
G01 X35.8979 Y21.0188 
G01 X35.8200 Y21.1717 
G01 X35.7670 Y21.3348 
G01 X35.7402 Y21.5042 
G01 X35.7402 Y21.6758 
G01 X35.7670 Y21.8452 
G01 X35.8200 Y22.0083 
G01 X35.8979 Y22.1612 
G01 X35.9987 Y22.3000 
G01 X36.1200 Y22.4213 
G01 X36.2588 Y22.5221 
G01 X36.4117 Y22.6000 
G01 X36.5748 Y22.6530 
G01 X36.7442 Y22.6798 
G01 X36.9158 Y22.6798 
G01 X37.0852 Y22.6530 
G01 X37.2483 Y22.6000 
G01 X37.4012 Y22.5221 
G01 X37.5400 Y22.4213 
G01 X37.6613 Y22.3000 
G00 Z5.0000 
G00 X37.6817 Y18.7900 
G01 Z-0.1778 F200.00 
G01 X37.8448 Y18.8430 F100.00 
G01 X38.0142 Y18.8698 
G01 X38.1858 Y18.8698 
G01 X38.3552 Y18.8430 
G01 X38.5183 Y18.7900 
G01 X38.6712 Y18.7121 
G01 X38.8100 Y18.6112 
G01 X38.9312 Y18.4900 
G01 X39.0321 Y18.3512 
G01 X39.1100 Y18.1983 
G01 X39.1630 Y18.0352 
G01 X39.1898 Y17.8658 
G01 X39.1898 Y17.6942 
G01 X39.1630 Y17.5248 
G01 X39.1100 Y17.3617 
G01 X39.0321 Y17.2088 
G01 X38.9312 Y17.0700 
G01 X38.8100 Y16.9487 
G01 X38.6712 Y16.8479 
G01 X38.5183 Y16.7700 
G01 X38.3552 Y16.7170 
G01 X38.1858 Y16.6902 
G01 X38.0142 Y16.6902 
G01 X37.8448 Y16.7170 
G01 X37.6817 Y16.7700 
G01 X37.5288 Y16.8479 
G01 X37.3900 Y16.9487 
G01 X37.2687 Y17.0700 
G01 X37.1679 Y17.2088 
G01 X37.0900 Y17.3617 
G01 X37.0370 Y17.5248 
G01 X37.0102 Y17.6942 
G01 X37.0102 Y17.8658 
G01 X37.0370 Y18.0352 
G01 X37.0900 Y18.1983 
G01 X37.1679 Y18.3512 
G01 X37.2687 Y18.4900 
G01 X37.3900 Y18.6112 
G01 X37.5288 Y18.7121 
G01 X37.6817 Y18.7900 
G00 Z5.0000 
G00 X36.0737 Y18.8075 
G01 Z-0.1778 F200.00 
G01 X36.1746 Y18.6687 F100.00 
G01 X36.2525 Y18.5158 
G01 X36.3055 Y18.3527 
G01 X36.3323 Y18.1833 
G01 X36.3323 Y18.0117 
G01 X36.3055 Y17.8423 
G01 X36.2525 Y17.6792 
G01 X36.1746 Y17.5263 
G01 X36.0737 Y17.3875 
G01 X35.9525 Y17.2662 
G01 X35.8137 Y17.1654 
G01 X35.6608 Y17.0875 
G01 X35.4977 Y17.0345 
G01 X35.3283 Y17.0077 
G01 X35.1567 Y17.0077 
G01 X34.9873 Y17.0345 
G01 X34.8242 Y17.0875 
G01 X34.6713 Y17.1654 
G01 X34.5325 Y17.2662 
G01 X34.4112 Y17.3875 
G01 X34.3104 Y17.5263 
G01 X34.2325 Y17.6792 
G01 X34.1795 Y17.8423 
G01 X34.1527 Y18.0117 
G01 X34.1527 Y18.1833 
G01 X34.1795 Y18.3527 
G01 X34.2325 Y18.5158 
G01 X34.3104 Y18.6687 
G01 X34.4112 Y18.8075 
G01 X34.5325 Y18.9288 
G01 X34.6713 Y19.0296 
G01 X34.8242 Y19.1075 
G01 X34.9873 Y19.1605 
G01 X35.1567 Y19.1873 
G01 X35.3283 Y19.1873 
G01 X35.4977 Y19.1605 
G01 X35.6608 Y19.1075 
G01 X35.8137 Y19.0296 
G01 X35.9525 Y18.9288 
G01 X36.0737 Y18.8075 
G00 Z5.0000 
G00 X30.4969 Y17.6386 
G01 Z-0.1778 F200.00 
G01 X30.6332 Y17.4609 F100.00 
G01 X30.7451 Y17.2671 
G01 X30.8308 Y17.0602 
G01 X30.8888 Y16.8439 
G01 X30.9180 Y16.6219 
G01 X30.9180 Y16.3981 
G01 X30.8888 Y16.1761 
G01 X30.8308 Y15.9598 
G01 X30.7451 Y15.7529 
G01 X30.6332 Y15.5590 
G01 X30.4969 Y15.3814 
G01 X30.3386 Y15.2231 
G01 X30.1609 Y15.0868 
G01 X29.9671 Y14.9749 
G01 X29.7602 Y14.8892 
G01 X29.5439 Y14.8312 
G01 X29.3219 Y14.8020 
G01 X29.0981 Y14.8020 
G01 X28.8761 Y14.8312 
G01 X28.6598 Y14.8892 
G01 X28.4529 Y14.9749 
G01 X28.2590 Y15.0868 
G01 X28.0814 Y15.2231 
G01 X27.9231 Y15.3814 
G01 X27.7868 Y15.5590 
G01 X27.6749 Y15.7529 
G01 X27.5892 Y15.9598 
G01 X27.5312 Y16.1761 
G01 X27.5020 Y16.3981 
G01 X27.5020 Y16.6219 
G01 X27.5312 Y16.8439 
G01 X27.5892 Y17.0602 
G01 X27.6749 Y17.2671 
G01 X27.7868 Y17.4609 
G01 X27.9231 Y17.6386 
G01 X28.0814 Y17.7969 
G01 X28.2590 Y17.9332 
G01 X28.4529 Y18.0451 
G01 X28.6598 Y18.1308 
G01 X28.8761 Y18.1888 
G01 X29.0981 Y18.2180 
G01 X29.3219 Y18.2180 
G01 X29.5439 Y18.1888 
G01 X29.7602 Y18.1308 
G01 X29.9671 Y18.0451 
G01 X30.1609 Y17.9332 
G01 X30.3386 Y17.7969 
G01 X30.4969 Y17.6386 
G00 Z5.0000 
G00 X34.5325 Y11.3087 
G01 Z-0.1778 F200.00 
G01 X34.6713 Y11.4096 F100.00 
G01 X34.8242 Y11.4875 
G01 X34.9873 Y11.5405 
G01 X35.1567 Y11.5673 
G01 X35.3283 Y11.5673 
G01 X35.4977 Y11.5405 
G01 X35.6608 Y11.4875 
G01 X35.8137 Y11.4096 
G01 X35.9525 Y11.3087 
G01 X36.0737 Y11.1875 
G01 X36.1746 Y11.0487 
G01 X36.2525 Y10.8958 
G01 X36.3055 Y10.7327 
G01 X36.3323 Y10.5633 
G01 X36.3323 Y10.3917 
G01 X36.3055 Y10.2223 
G01 X36.2525 Y10.0592 
G01 X36.1746 Y9.9063 
G01 X36.0737 Y9.7675 
G01 X35.9525 Y9.6462 
G01 X35.8137 Y9.5454 
G01 X35.6608 Y9.4675 
G01 X35.4977 Y9.4145 
G01 X35.3283 Y9.3877 
G01 X35.1567 Y9.3877 
G01 X34.9873 Y9.4145 
G01 X34.8242 Y9.4675 
G01 X34.6713 Y9.5454 
G01 X34.5325 Y9.6462 
G01 X34.4112 Y9.7675 
G01 X34.3104 Y9.9063 
G01 X34.2325 Y10.0592 
G01 X34.1795 Y10.2223 
G01 X34.1527 Y10.3917 
G01 X34.1527 Y10.5633 
G01 X34.1795 Y10.7327 
G01 X34.2325 Y10.8958 
G01 X34.3104 Y11.0487 
G01 X34.4112 Y11.1875 
G01 X34.5325 Y11.3087 
G00 Z5.0000 
G00 X37.3900 Y10.9913 
G01 Z-0.1778 F200.00 
G01 X37.5288 Y11.0921 F100.00 
G01 X37.6817 Y11.1700 
G01 X37.8448 Y11.2230 
G01 X38.0142 Y11.2498 
G01 X38.1858 Y11.2498 
G01 X38.3552 Y11.2230 
G01 X38.5183 Y11.1700 
G01 X38.6712 Y11.0921 
G01 X38.8100 Y10.9913 
G01 X38.9312 Y10.8700 
G01 X39.0321 Y10.7312 
G01 X39.1100 Y10.5783 
G01 X39.1630 Y10.4152 
G01 X39.1898 Y10.2458 
G01 X39.1898 Y10.0742 
G01 X39.1630 Y9.9048 
G01 X39.1100 Y9.7417 
G01 X39.0789 Y9.6806 
G01 X39.5163 Y9.2432 
G01 X45.5737 Y9.2432 
G01 X46.6368 Y10.3063 
G01 X46.6368 Y16.5565 
G01 X46.6609 Y16.6463 
G01 X46.7074 Y16.7269 
G01 X46.7731 Y16.7926 
G01 X48.8484 Y18.8679 
G01 X48.8260 Y18.9807 
G01 X48.8260 Y19.1193 
G01 X48.8531 Y19.2553 
G01 X48.9061 Y19.3835 
G01 X48.9832 Y19.4988 
G01 X49.0812 Y19.5968 
G01 X49.1965 Y19.6739 
G01 X49.3246 Y19.7269 
G01 X49.4607 Y19.7540 
G01 X49.5993 Y19.7540 
G01 X49.7353 Y19.7269 
G01 X49.8635 Y19.6739 
G01 X49.9788 Y19.5968 
G01 X50.0768 Y19.4988 
G01 X50.1539 Y19.3835 
G01 X50.2069 Y19.2553 
G01 X50.2340 Y19.1193 
G01 X50.2340 Y18.9807 
G01 X50.2069 Y18.8447 
G01 X50.1539 Y18.7165 
G01 X50.0768 Y18.6012 
G01 X49.9788 Y18.5032 
G01 X49.8635 Y18.4261 
G01 X49.7353 Y18.3731 
G01 X49.5993 Y18.3460 
G01 X49.4607 Y18.3460 
G01 X49.3479 Y18.3684 
G01 X47.3432 Y16.3637 
G01 X47.3432 Y10.2255 
G01 X47.3174 Y10.0959 
G01 X47.2669 Y9.9738 
G01 X47.1935 Y9.8640 
G01 X47.1796 Y9.8501 
G01 X46.0026 Y8.6731 
G01 X45.9369 Y8.6074 
G01 X45.8563 Y8.5609 
G01 X45.7665 Y8.5368 
G01 X39.4355 Y8.5368 
G01 X39.3059 Y8.5626 
G01 X39.1838 Y8.6131 
G01 X39.0740 Y8.6865 
G01 X39.0601 Y8.7004 
G01 X38.5794 Y9.1811 
G01 X38.5183 Y9.1500 
G01 X38.3552 Y9.0970 
G01 X38.1858 Y9.0702 
G01 X38.0142 Y9.0702 
G01 X37.8448 Y9.0970 
G01 X37.6817 Y9.1500 
G01 X37.5288 Y9.2279 
G01 X37.3900 Y9.3287 
G01 X37.2687 Y9.4500 
G01 X37.1679 Y9.5888 
G01 X37.0900 Y9.7417 
G01 X37.0370 Y9.9048 
G01 X37.0102 Y10.0742 
G01 X37.0102 Y10.2458 
G01 X37.0370 Y10.4152 
G01 X37.0900 Y10.5783 
G01 X37.1679 Y10.7312 
G01 X37.2687 Y10.8700 
G01 X37.3900 Y10.9913 
G00 Z5.0000 
G00 X42.1700 Y11.0117 
G01 Z-0.1778 F200.00 
G01 X42.1170 Y11.1748 F100.00 
G01 X42.0902 Y11.3442 
G01 X42.0902 Y11.5158 
G01 X42.1170 Y11.6852 
G01 X42.1700 Y11.8483 
G01 X42.2479 Y12.0012 
G01 X42.3487 Y12.1400 
G01 X42.4700 Y12.2613 
G01 X42.6088 Y12.3621 
G01 X42.7617 Y12.4400 
G01 X42.9248 Y12.4930 
G01 X43.0942 Y12.5198 
G01 X43.2658 Y12.5198 
G01 X43.4352 Y12.4930 
G01 X43.5983 Y12.4400 
G01 X43.7512 Y12.3621 
G01 X43.8900 Y12.2613 
G01 X44.0112 Y12.1400 
G01 X44.1121 Y12.0012 
G01 X44.1900 Y11.8483 
G01 X44.2430 Y11.6852 
G01 X44.2698 Y11.5158 
G01 X44.2698 Y11.3442 
G01 X44.2430 Y11.1748 
G01 X44.1900 Y11.0117 
G01 X44.1121 Y10.8588 
G01 X44.0112 Y10.7200 
G01 X43.8900 Y10.5987 
G01 X43.7512 Y10.4979 
G01 X43.5983 Y10.4200 
G01 X43.4352 Y10.3670 
G01 X43.2658 Y10.3402 
G01 X43.0942 Y10.3402 
G01 X42.9248 Y10.3670 
G01 X42.7617 Y10.4200 
G01 X42.6088 Y10.4979 
G01 X42.4700 Y10.5987 
G01 X42.3487 Y10.7200 
G01 X42.2479 Y10.8588 
G01 X42.1700 Y11.0117 
G00 Z5.0000 
G00 X42.3487 Y13.2600 
G01 Z-0.1778 F200.00 
G01 X42.2479 Y13.3988 F100.00 
G01 X42.1700 Y13.5517 
G01 X42.1170 Y13.7148 
G01 X42.0902 Y13.8842 
G01 X42.0902 Y14.0558 
G01 X42.1170 Y14.2252 
G01 X42.1700 Y14.3883 
G01 X42.2479 Y14.5412 
G01 X42.3487 Y14.6800 
G01 X42.4700 Y14.8012 
G01 X42.6088 Y14.9021 
G01 X42.7617 Y14.9800 
G01 X42.9248 Y15.0330 
G01 X43.0942 Y15.0598 
G01 X43.2658 Y15.0598 
G01 X43.4352 Y15.0330 
G01 X43.5983 Y14.9800 
G01 X43.7512 Y14.9021 
G01 X43.8900 Y14.8012 
G01 X44.0112 Y14.6800 
G01 X44.1121 Y14.5412 
G01 X44.1900 Y14.3883 
G01 X44.2430 Y14.2252 
G01 X44.2698 Y14.0558 
G01 X44.2698 Y13.8842 
G01 X44.2430 Y13.7148 
G01 X44.1900 Y13.5517 
G01 X44.1121 Y13.3988 
G01 X44.0112 Y13.2600 
G01 X43.8900 Y13.1387 
G01 X43.7512 Y13.0379 
G01 X43.5983 Y12.9600 
G01 X43.4352 Y12.9070 
G01 X43.2658 Y12.8802 
G01 X43.0942 Y12.8802 
G01 X42.9248 Y12.9070 
G01 X42.7617 Y12.9600 
G01 X42.6088 Y13.0379 
G01 X42.4700 Y13.1387 
G01 X42.3487 Y13.2600 
G00 Z5.0000 
G00 X48.6180 Y13.1182 
G01 Z-0.1778 F200.00 
G01 X48.6180 Y14.8218 F100.00 
G01 X48.6530 Y14.9980 
G01 X48.7218 Y15.1640 
G01 X48.8216 Y15.3134 
G01 X48.9486 Y15.4404 
G01 X49.0980 Y15.5402 
G01 X49.2640 Y15.6090 
G01 X49.4402 Y15.6440 
G01 X49.6198 Y15.6440 
G01 X49.7960 Y15.6090 
G01 X49.9620 Y15.5402 
G01 X50.1114 Y15.4404 
G01 X50.2384 Y15.3134 
G01 X50.3382 Y15.1640 
G01 X50.4070 Y14.9980 
G01 X50.4420 Y14.8218 
G01 X50.4420 Y13.1182 
G01 X50.4070 Y12.9420 
G01 X50.3382 Y12.7760 
G01 X50.2384 Y12.6266 
G01 X50.1114 Y12.4996 
G01 X49.9620 Y12.3998 
G01 X49.7960 Y12.3310 
G01 X49.6198 Y12.2960 
G01 X49.4402 Y12.2960 
G01 X49.2640 Y12.3310 
G01 X49.0980 Y12.3998 
G01 X48.9486 Y12.4996 
G01 X48.8216 Y12.6266 
G01 X48.7218 Y12.7760 
G01 X48.6530 Y12.9420 
G01 X48.6180 Y13.1182 
G00 Z5.0000 
G00 X51.1580 Y13.1182 
G01 Z-0.1778 F200.00 
G01 X51.1580 Y14.8218 F100.00 
G01 X51.1930 Y14.9980 
G01 X51.2618 Y15.1640 
G01 X51.3616 Y15.3134 
G01 X51.4886 Y15.4404 
G01 X51.6380 Y15.5402 
G01 X51.8040 Y15.6090 
G01 X51.9802 Y15.6440 
G01 X52.1598 Y15.6440 
G01 X52.3360 Y15.6090 
G01 X52.5020 Y15.5402 
G01 X52.6514 Y15.4404 
G01 X52.7784 Y15.3134 
G01 X52.8782 Y15.1640 
G01 X52.9470 Y14.9980 
G01 X52.9820 Y14.8218 
G01 X52.9820 Y13.1182 
G01 X52.9470 Y12.9420 
G01 X52.8782 Y12.7760 
G01 X52.7784 Y12.6266 
G01 X52.6514 Y12.4996 
G01 X52.5020 Y12.3998 
G01 X52.3360 Y12.3310 
G01 X52.1598 Y12.2960 
G01 X51.9802 Y12.2960 
G01 X51.8040 Y12.3310 
G01 X51.6380 Y12.3998 
G01 X51.4886 Y12.4996 
G01 X51.3616 Y12.6266 
G01 X51.2618 Y12.7760 
G01 X51.1930 Y12.9420 
G01 X51.1580 Y13.1182 
G00 Z5.0000 
G00 X54.9680 Y13.1182 
G01 Z-0.1778 F200.00 
G01 X54.9680 Y14.8218 F100.00 
G01 X55.0030 Y14.9980 
G01 X55.0718 Y15.1640 
G01 X55.1716 Y15.3134 
G01 X55.2986 Y15.4404 
G01 X55.4480 Y15.5402 
G01 X55.6140 Y15.6090 
G01 X55.7902 Y15.6440 
G01 X55.9698 Y15.6440 
G01 X56.1460 Y15.6090 
G01 X56.3120 Y15.5402 
G01 X56.4614 Y15.4404 
G01 X56.5884 Y15.3134 
G01 X56.6882 Y15.1640 
G01 X56.7570 Y14.9980 
G01 X56.7920 Y14.8218 
G01 X56.7920 Y13.1182 
G01 X56.7570 Y12.9420 
G01 X56.6882 Y12.7760 
G01 X56.5884 Y12.6266 
G01 X56.4614 Y12.4996 
G01 X56.3120 Y12.3998 
G01 X56.1460 Y12.3310 
G01 X55.9698 Y12.2960 
G01 X55.7902 Y12.2960 
G01 X55.6140 Y12.3310 
G01 X55.4480 Y12.3998 
G01 X55.2986 Y12.4996 
G01 X55.1716 Y12.6266 
G01 X55.0718 Y12.7760 
G01 X55.0030 Y12.9420 
G01 X54.9680 Y13.1182 
G00 Z5.0000 
G00 X57.5080 Y13.1182 
G01 Z-0.1778 F200.00 
G01 X57.5080 Y14.8218 F100.00 
G01 X57.5430 Y14.9980 
G01 X57.6118 Y15.1640 
G01 X57.7116 Y15.3134 
G01 X57.8386 Y15.4404 
G01 X57.9880 Y15.5402 
G01 X58.1540 Y15.6090 
G01 X58.3302 Y15.6440 
G01 X58.5098 Y15.6440 
G01 X58.6860 Y15.6090 
G01 X58.8520 Y15.5402 
G01 X59.0014 Y15.4404 
G01 X59.1284 Y15.3134 
G01 X59.2282 Y15.1640 
G01 X59.2970 Y14.9980 
G01 X59.3320 Y14.8218 
G01 X59.3320 Y13.1182 
G01 X59.2970 Y12.9420 
G01 X59.2282 Y12.7760 
G01 X59.1284 Y12.6266 
G01 X59.0014 Y12.4996 
G01 X58.8520 Y12.3998 
G01 X58.6860 Y12.3310 
G01 X58.5098 Y12.2960 
G01 X58.3302 Y12.2960 
G01 X58.1540 Y12.3310 
G01 X57.9880 Y12.3998 
G01 X57.8386 Y12.4996 
G01 X57.7116 Y12.6266 
G01 X57.6118 Y12.7760 
G01 X57.5430 Y12.9420 
G01 X57.5080 Y13.1182 
G00 Z5.0000 
G00 X60.0480 Y13.1182 
G01 Z-0.1778 F200.00 
G01 X60.0480 Y14.8218 F100.00 
G01 X60.0830 Y14.9980 
G01 X60.1518 Y15.1640 
G01 X60.2516 Y15.3134 
G01 X60.3786 Y15.4404 
G01 X60.5280 Y15.5402 
G01 X60.6940 Y15.6090 
G01 X60.8702 Y15.6440 
G01 X61.0498 Y15.6440 
G01 X61.2260 Y15.6090 
G01 X61.3920 Y15.5402 
G01 X61.5414 Y15.4404 
G01 X61.6684 Y15.3134 
G01 X61.7682 Y15.1640 
G01 X61.8370 Y14.9980 
G01 X61.8720 Y14.8218 
G01 X61.8720 Y13.1182 
G01 X61.8370 Y12.9420 
G01 X61.7682 Y12.7760 
G01 X61.6684 Y12.6266 
G01 X61.5414 Y12.4996 
G01 X61.3920 Y12.3998 
G01 X61.2260 Y12.3310 
G01 X61.0498 Y12.2960 
G01 X60.8702 Y12.2960 
G01 X60.6940 Y12.3310 
G01 X60.5280 Y12.3998 
G01 X60.3786 Y12.4996 
G01 X60.2516 Y12.6266 
G01 X60.1518 Y12.7760 
G01 X60.0830 Y12.9420 
G01 X60.0480 Y13.1182 
G00 Z5.0000 
G00 X63.1998 Y13.1320 
G01 Z-0.1778 F200.00 
G01 X63.2996 Y13.2814 F100.00 
G01 X63.4266 Y13.4084 
G01 X63.5760 Y13.5082 
G01 X63.7420 Y13.5770 
G01 X63.9182 Y13.6120 
G01 X65.6218 Y13.6120 
G01 X65.7980 Y13.5770 
G01 X65.9640 Y13.5082 
G01 X66.1134 Y13.4084 
G01 X66.2404 Y13.2814 
G01 X66.3402 Y13.1320 
G01 X66.4090 Y12.9660 
G01 X66.4440 Y12.7898 
G01 X66.4440 Y12.6102 
G01 X66.4090 Y12.4340 
G01 X66.3402 Y12.2680 
G01 X66.2404 Y12.1186 
G01 X66.1134 Y11.9916 
G01 X65.9640 Y11.8918 
G01 X65.7980 Y11.8230 
G01 X65.6218 Y11.7880 
G01 X63.9182 Y11.7880 
G01 X63.7420 Y11.8230 
G01 X63.5760 Y11.8918 
G01 X63.4266 Y11.9916 
G01 X63.2996 Y12.1186 
G01 X63.1998 Y12.2680 
G01 X63.1310 Y12.4340 
G01 X63.0960 Y12.6102 
G01 X63.0960 Y12.7898 
G01 X63.1310 Y12.9660 
G01 X63.1998 Y13.1320 
G00 Z5.0000 
G00 X63.2996 Y14.6586 
G01 Z-0.1778 F200.00 
G01 X63.1998 Y14.8080 F100.00 
G01 X63.1310 Y14.9740 
G01 X63.0960 Y15.1502 
G01 X63.0960 Y15.3298 
G01 X63.1310 Y15.5060 
G01 X63.1998 Y15.6720 
G01 X63.2996 Y15.8214 
G01 X63.4266 Y15.9484 
G01 X63.5760 Y16.0482 
G01 X63.7420 Y16.1169 
G01 X63.9182 Y16.1520 
G01 X65.6218 Y16.1520 
G01 X65.7980 Y16.1169 
G01 X65.9640 Y16.0482 
G01 X66.1134 Y15.9484 
G01 X66.2404 Y15.8214 
G01 X66.3402 Y15.6720 
G01 X66.4090 Y15.5060 
G01 X66.4440 Y15.3298 
G01 X66.4440 Y15.1502 
G01 X66.4090 Y14.9740 
G01 X66.3402 Y14.8080 
G01 X66.2404 Y14.6586 
G01 X66.1134 Y14.5316 
G01 X65.9640 Y14.4318 
G01 X65.7980 Y14.3630 
G01 X65.6218 Y14.3280 
G01 X63.9182 Y14.3280 
G01 X63.7420 Y14.3630 
G01 X63.5760 Y14.4318 
G01 X63.4266 Y14.5316 
G01 X63.2996 Y14.6586 
G00 Z5.0000 
G00 X63.2946 Y17.1031 
G01 Z-0.1778 F200.00 
G01 X63.1665 Y17.1561 F100.00 
G01 X63.0512 Y17.2332 
G01 X62.9532 Y17.3312 
G01 X62.8893 Y17.4268 
G01 X59.0307 Y17.4268 
G01 X58.9668 Y17.3312 
G01 X58.8688 Y17.2332 
G01 X58.7535 Y17.1561 
G01 X58.6253 Y17.1031 
G01 X58.4893 Y17.0760 
G01 X58.3507 Y17.0760 
G01 X58.2146 Y17.1031 
G01 X58.0865 Y17.1561 
G01 X57.9712 Y17.2332 
G01 X57.8732 Y17.3312 
G01 X57.7961 Y17.4465 
G01 X57.7431 Y17.5746 
G01 X57.7160 Y17.7107 
G01 X57.7160 Y17.8493 
G01 X57.7431 Y17.9853 
G01 X57.7961 Y18.1135 
G01 X57.8732 Y18.2288 
G01 X57.9712 Y18.3268 
G01 X58.0865 Y18.4039 
G01 X58.2146 Y18.4569 
G01 X58.3507 Y18.4840 
G01 X58.4893 Y18.4840 
G01 X58.6253 Y18.4569 
G01 X58.7535 Y18.4039 
G01 X58.8688 Y18.3268 
G01 X58.9668 Y18.2288 
G01 X59.0307 Y18.1332 
G01 X62.8893 Y18.1332 
G01 X62.9532 Y18.2288 
G01 X63.0512 Y18.3268 
G01 X63.1665 Y18.4039 
G01 X63.2946 Y18.4569 
G01 X63.4307 Y18.4840 
G01 X63.5693 Y18.4840 
G01 X63.7053 Y18.4569 
G01 X63.8335 Y18.4039 
G01 X63.9488 Y18.3268 
G01 X64.0468 Y18.2288 
G01 X64.1239 Y18.1135 
G01 X64.1769 Y17.9853 
G01 X64.2040 Y17.8493 
G01 X64.2040 Y17.7107 
G01 X64.1769 Y17.5746 
G01 X64.1239 Y17.4465 
G01 X64.0468 Y17.3312 
G01 X63.9488 Y17.2332 
G01 X63.8335 Y17.1561 
G01 X63.7053 Y17.1031 
G01 X63.5693 Y17.0760 
G01 X63.4307 Y17.0760 
G01 X63.2946 Y17.1031 
G00 Z5.0000 
G00 X64.4874 Y20.1031 
G01 Z-0.1778 F200.00 
G01 X63.2174 Y21.3731 F100.00 
G01 X63.1709 Y21.4537 
G01 X63.1468 Y21.5435 
G01 X63.1468 Y66.6993 
G01 X63.0512 Y66.7632 
G01 X62.9532 Y66.8612 
G01 X62.8761 Y66.9765 
G01 X62.8231 Y67.1047 
G01 X62.7960 Y67.2407 
G01 X62.7960 Y67.3793 
G01 X62.8231 Y67.5153 
G01 X62.8761 Y67.6435 
G01 X62.9532 Y67.7588 
G01 X63.0512 Y67.8568 
G01 X63.1665 Y67.9339 
G01 X63.2946 Y67.9869 
G01 X63.4307 Y68.0140 
G01 X63.5693 Y68.0140 
G01 X63.7053 Y67.9869 
G01 X63.8335 Y67.9339 
G01 X63.9488 Y67.8568 
G01 X64.0468 Y67.7588 
G01 X64.1239 Y67.6435 
G01 X64.1769 Y67.5153 
G01 X64.2040 Y67.3793 
G01 X64.2040 Y67.2407 
G01 X64.1769 Y67.1047 
G01 X64.1239 Y66.9765 
G01 X64.0468 Y66.8612 
G01 X63.9488 Y66.7632 
G01 X63.8532 Y66.6993 
G01 X63.8532 Y21.7363 
G01 X64.9163 Y20.6732 
G01 X68.4337 Y20.6732 
G01 X69.4968 Y21.7363 
G01 X69.4968 Y21.8289 
G01 X69.4317 Y21.8500 
G01 X69.2788 Y21.9279 
G01 X69.1400 Y22.0287 
G01 X69.0187 Y22.1500 
G01 X68.9179 Y22.2888 
G01 X68.8400 Y22.4417 
G01 X68.7870 Y22.6048 
G01 X68.7602 Y22.7742 
G01 X68.7602 Y22.9458 
G01 X68.7870 Y23.1152 
G01 X68.8400 Y23.2783 
G01 X68.9179 Y23.4312 
G01 X69.0187 Y23.5700 
G01 X69.1400 Y23.6913 
G01 X69.2788 Y23.7921 
G01 X69.4317 Y23.8700 
G01 X69.5948 Y23.9230 
G01 X69.7642 Y23.9498 
G01 X69.9358 Y23.9498 
G01 X70.1052 Y23.9230 
G01 X70.2683 Y23.8700 
G01 X70.4212 Y23.7921 
G01 X70.5600 Y23.6913 
G01 X70.6813 Y23.5700 
G01 X70.7821 Y23.4312 
G01 X70.8600 Y23.2783 
G01 X70.9130 Y23.1152 
G01 X70.9398 Y22.9458 
G01 X70.9398 Y22.7742 
G01 X70.9130 Y22.6048 
G01 X70.8600 Y22.4417 
G01 X70.7821 Y22.2888 
G01 X70.6813 Y22.1500 
G01 X70.5600 Y22.0287 
G01 X70.4212 Y21.9279 
G01 X70.2683 Y21.8500 
G01 X70.2032 Y21.8289 
G01 X70.2032 Y21.5435 
G01 X70.1791 Y21.4537 
G01 X70.1326 Y21.3731 
G01 X70.0669 Y21.3074 
G01 X68.7969 Y20.0374 
G01 X68.7163 Y19.9909 
G01 X68.6265 Y19.9668 
G01 X64.7235 Y19.9668 
G01 X64.6337 Y19.9909 
G01 X64.5531 Y20.0374 
G01 X64.4874 Y20.1031 
G00 Z5.0000 
G00 X65.2087 Y22.1500 
G01 Z-0.1778 F200.00 
G01 X65.1079 Y22.2888 F100.00 
G01 X65.0300 Y22.4417 
G01 X64.9770 Y22.6048 
G01 X64.9502 Y22.7742 
G01 X64.9502 Y22.9458 
G01 X64.9770 Y23.1152 
G01 X65.0300 Y23.2783 
G01 X65.1079 Y23.4312 
G01 X65.2087 Y23.5700 
G01 X65.3300 Y23.6913 
G01 X65.4688 Y23.7921 
G01 X65.6217 Y23.8700 
G01 X65.7848 Y23.9230 
G01 X65.9542 Y23.9498 
G01 X66.1258 Y23.9498 
G01 X66.2952 Y23.9230 
G01 X66.4583 Y23.8700 
G01 X66.6112 Y23.7921 
G01 X66.7500 Y23.6913 
G01 X66.8713 Y23.5700 
G01 X66.9721 Y23.4312 
G01 X67.0500 Y23.2783 
G01 X67.1030 Y23.1152 
G01 X67.1298 Y22.9458 
G01 X67.1298 Y22.7742 
G01 X67.1030 Y22.6048 
G01 X67.0500 Y22.4417 
G01 X66.9721 Y22.2888 
G01 X66.8713 Y22.1500 
G01 X66.7500 Y22.0287 
G01 X66.6112 Y21.9279 
G01 X66.4583 Y21.8500 
G01 X66.2952 Y21.7970 
G01 X66.1258 Y21.7702 
G01 X65.9542 Y21.7702 
G01 X65.7848 Y21.7970 
G01 X65.6217 Y21.8500 
G01 X65.4688 Y21.9279 
G01 X65.3300 Y22.0287 
G01 X65.2087 Y22.1500 
G00 Z5.0000 
G00 X65.2087 Y29.7700 
G01 Z-0.1778 F200.00 
G01 X65.1079 Y29.9088 F100.00 
G01 X65.0300 Y30.0617 
G01 X64.9770 Y30.2248 
G01 X64.9502 Y30.3942 
G01 X64.9502 Y30.5658 
G01 X64.9770 Y30.7352 
G01 X65.0300 Y30.8983 
G01 X65.1079 Y31.0512 
G01 X65.2087 Y31.1900 
G01 X65.3300 Y31.3113 
G01 X65.4688 Y31.4121 
G01 X65.6217 Y31.4900 
G01 X65.7848 Y31.5430 
G01 X65.9542 Y31.5698 
G01 X66.1258 Y31.5698 
G01 X66.2952 Y31.5430 
G01 X66.4583 Y31.4900 
G01 X66.6112 Y31.4121 
G01 X66.7500 Y31.3113 
G01 X66.8713 Y31.1900 
G01 X66.9721 Y31.0512 
G01 X67.0500 Y30.8983 
G01 X67.1030 Y30.7352 
G01 X67.1298 Y30.5658 
G01 X67.1298 Y30.3942 
G01 X67.1030 Y30.2248 
G01 X67.0500 Y30.0617 
G01 X66.9721 Y29.9088 
G01 X66.8713 Y29.7700 
G01 X66.7500 Y29.6487 
G01 X66.6112 Y29.5479 
G01 X66.4583 Y29.4700 
G01 X66.2952 Y29.4170 
G01 X66.1258 Y29.3902 
G01 X65.9542 Y29.3902 
G01 X65.7848 Y29.4170 
G01 X65.6217 Y29.4700 
G01 X65.4688 Y29.5479 
G01 X65.3300 Y29.6487 
G01 X65.2087 Y29.7700 
G00 Z5.0000 
G00 X69.0187 Y29.7700 
G01 Z-0.1778 F200.00 
G01 X68.9179 Y29.9088 F100.00 
G01 X68.8400 Y30.0617 
G01 X68.7870 Y30.2248 
G01 X68.7602 Y30.3942 
G01 X68.7602 Y30.5658 
G01 X68.7870 Y30.7352 
G01 X68.8400 Y30.8983 
G01 X68.9179 Y31.0512 
G01 X69.0187 Y31.1900 
G01 X69.1400 Y31.3113 
G01 X69.2788 Y31.4121 
G01 X69.4317 Y31.4900 
G01 X69.5948 Y31.5430 
G01 X69.7642 Y31.5698 
G01 X69.9358 Y31.5698 
G01 X70.1052 Y31.5430 
G01 X70.2683 Y31.4900 
G01 X70.4212 Y31.4121 
G01 X70.5600 Y31.3113 
G01 X70.6813 Y31.1900 
G01 X70.7821 Y31.0512 
G01 X70.8600 Y30.8983 
G01 X70.9130 Y30.7352 
G01 X70.9398 Y30.5658 
G01 X70.9398 Y30.3942 
G01 X70.9130 Y30.2248 
G01 X70.8600 Y30.0617 
G01 X70.7821 Y29.9088 
G01 X70.6813 Y29.7700 
G01 X70.5600 Y29.6487 
G01 X70.4212 Y29.5479 
G01 X70.2683 Y29.4700 
G01 X70.1052 Y29.4170 
G01 X69.9358 Y29.3902 
G01 X69.7642 Y29.3902 
G01 X69.5948 Y29.4170 
G01 X69.4317 Y29.4700 
G01 X69.2788 Y29.5479 
G01 X69.1400 Y29.6487 
G01 X69.0187 Y29.7700 
G00 Z5.0000 
G00 X68.9983 Y33.2800 
G01 Z-0.1778 F200.00 
G01 X68.8352 Y33.2270 F100.00 
G01 X68.6658 Y33.2002 
G01 X68.4942 Y33.2002 
G01 X68.3248 Y33.2270 
G01 X68.1617 Y33.2800 
G01 X68.0088 Y33.3579 
G01 X67.8700 Y33.4587 
G01 X67.7487 Y33.5800 
G01 X67.6479 Y33.7188 
G01 X67.5700 Y33.8717 
G01 X67.5489 Y33.9368 
G01 X67.2635 Y33.9368 
G01 X67.1737 Y33.9609 
G01 X67.0931 Y34.0074 
G01 X65.7574 Y35.3431 
G01 X65.7109 Y35.4237 
G01 X65.6868 Y35.5135 
G01 X65.6868 Y38.1465 
G01 X65.7109 Y38.2363 
G01 X65.7574 Y38.3169 
G01 X67.0274 Y39.5869 
G01 X67.0931 Y39.6526 
G01 X67.1737 Y39.6991 
G01 X67.2635 Y39.7232 
G01 X71.1665 Y39.7232 
G01 X71.2563 Y39.6991 
G01 X71.3369 Y39.6526 
G01 X72.6069 Y38.3826 
G01 X72.6726 Y38.3169 
G01 X72.7191 Y38.2363 
G01 X72.7432 Y38.1465 
G01 X72.7432 Y35.7063 
G01 X73.8063 Y34.6432 
G01 X82.4037 Y34.6432 
G01 X83.4668 Y35.7063 
G01 X83.4668 Y35.7989 
G01 X83.4017 Y35.8200 
G01 X83.2488 Y35.8979 
G01 X83.1100 Y35.9987 
G01 X82.9887 Y36.1200 
G01 X82.8879 Y36.2588 
G01 X82.8100 Y36.4117 
G01 X82.7570 Y36.5748 
G01 X82.7302 Y36.7442 
G01 X82.7302 Y36.9158 
G01 X82.7570 Y37.0852 
G01 X82.8100 Y37.2483 
G01 X82.8879 Y37.4012 
G01 X82.9887 Y37.5400 
G01 X83.1100 Y37.6613 
G01 X83.2488 Y37.7621 
G01 X83.4017 Y37.8400 
G01 X83.5648 Y37.8930 
G01 X83.7342 Y37.9198 
G01 X83.9058 Y37.9198 
G01 X84.0752 Y37.8930 
G01 X84.2383 Y37.8400 
G01 X84.3912 Y37.7621 
G01 X84.5300 Y37.6613 
G01 X84.6513 Y37.5400 
G01 X84.7521 Y37.4012 
G01 X84.8300 Y37.2483 
G01 X84.8830 Y37.0852 
G01 X84.9098 Y36.9158 
G01 X84.9098 Y36.7442 
G01 X84.8830 Y36.5748 
G01 X84.8300 Y36.4117 
G01 X84.7521 Y36.2588 
G01 X84.6513 Y36.1200 
G01 X84.5300 Y35.9987 
G01 X84.3912 Y35.8979 
G01 X84.2383 Y35.8200 
G01 X84.1732 Y35.7989 
G01 X84.1732 Y35.5135 
G01 X84.1491 Y35.4237 
G01 X84.1026 Y35.3431 
G01 X84.0369 Y35.2774 
G01 X82.7669 Y34.0074 
G01 X82.6863 Y33.9609 
G01 X82.5965 Y33.9368 
G01 X73.6135 Y33.9368 
G01 X73.5237 Y33.9609 
G01 X73.4431 Y34.0074 
G01 X73.3774 Y34.0731 
G01 X72.1074 Y35.3431 
G01 X72.0609 Y35.4237 
G01 X72.0368 Y35.5135 
G01 X72.0368 Y37.9537 
G01 X70.9737 Y39.0168 
G01 X67.4563 Y39.0168 
G01 X66.3932 Y37.9537 
G01 X66.3932 Y35.7063 
G01 X67.4563 Y34.6432 
G01 X67.5489 Y34.6432 
G01 X67.5700 Y34.7083 
G01 X67.6479 Y34.8612 
G01 X67.7487 Y35.0000 
G01 X67.8700 Y35.1213 
G01 X68.0088 Y35.2221 
G01 X68.1617 Y35.3000 
G01 X68.3248 Y35.3530 
G01 X68.4942 Y35.3798 
G01 X68.6658 Y35.3798 
G01 X68.8352 Y35.3530 
G01 X68.9983 Y35.3000 
G01 X69.1512 Y35.2221 
G01 X69.2900 Y35.1213 
G01 X69.4112 Y35.0000 
G01 X69.5121 Y34.8612 
G01 X69.5900 Y34.7083 
G01 X69.6430 Y34.5452 
G01 X69.6698 Y34.3758 
G01 X69.6698 Y34.2042 
G01 X69.6430 Y34.0348 
G01 X69.5900 Y33.8717 
G01 X69.5121 Y33.7188 
G01 X69.4112 Y33.5800 
G01 X69.2900 Y33.4587 
G01 X69.1512 Y33.3579 
G01 X68.9983 Y33.2800 
G00 Z5.0000 
G00 X69.6537 Y34.8500 
G01 Z-0.1778 F200.00 
G01 X69.5529 Y34.9888 F100.00 
G01 X69.4750 Y35.1417 
G01 X69.4220 Y35.3048 
G01 X69.3952 Y35.4742 
G01 X69.3952 Y35.6458 
G01 X69.4220 Y35.8152 
G01 X69.4750 Y35.9783 
G01 X69.5529 Y36.1312 
G01 X69.6537 Y36.2700 
G01 X69.7750 Y36.3912 
G01 X69.9138 Y36.4921 
G01 X70.0667 Y36.5700 
G01 X70.2298 Y36.6230 
G01 X70.3992 Y36.6498 
G01 X70.5708 Y36.6498 
G01 X70.7402 Y36.6230 
G01 X70.9033 Y36.5700 
G01 X71.0562 Y36.4921 
G01 X71.1950 Y36.3912 
G01 X71.3162 Y36.2700 
G01 X71.4171 Y36.1312 
G01 X71.4950 Y35.9783 
G01 X71.5480 Y35.8152 
G01 X71.5748 Y35.6458 
G01 X71.5748 Y35.4742 
G01 X71.5480 Y35.3048 
G01 X71.4950 Y35.1417 
G01 X71.4171 Y34.9888 
G01 X71.3162 Y34.8500 
G01 X71.1950 Y34.7287 
G01 X71.0562 Y34.6279 
G01 X70.9033 Y34.5500 
G01 X70.7402 Y34.4970 
G01 X70.5708 Y34.4702 
G01 X70.3992 Y34.4702 
G01 X70.2298 Y34.4970 
G01 X70.0667 Y34.5500 
G01 X69.9138 Y34.6279 
G01 X69.7750 Y34.7287 
G01 X69.6537 Y34.8500 
G00 Z5.0000 
G00 X69.2900 Y35.9987 
G01 Z-0.1778 F200.00 
G01 X69.1512 Y35.8979 F100.00 
G01 X68.9983 Y35.8200 
G01 X68.8352 Y35.7670 
G01 X68.6658 Y35.7402 
G01 X68.4942 Y35.7402 
G01 X68.3248 Y35.7670 
G01 X68.1617 Y35.8200 
G01 X68.0088 Y35.8979 
G01 X67.8700 Y35.9987 
G01 X67.7487 Y36.1200 
G01 X67.6479 Y36.2588 
G01 X67.5700 Y36.4117 
G01 X67.5170 Y36.5748 
G01 X67.4902 Y36.7442 
G01 X67.4902 Y36.9158 
G01 X67.5170 Y37.0852 
G01 X67.5700 Y37.2483 
G01 X67.6479 Y37.4012 
G01 X67.7487 Y37.5400 
G01 X67.8700 Y37.6613 
G01 X68.0088 Y37.7621 
G01 X68.1617 Y37.8400 
G01 X68.3248 Y37.8930 
G01 X68.4942 Y37.9198 
G01 X68.6658 Y37.9198 
G01 X68.8352 Y37.8930 
G01 X68.9983 Y37.8400 
G01 X69.1512 Y37.7621 
G01 X69.2900 Y37.6613 
G01 X69.4112 Y37.5400 
G01 X69.5121 Y37.4012 
G01 X69.5900 Y37.2483 
G01 X69.6430 Y37.0852 
G01 X69.6698 Y36.9158 
G01 X69.6698 Y36.7442 
G01 X69.6430 Y36.5748 
G01 X69.5900 Y36.4117 
G01 X69.5121 Y36.2588 
G01 X69.4112 Y36.1200 
G01 X69.2900 Y35.9987 
G00 Z5.0000 
G00 X75.3687 Y36.1200 
G01 Z-0.1778 F200.00 
G01 X75.2679 Y36.2588 F100.00 
G01 X75.1900 Y36.4117 
G01 X75.1370 Y36.5748 
G01 X75.1102 Y36.7442 
G01 X75.1102 Y36.9158 
G01 X75.1370 Y37.0852 
G01 X75.1900 Y37.2483 
G01 X75.2679 Y37.4012 
G01 X75.3687 Y37.5400 
G01 X75.4900 Y37.6613 
G01 X75.6288 Y37.7621 
G01 X75.7817 Y37.8400 
G01 X75.9448 Y37.8930 
G01 X76.1142 Y37.9198 
G01 X76.2858 Y37.9198 
G01 X76.4552 Y37.8930 
G01 X76.6183 Y37.8400 
G01 X76.7712 Y37.7621 
G01 X76.9100 Y37.6613 
G01 X77.0312 Y37.5400 
G01 X77.1321 Y37.4012 
G01 X77.2100 Y37.2483 
G01 X77.2630 Y37.0852 
G01 X77.2898 Y36.9158 
G01 X77.2898 Y36.7442 
G01 X77.2630 Y36.5748 
G01 X77.2100 Y36.4117 
G01 X77.1321 Y36.2588 
G01 X77.0312 Y36.1200 
G01 X76.9100 Y35.9987 
G01 X76.7712 Y35.8979 
G01 X76.6183 Y35.8200 
G01 X76.4552 Y35.7670 
G01 X76.2858 Y35.7402 
G01 X76.1142 Y35.7402 
G01 X75.9448 Y35.7670 
G01 X75.7817 Y35.8200 
G01 X75.6288 Y35.8979 
G01 X75.4900 Y35.9987 
G01 X75.3687 Y36.1200 
G00 Z5.0000 
G00 X75.3687 Y38.6600 
G01 Z-0.1778 F200.00 
G01 X75.2679 Y38.7988 F100.00 
G01 X75.1900 Y38.9517 
G01 X75.1370 Y39.1148 
G01 X75.1102 Y39.2842 
G01 X75.1102 Y39.4558 
G01 X75.1370 Y39.6252 
G01 X75.1900 Y39.7883 
G01 X75.2679 Y39.9412 
G01 X75.3687 Y40.0800 
G01 X75.4900 Y40.2013 
G01 X75.6288 Y40.3021 
G01 X75.7817 Y40.3800 
G01 X75.9448 Y40.4330 
G01 X76.1142 Y40.4598 
G01 X76.2858 Y40.4598 
G01 X76.4552 Y40.4330 
G01 X76.6183 Y40.3800 
G01 X76.7712 Y40.3021 
G01 X76.9100 Y40.2013 
G01 X77.0312 Y40.0800 
G01 X77.1321 Y39.9412 
G01 X77.2100 Y39.7883 
G01 X77.2630 Y39.6252 
G01 X77.2898 Y39.4558 
G01 X77.2898 Y39.2842 
G01 X77.2630 Y39.1148 
G01 X77.2100 Y38.9517 
G01 X77.1321 Y38.7988 
G01 X77.0312 Y38.6600 
G01 X76.9100 Y38.5387 
G01 X76.7712 Y38.4379 
G01 X76.6183 Y38.3600 
G01 X76.4552 Y38.3070 
G01 X76.2858 Y38.2802 
G01 X76.1142 Y38.2802 
G01 X75.9448 Y38.3070 
G01 X75.7817 Y38.3600 
G01 X75.6288 Y38.4379 
G01 X75.4900 Y38.5387 
G01 X75.3687 Y38.6600 
G00 Z5.0000 
G00 X82.9887 Y38.6600 
G01 Z-0.1778 F200.00 
G01 X82.8879 Y38.7988 F100.00 
G01 X82.8100 Y38.9517 
G01 X82.7570 Y39.1148 
G01 X82.7302 Y39.2842 
G01 X82.7302 Y39.4558 
G01 X82.7570 Y39.6252 
G01 X82.8100 Y39.7883 
G01 X82.8879 Y39.9412 
G01 X82.9887 Y40.0800 
G01 X83.1100 Y40.2013 
G01 X83.2488 Y40.3021 
G01 X83.4017 Y40.3800 
G01 X83.5648 Y40.4330 
G01 X83.7342 Y40.4598 
G01 X83.9058 Y40.4598 
G01 X84.0752 Y40.4330 
G01 X84.2383 Y40.3800 
G01 X84.3912 Y40.3021 
G01 X84.5300 Y40.2013 
G01 X84.6513 Y40.0800 
G01 X84.7521 Y39.9412 
G01 X84.8300 Y39.7883 
G01 X84.8830 Y39.6252 
G01 X84.9098 Y39.4558 
G01 X84.9098 Y39.2842 
G01 X84.8830 Y39.1148 
G01 X84.8300 Y38.9517 
G01 X84.7521 Y38.7988 
G01 X84.6513 Y38.6600 
G01 X84.5300 Y38.5387 
G01 X84.3912 Y38.4379 
G01 X84.2383 Y38.3600 
G01 X84.0752 Y38.3070 
G01 X83.9058 Y38.2802 
G01 X83.7342 Y38.2802 
G01 X83.5648 Y38.3070 
G01 X83.4017 Y38.3600 
G01 X83.2488 Y38.4379 
G01 X83.1100 Y38.5387 
G01 X82.9887 Y38.6600 
G00 Z5.0000 
G00 X90.6087 Y38.6600 
G01 Z-0.1778 F200.00 
G01 X90.5079 Y38.7988 F100.00 
G01 X90.4300 Y38.9517 
G01 X90.3770 Y39.1148 
G01 X90.3502 Y39.2842 
G01 X90.3502 Y39.4558 
G01 X90.3770 Y39.6252 
G01 X90.4300 Y39.7883 
G01 X90.5079 Y39.9412 
G01 X90.6087 Y40.0800 
G01 X90.7300 Y40.2013 
G01 X90.8688 Y40.3021 
G01 X91.0217 Y40.3800 
G01 X91.0868 Y40.4011 
G01 X91.0868 Y45.5737 
G01 X90.0237 Y46.6368 
G01 X74.8835 Y46.6368 
G01 X74.7937 Y46.6609 
G01 X74.7131 Y46.7074 
G01 X74.6474 Y46.7731 
G01 X72.2437 Y49.1768 
G01 X72.1511 Y49.1768 
G01 X72.1300 Y49.1117 
G01 X72.0521 Y48.9588 
G01 X71.9513 Y48.8200 
G01 X71.8300 Y48.6987 
G01 X71.6912 Y48.5979 
G01 X71.5383 Y48.5200 
G01 X71.3752 Y48.4670 
G01 X71.2058 Y48.4402 
G01 X71.0342 Y48.4402 
G01 X70.8648 Y48.4670 
G01 X70.7017 Y48.5200 
G01 X70.5488 Y48.5979 
G01 X70.4100 Y48.6987 
G01 X70.2887 Y48.8200 
G01 X70.1879 Y48.9588 
G01 X70.1100 Y49.1117 
G01 X70.0570 Y49.2748 
G01 X70.0302 Y49.4442 
G01 X70.0302 Y49.6158 
G01 X70.0570 Y49.7852 
G01 X70.1100 Y49.9483 
G01 X70.1879 Y50.1012 
G01 X70.2887 Y50.2400 
G01 X70.4100 Y50.3612 
G01 X70.5488 Y50.4621 
G01 X70.7017 Y50.5400 
G01 X70.8648 Y50.5930 
G01 X71.0342 Y50.6198 
G01 X71.2058 Y50.6198 
G01 X71.3752 Y50.5930 
G01 X71.5383 Y50.5400 
G01 X71.6912 Y50.4621 
G01 X71.8300 Y50.3612 
G01 X71.9513 Y50.2400 
G01 X72.0521 Y50.1012 
G01 X72.1300 Y49.9483 
G01 X72.1511 Y49.8832 
G01 X72.4365 Y49.8832 
G01 X72.5263 Y49.8591 
G01 X72.6069 Y49.8126 
G01 X75.0763 Y47.3432 
G01 X90.2165 Y47.3432 
G01 X90.3063 Y47.3191 
G01 X90.3869 Y47.2726 
G01 X91.6569 Y46.0026 
G01 X91.7226 Y45.9369 
G01 X91.7691 Y45.8563 
G01 X91.7932 Y45.7665 
G01 X91.7932 Y40.4011 
G01 X91.8583 Y40.3800 
G01 X92.0112 Y40.3021 
G01 X92.1500 Y40.2013 
G01 X92.2712 Y40.0800 
G01 X92.3721 Y39.9412 
G01 X92.4500 Y39.7883 
G01 X92.5030 Y39.6252 
G01 X92.5298 Y39.4558 
G01 X92.5298 Y39.2842 
G01 X92.5030 Y39.1148 
G01 X92.4500 Y38.9517 
G01 X92.3721 Y38.7988 
G01 X92.2712 Y38.6600 
G01 X92.1500 Y38.5387 
G01 X92.0112 Y38.4379 
G01 X91.8583 Y38.3600 
G01 X91.6952 Y38.3070 
G01 X91.5258 Y38.2802 
G01 X91.3542 Y38.2802 
G01 X91.1848 Y38.3070 
G01 X91.0217 Y38.3600 
G01 X90.8688 Y38.4379 
G01 X90.7300 Y38.5387 
G01 X90.6087 Y38.6600 
G00 Z5.0000 
G00 X90.7300 Y37.6613 
G01 Z-0.1778 F200.00 
G01 X90.8688 Y37.7621 F100.00 
G01 X91.0217 Y37.8400 
G01 X91.1848 Y37.8930 
G01 X91.3542 Y37.9198 
G01 X91.5258 Y37.9198 
G01 X91.6952 Y37.8930 
G01 X91.8583 Y37.8400 
G01 X92.0112 Y37.7621 
G01 X92.1500 Y37.6613 
G01 X92.2712 Y37.5400 
G01 X92.3721 Y37.4012 
G01 X92.4500 Y37.2483 
G01 X92.5030 Y37.0852 
G01 X92.5298 Y36.9158 
G01 X92.5298 Y36.7442 
G01 X92.5030 Y36.5748 
G01 X92.4500 Y36.4117 
G01 X92.3721 Y36.2588 
G01 X92.2712 Y36.1200 
G01 X92.1500 Y35.9987 
G01 X92.0112 Y35.8979 
G01 X91.8583 Y35.8200 
G01 X91.6952 Y35.7670 
G01 X91.5258 Y35.7402 
G01 X91.3542 Y35.7402 
G01 X91.1848 Y35.7670 
G01 X91.0217 Y35.8200 
G01 X90.8688 Y35.8979 
G01 X90.7300 Y35.9987 
G01 X90.6087 Y36.1200 
G01 X90.5079 Y36.2588 
G01 X90.4300 Y36.4117 
G01 X90.3770 Y36.5748 
G01 X90.3502 Y36.7442 
G01 X90.3502 Y36.9158 
G01 X90.3770 Y37.0852 
G01 X90.4300 Y37.2483 
G01 X90.5079 Y37.4012 
G01 X90.6087 Y37.5400 
G01 X90.7300 Y37.6613 
G00 Z5.0000 
G00 X90.7611 Y48.5653 
G01 Z-0.1778 F200.00 
G01 X90.6030 Y48.4847 F100.00 
G01 X90.4341 Y48.4299 
G01 X90.2588 Y48.4021 
G01 X90.0812 Y48.4021 
G01 X89.9059 Y48.4299 
G01 X89.7370 Y48.4847 
G01 X89.5789 Y48.5653 
G01 X89.4352 Y48.6697 
G01 X89.3097 Y48.7952 
G01 X89.2053 Y48.9389 
G01 X89.1247 Y49.0970 
G01 X89.0699 Y49.2659 
G01 X89.0421 Y49.4412 
G01 X89.0421 Y49.6188 
G01 X89.0699 Y49.7941 
G01 X89.1247 Y49.9630 
G01 X89.2053 Y50.1211 
G01 X89.3097 Y50.2648 
G01 X89.4352 Y50.3903 
G01 X89.5789 Y50.4947 
G01 X89.7370 Y50.5753 
G01 X89.9059 Y50.6301 
G01 X90.0812 Y50.6579 
G01 X90.2588 Y50.6579 
G01 X90.4341 Y50.6301 
G01 X90.6030 Y50.5753 
G01 X90.7611 Y50.4947 
G01 X90.9048 Y50.3903 
G01 X91.0303 Y50.2648 
G01 X91.1347 Y50.1211 
G01 X91.2153 Y49.9630 
G01 X91.2701 Y49.7941 
G01 X91.2979 Y49.6188 
G01 X91.2979 Y49.4412 
G01 X91.2701 Y49.2659 
G01 X91.2153 Y49.0970 
G01 X91.1347 Y48.9389 
G01 X91.0303 Y48.7952 
G01 X90.9048 Y48.6697 
G01 X90.7611 Y48.5653 
G00 Z5.0000 
G00 X80.8148 Y48.6697 
G01 Z-0.1778 F200.00 
G01 X80.6711 Y48.5653 F100.00 
G01 X80.5130 Y48.4847 
G01 X80.3441 Y48.4299 
G01 X80.1688 Y48.4021 
G01 X79.9912 Y48.4021 
G01 X79.8159 Y48.4299 
G01 X79.6470 Y48.4847 
G01 X79.4888 Y48.5653 
G01 X79.3452 Y48.6697 
G01 X79.2197 Y48.7952 
G01 X79.1153 Y48.9389 
G01 X79.0347 Y49.0970 
G01 X78.9799 Y49.2659 
G01 X78.9521 Y49.4412 
G01 X78.9521 Y49.6188 
G01 X78.9799 Y49.7941 
G01 X79.0347 Y49.9630 
G01 X79.1153 Y50.1211 
G01 X79.2197 Y50.2648 
G01 X79.3452 Y50.3903 
G01 X79.4888 Y50.4947 
G01 X79.6470 Y50.5753 
G01 X79.8159 Y50.6301 
G01 X79.9912 Y50.6579 
G01 X80.1688 Y50.6579 
G01 X80.3441 Y50.6301 
G01 X80.5130 Y50.5753 
G01 X80.6711 Y50.4947 
G01 X80.8148 Y50.3903 
G01 X80.9403 Y50.2648 
G01 X81.0447 Y50.1211 
G01 X81.1253 Y49.9630 
G01 X81.1801 Y49.7941 
G01 X81.2079 Y49.6188 
G01 X81.2079 Y49.4412 
G01 X81.1801 Y49.2659 
G01 X81.1253 Y49.0970 
G01 X81.0447 Y48.9389 
G01 X80.9403 Y48.7952 
G01 X80.8148 Y48.6697 
G00 Z5.0000 
G00 X69.4112 Y46.4300 
G01 Z-0.1778 F200.00 
G01 X69.5121 Y46.2912 F100.00 
G01 X69.5900 Y46.1383 
G01 X69.6430 Y45.9752 
G01 X69.6698 Y45.8058 
G01 X69.6698 Y45.6342 
G01 X69.6430 Y45.4648 
G01 X69.5900 Y45.3017 
G01 X69.5121 Y45.1488 
G01 X69.4112 Y45.0100 
G01 X69.2900 Y44.8887 
G01 X69.1512 Y44.7879 
G01 X68.9983 Y44.7100 
G01 X68.8352 Y44.6570 
G01 X68.6658 Y44.6302 
G01 X68.4942 Y44.6302 
G01 X68.3248 Y44.6570 
G01 X68.1617 Y44.7100 
G01 X68.0088 Y44.7879 
G01 X67.8700 Y44.8887 
G01 X67.7487 Y45.0100 
G01 X67.6479 Y45.1488 
G01 X67.5700 Y45.3017 
G01 X67.5170 Y45.4648 
G01 X67.4902 Y45.6342 
G01 X67.4902 Y45.8058 
G01 X67.5170 Y45.9752 
G01 X67.5700 Y46.1383 
G01 X67.6479 Y46.2912 
G01 X67.7487 Y46.4300 
G01 X67.8700 Y46.5513 
G01 X68.0088 Y46.6521 
G01 X68.1617 Y46.7300 
G01 X68.3248 Y46.7830 
G01 X68.4942 Y46.8098 
G01 X68.6658 Y46.8098 
G01 X68.8352 Y46.7830 
G01 X68.9983 Y46.7300 
G01 X69.1512 Y46.6521 
G01 X69.2900 Y46.5513 
G01 X69.4112 Y46.4300 
G00 Z5.0000 
G00 X69.4112 Y43.8900 
G01 Z-0.1778 F200.00 
G01 X69.5121 Y43.7512 F100.00 
G01 X69.5900 Y43.5983 
G01 X69.6430 Y43.4352 
G01 X69.6698 Y43.2658 
G01 X69.6698 Y43.0942 
G01 X69.6430 Y42.9248 
G01 X69.5900 Y42.7617 
G01 X69.5121 Y42.6088 
G01 X69.4112 Y42.4700 
G01 X69.2900 Y42.3487 
G01 X69.1512 Y42.2479 
G01 X68.9983 Y42.1700 
G01 X68.8352 Y42.1170 
G01 X68.6658 Y42.0902 
G01 X68.4942 Y42.0902 
G01 X68.3248 Y42.1170 
G01 X68.1617 Y42.1700 
G01 X68.0088 Y42.2479 
G01 X67.8700 Y42.3487 
G01 X67.7487 Y42.4700 
G01 X67.6479 Y42.6088 
G01 X67.5700 Y42.7617 
G01 X67.5170 Y42.9248 
G01 X67.4902 Y43.0942 
G01 X67.4902 Y43.2658 
G01 X67.5170 Y43.4352 
G01 X67.5700 Y43.5983 
G01 X67.6479 Y43.7512 
G01 X67.7487 Y43.8900 
G01 X67.8700 Y44.0112 
G01 X68.0088 Y44.1121 
G01 X68.1617 Y44.1900 
G01 X68.3248 Y44.2430 
G01 X68.4942 Y44.2698 
G01 X68.6658 Y44.2698 
G01 X68.8352 Y44.2430 
G01 X68.9983 Y44.1900 
G01 X69.1512 Y44.1121 
G01 X69.2900 Y44.0112 
G01 X69.4112 Y43.8900 
G00 Z5.0000 
G00 X67.6071 Y43.8788 
G01 Z-0.1778 F200.00 
G01 X67.5062 Y43.7400 F100.00 
G01 X67.3850 Y43.6187 
G01 X67.2462 Y43.5179 
G01 X67.0933 Y43.4400 
G01 X66.9302 Y43.3870 
G01 X66.7608 Y43.3602 
G01 X66.5892 Y43.3602 
G01 X66.4198 Y43.3870 
G01 X66.2567 Y43.4400 
G01 X66.1038 Y43.5179 
G01 X65.9650 Y43.6187 
G01 X65.8437 Y43.7400 
G01 X65.7429 Y43.8788 
G01 X65.6650 Y44.0317 
G01 X65.6120 Y44.1948 
G01 X65.5852 Y44.3642 
G01 X65.5852 Y44.5358 
G01 X65.6120 Y44.7052 
G01 X65.6650 Y44.8683 
G01 X65.7429 Y45.0212 
G01 X65.8437 Y45.1600 
G01 X65.9650 Y45.2812 
G01 X66.1038 Y45.3821 
G01 X66.2567 Y45.4600 
G01 X66.4198 Y45.5130 
G01 X66.5892 Y45.5398 
G01 X66.7608 Y45.5398 
G01 X66.9302 Y45.5130 
G01 X67.0933 Y45.4600 
G01 X67.2462 Y45.3821 
G01 X67.3850 Y45.2812 
G01 X67.5062 Y45.1600 
G01 X67.6071 Y45.0212 
G01 X67.6850 Y44.8683 
G01 X67.7380 Y44.7052 
G01 X67.7648 Y44.5358 
G01 X67.7648 Y44.3642 
G01 X67.7380 Y44.1948 
G01 X67.6850 Y44.0317 
G01 X67.6071 Y43.8788 
G00 Z5.0000 
G00 X66.7500 Y48.6987 
G01 Z-0.1778 F200.00 
G01 X66.6112 Y48.5979 F100.00 
G01 X66.4583 Y48.5200 
G01 X66.2952 Y48.4670 
G01 X66.1258 Y48.4402 
G01 X65.9542 Y48.4402 
G01 X65.7848 Y48.4670 
G01 X65.6217 Y48.5200 
G01 X65.4688 Y48.5979 
G01 X65.3300 Y48.6987 
G01 X65.2087 Y48.8200 
G01 X65.1079 Y48.9588 
G01 X65.0300 Y49.1117 
G01 X64.9770 Y49.2748 
G01 X64.9502 Y49.4442 
G01 X64.9502 Y49.6158 
G01 X64.9770 Y49.7852 
G01 X65.0300 Y49.9483 
G01 X65.1079 Y50.1012 
G01 X65.2087 Y50.2400 
G01 X65.3300 Y50.3612 
G01 X65.4688 Y50.4621 
G01 X65.6217 Y50.5400 
G01 X65.7848 Y50.5930 
G01 X65.9542 Y50.6198 
G01 X66.1258 Y50.6198 
G01 X66.2952 Y50.5930 
G01 X66.4583 Y50.5400 
G01 X66.6112 Y50.4621 
G01 X66.7500 Y50.3612 
G01 X66.8713 Y50.2400 
G01 X66.9721 Y50.1012 
G01 X67.0500 Y49.9483 
G01 X67.1030 Y49.7852 
G01 X67.1298 Y49.6158 
G01 X67.1298 Y49.4442 
G01 X67.1030 Y49.2748 
G01 X67.0500 Y49.1117 
G01 X66.9721 Y48.9588 
G01 X66.8713 Y48.8200 
G01 X66.7500 Y48.6987 
G00 Z5.0000 
G00 X61.9935 Y48.6881 
G01 Z-0.1778 F200.00 
G01 X62.0477 Y48.5211 F100.00 
G01 X62.0752 Y48.3478 
G01 X62.0752 Y48.1722 
G01 X62.0477 Y47.9989 
G01 X61.9935 Y47.8319 
G01 X61.9138 Y47.6755 
G01 X61.8106 Y47.5335 
G01 X61.6865 Y47.4094 
G01 X61.5445 Y47.3062 
G01 X61.3881 Y47.2265 
G01 X61.2211 Y47.1723 
G01 X61.0478 Y47.1448 
G01 X60.8722 Y47.1448 
G01 X60.6989 Y47.1723 
G01 X60.5319 Y47.2265 
G01 X60.3755 Y47.3062 
G01 X60.2335 Y47.4094 
G01 X60.1094 Y47.5335 
G01 X60.0062 Y47.6755 
G01 X59.9265 Y47.8319 
G01 X59.8723 Y47.9989 
G01 X59.8448 Y48.1722 
G01 X59.8448 Y48.3478 
G01 X59.8723 Y48.5211 
G01 X59.9265 Y48.6881 
G01 X60.0062 Y48.8445 
G01 X60.1094 Y48.9865 
G01 X60.2335 Y49.1106 
G01 X60.3755 Y49.2138 
G01 X60.5319 Y49.2935 
G01 X60.6989 Y49.3477 
G01 X60.8722 Y49.3752 
G01 X61.0478 Y49.3752 
G01 X61.2211 Y49.3477 
G01 X61.3881 Y49.2935 
G01 X61.5445 Y49.2138 
G01 X61.6865 Y49.1106 
G01 X61.8106 Y48.9865 
G01 X61.9138 Y48.8445 
G01 X61.9935 Y48.6881 
G00 Z5.0000 
G00 X61.6865 Y49.9494 
G01 Z-0.1778 F200.00 
G01 X61.5445 Y49.8462 F100.00 
G01 X61.3881 Y49.7665 
G01 X61.2211 Y49.7123 
G01 X61.0478 Y49.6848 
G01 X60.8722 Y49.6848 
G01 X60.6989 Y49.7123 
G01 X60.5319 Y49.7665 
G01 X60.3755 Y49.8462 
G01 X60.2335 Y49.9494 
G01 X60.1094 Y50.0735 
G01 X60.0062 Y50.2155 
G01 X59.9265 Y50.3719 
G01 X59.8723 Y50.5389 
G01 X59.8448 Y50.7122 
G01 X59.8448 Y50.8878 
G01 X59.8723 Y51.0611 
G01 X59.9265 Y51.2281 
G01 X60.0062 Y51.3845 
G01 X60.1094 Y51.5265 
G01 X60.2335 Y51.6506 
G01 X60.3755 Y51.7538 
G01 X60.5319 Y51.8335 
G01 X60.6989 Y51.8877 
G01 X60.8722 Y51.9152 
G01 X61.0478 Y51.9152 
G01 X61.2211 Y51.8877 
G01 X61.3881 Y51.8335 
G01 X61.5445 Y51.7538 
G01 X61.6865 Y51.6506 
G01 X61.8106 Y51.5265 
G01 X61.9138 Y51.3845 
G01 X61.9935 Y51.2281 
G01 X62.0477 Y51.0611 
G01 X62.0752 Y50.8878 
G01 X62.0752 Y50.7122 
G01 X62.0477 Y50.5389 
G01 X61.9935 Y50.3719 
G01 X61.9138 Y50.2155 
G01 X61.8106 Y50.0735 
G01 X61.6865 Y49.9494 
G00 Z5.0000 
G00 X61.6865 Y52.4894 
G01 Z-0.1778 F200.00 
G01 X61.5445 Y52.3862 F100.00 
G01 X61.3881 Y52.3065 
G01 X61.2211 Y52.2523 
G01 X61.0478 Y52.2248 
G01 X60.8722 Y52.2248 
G01 X60.6989 Y52.2523 
G01 X60.5319 Y52.3065 
G01 X60.3755 Y52.3862 
G01 X60.2335 Y52.4894 
G01 X60.1094 Y52.6135 
G01 X60.0062 Y52.7555 
G01 X59.9265 Y52.9119 
G01 X59.8723 Y53.0789 
G01 X59.8448 Y53.2522 
G01 X59.8448 Y53.4278 
G01 X59.8723 Y53.6011 
G01 X59.9265 Y53.7681 
G01 X60.0062 Y53.9245 
G01 X60.1094 Y54.0665 
G01 X60.2335 Y54.1906 
G01 X60.3755 Y54.2938 
G01 X60.5319 Y54.3735 
G01 X60.6989 Y54.4277 
G01 X60.8722 Y54.4552 
G01 X61.0478 Y54.4552 
G01 X61.2211 Y54.4277 
G01 X61.3881 Y54.3735 
G01 X61.5445 Y54.2938 
G01 X61.6865 Y54.1906 
G01 X61.8106 Y54.0665 
G01 X61.9138 Y53.9245 
G01 X61.9935 Y53.7681 
G01 X62.0477 Y53.6011 
G01 X62.0752 Y53.4278 
G01 X62.0752 Y53.2522 
G01 X62.0477 Y53.0789 
G01 X61.9935 Y52.9119 
G01 X61.9138 Y52.7555 
G01 X61.8106 Y52.6135 
G01 X61.6865 Y52.4894 
G00 Z5.0000 
G00 X61.6865 Y55.0294 
G01 Z-0.1778 F200.00 
G01 X61.5445 Y54.9262 F100.00 
G01 X61.3881 Y54.8465 
G01 X61.2211 Y54.7923 
G01 X61.0478 Y54.7648 
G01 X60.8722 Y54.7648 
G01 X60.6989 Y54.7923 
G01 X60.5319 Y54.8465 
G01 X60.3755 Y54.9262 
G01 X60.2335 Y55.0294 
G01 X60.1094 Y55.1535 
G01 X60.0062 Y55.2955 
G01 X59.9265 Y55.4519 
G01 X59.8723 Y55.6189 
G01 X59.8448 Y55.7922 
G01 X59.8448 Y55.9678 
G01 X59.8723 Y56.1411 
G01 X59.9265 Y56.3081 
G01 X60.0062 Y56.4645 
G01 X60.1094 Y56.6065 
G01 X60.2335 Y56.7306 
G01 X60.3755 Y56.8338 
G01 X60.5319 Y56.9135 
G01 X60.6989 Y56.9677 
G01 X60.8722 Y56.9952 
G01 X61.0478 Y56.9952 
G01 X61.2211 Y56.9677 
G01 X61.3881 Y56.9135 
G01 X61.5445 Y56.8338 
G01 X61.6865 Y56.7306 
G01 X61.8106 Y56.6065 
G01 X61.9138 Y56.4645 
G01 X61.9935 Y56.3081 
G01 X62.0477 Y56.1411 
G01 X62.0752 Y55.9678 
G01 X62.0752 Y55.7922 
G01 X62.0477 Y55.6189 
G01 X61.9935 Y55.4519 
G01 X61.9138 Y55.2955 
G01 X61.8106 Y55.1535 
G01 X61.6865 Y55.0294 
G00 Z5.0000 
G00 X61.6865 Y57.5694 
G01 Z-0.1778 F200.00 
G01 X61.5445 Y57.4662 F100.00 
G01 X61.3881 Y57.3865 
G01 X61.2211 Y57.3323 
G01 X61.0478 Y57.3048 
G01 X60.8722 Y57.3048 
G01 X60.6989 Y57.3323 
G01 X60.5319 Y57.3865 
G01 X60.3755 Y57.4662 
G01 X60.2335 Y57.5694 
G01 X60.1094 Y57.6935 
G01 X60.0062 Y57.8355 
G01 X59.9265 Y57.9919 
G01 X59.8723 Y58.1589 
G01 X59.8448 Y58.3322 
G01 X59.8448 Y58.5078 
G01 X59.8723 Y58.6811 
G01 X59.9265 Y58.8481 
G01 X60.0062 Y59.0045 
G01 X60.1094 Y59.1465 
G01 X60.2335 Y59.2706 
G01 X60.3755 Y59.3738 
G01 X60.5319 Y59.4535 
G01 X60.6989 Y59.5077 
G01 X60.8722 Y59.5352 
G01 X61.0478 Y59.5352 
G01 X61.2211 Y59.5077 
G01 X61.3881 Y59.4535 
G01 X61.5445 Y59.3738 
G01 X61.6865 Y59.2706 
G01 X61.8106 Y59.1465 
G01 X61.9138 Y59.0045 
G01 X61.9935 Y58.8481 
G01 X62.0477 Y58.6811 
G01 X62.0752 Y58.5078 
G01 X62.0752 Y58.3322 
G01 X62.0477 Y58.1589 
G01 X61.9935 Y57.9919 
G01 X61.9138 Y57.8355 
G01 X61.8106 Y57.6935 
G01 X61.6865 Y57.5694 
G00 Z5.0000 
G00 X61.6865 Y60.1094 
G01 Z-0.1778 F200.00 
G01 X61.5445 Y60.0062 F100.00 
G01 X61.3881 Y59.9265 
G01 X61.2211 Y59.8723 
G01 X61.0478 Y59.8448 
G01 X60.8722 Y59.8448 
G01 X60.6989 Y59.8723 
G01 X60.5319 Y59.9265 
G01 X60.3755 Y60.0062 
G01 X60.2335 Y60.1094 
G01 X60.1094 Y60.2335 
G01 X60.0062 Y60.3755 
G01 X59.9265 Y60.5319 
G01 X59.8723 Y60.6989 
G01 X59.8448 Y60.8722 
G01 X59.8448 Y61.0478 
G01 X59.8723 Y61.2211 
G01 X59.9265 Y61.3881 
G01 X60.0062 Y61.5445 
G01 X60.1094 Y61.6865 
G01 X60.2335 Y61.8106 
G01 X60.3755 Y61.9138 
G01 X60.5319 Y61.9935 
G01 X60.6989 Y62.0477 
G01 X60.8722 Y62.0752 
G01 X61.0478 Y62.0752 
G01 X61.2211 Y62.0477 
G01 X61.3881 Y61.9935 
G01 X61.5445 Y61.9138 
G01 X61.6865 Y61.8106 
G01 X61.8106 Y61.6865 
G01 X61.9138 Y61.5445 
G01 X61.9935 Y61.3881 
G01 X62.0477 Y61.2211 
G01 X62.0752 Y61.0478 
G01 X62.0752 Y60.8722 
G01 X62.0477 Y60.6989 
G01 X61.9935 Y60.5319 
G01 X61.9138 Y60.3755 
G01 X61.8106 Y60.2335 
G01 X61.6865 Y60.1094 
G00 Z5.0000 
G00 X61.6865 Y62.6494 
G01 Z-0.1778 F200.00 
G01 X61.5445 Y62.5462 F100.00 
G01 X61.3881 Y62.4665 
G01 X61.2211 Y62.4123 
G01 X61.0478 Y62.3848 
G01 X60.8722 Y62.3848 
G01 X60.6989 Y62.4123 
G01 X60.5319 Y62.4665 
G01 X60.3755 Y62.5462 
G01 X60.2335 Y62.6494 
G01 X60.1094 Y62.7735 
G01 X60.0062 Y62.9155 
G01 X59.9265 Y63.0719 
G01 X59.8723 Y63.2389 
G01 X59.8448 Y63.4122 
G01 X59.8448 Y63.5878 
G01 X59.8723 Y63.7611 
G01 X59.9265 Y63.9281 
G01 X60.0062 Y64.0845 
G01 X60.1094 Y64.2265 
G01 X60.2335 Y64.3506 
G01 X60.3755 Y64.4538 
G01 X60.5319 Y64.5335 
G01 X60.6989 Y64.5877 
G01 X60.8722 Y64.6152 
G01 X61.0478 Y64.6152 
G01 X61.2211 Y64.5877 
G01 X61.3881 Y64.5335 
G01 X61.5445 Y64.4538 
G01 X61.6865 Y64.3506 
G01 X61.8106 Y64.2265 
G01 X61.9138 Y64.0845 
G01 X61.9935 Y63.9281 
G01 X62.0477 Y63.7611 
G01 X62.0752 Y63.5878 
G01 X62.0752 Y63.4122 
G01 X62.0477 Y63.2389 
G01 X61.9935 Y63.0719 
G01 X61.9138 Y62.9155 
G01 X61.8106 Y62.7735 
G01 X61.6865 Y62.6494 
G00 Z5.0000 
G00 X61.6865 Y65.1894 
G01 Z-0.1778 F200.00 
G01 X61.5445 Y65.0862 F100.00 
G01 X61.3881 Y65.0065 
G01 X61.2211 Y64.9523 
G01 X61.0478 Y64.9248 
G01 X60.8722 Y64.9248 
G01 X60.6989 Y64.9523 
G01 X60.5319 Y65.0065 
G01 X60.3755 Y65.0862 
G01 X60.2335 Y65.1894 
G01 X60.1094 Y65.3135 
G01 X60.0062 Y65.4555 
G01 X59.9265 Y65.6119 
G01 X59.8723 Y65.7789 
G01 X59.8448 Y65.9522 
G01 X59.8448 Y66.1278 
G01 X59.8723 Y66.3011 
G01 X59.9265 Y66.4681 
G01 X60.0062 Y66.6245 
G01 X60.1094 Y66.7665 
G01 X60.2335 Y66.8906 
G01 X60.3755 Y66.9938 
G01 X60.5319 Y67.0735 
G01 X60.6989 Y67.1277 
G01 X60.8722 Y67.1552 
G01 X61.0478 Y67.1552 
G01 X61.2211 Y67.1277 
G01 X61.3881 Y67.0735 
G01 X61.5445 Y66.9938 
G01 X61.6865 Y66.8906 
G01 X61.8106 Y66.7665 
G01 X61.9138 Y66.6245 
G01 X61.9935 Y66.4681 
G01 X62.0477 Y66.3011 
G01 X62.0752 Y66.1278 
G01 X62.0752 Y65.9522 
G01 X62.0477 Y65.7789 
G01 X61.9935 Y65.6119 
G01 X61.9138 Y65.4555 
G01 X61.8106 Y65.3135 
G01 X61.6865 Y65.1894 
G00 Z5.0000 
G00 X61.6865 Y67.7294 
G01 Z-0.1778 F200.00 
G01 X61.5445 Y67.6262 F100.00 
G01 X61.3881 Y67.5465 
G01 X61.2211 Y67.4923 
G01 X61.0478 Y67.4648 
G01 X60.8722 Y67.4648 
G01 X60.6989 Y67.4923 
G01 X60.5319 Y67.5465 
G01 X60.3755 Y67.6262 
G01 X60.2335 Y67.7294 
G01 X60.1094 Y67.8535 
G01 X60.0062 Y67.9955 
G01 X59.9265 Y68.1519 
G01 X59.8723 Y68.3189 
G01 X59.8448 Y68.4922 
G01 X59.8448 Y68.6678 
G01 X59.8723 Y68.8411 
G01 X59.9265 Y69.0081 
G01 X60.0062 Y69.1645 
G01 X60.1094 Y69.3065 
G01 X60.2335 Y69.4306 
G01 X60.3755 Y69.5338 
G01 X60.5319 Y69.6135 
G01 X60.6989 Y69.6677 
G01 X60.8722 Y69.6952 
G01 X61.0478 Y69.6952 
G01 X61.2211 Y69.6677 
G01 X61.3881 Y69.6135 
G01 X61.5445 Y69.5338 
G01 X61.6865 Y69.4306 
G01 X61.8106 Y69.3065 
G01 X61.9138 Y69.1645 
G01 X61.9935 Y69.0081 
G01 X62.0477 Y68.8411 
G01 X62.0752 Y68.6678 
G01 X62.0752 Y68.4922 
G01 X62.0477 Y68.3189 
G01 X61.9935 Y68.1519 
G01 X61.9138 Y67.9955 
G01 X61.8106 Y67.8535 
G01 X61.6865 Y67.7294 
G00 Z5.0000 
G00 X58.7732 Y69.7845 
G01 Z-0.1778 F200.00 
G01 X58.7732 Y46.3307 F100.00 
G01 X58.8688 Y46.2668 
G01 X58.9668 Y46.1688 
G01 X59.0439 Y46.0535 
G01 X59.0969 Y45.9253 
G01 X59.1240 Y45.7893 
G01 X59.1240 Y45.6507 
G01 X59.0969 Y45.5147 
G01 X59.0439 Y45.3865 
G01 X58.9668 Y45.2712 
G01 X58.8688 Y45.1732 
G01 X58.7535 Y45.0961 
G01 X58.6253 Y45.0431 
G01 X58.4893 Y45.0160 
G01 X58.3507 Y45.0160 
G01 X58.2146 Y45.0431 
G01 X58.0865 Y45.0961 
G01 X57.9712 Y45.1732 
G01 X57.8732 Y45.2712 
G01 X57.7961 Y45.3865 
G01 X57.7431 Y45.5147 
G01 X57.7160 Y45.6507 
G01 X57.7160 Y45.7893 
G01 X57.7431 Y45.9253 
G01 X57.7961 Y46.0535 
G01 X57.8732 Y46.1688 
G01 X57.9712 Y46.2668 
G01 X58.0668 Y46.3307 
G01 X58.0668 Y69.7037 
G01 X58.0602 Y69.7103 
G01 X58.0444 Y69.7261 
G01 X57.3321 Y70.4384 
G01 X57.2193 Y70.4160 
G01 X57.0807 Y70.4160 
G01 X56.9447 Y70.4431 
G01 X56.8165 Y70.4961 
G01 X56.7012 Y70.5732 
G01 X56.6032 Y70.6712 
G01 X56.5261 Y70.7865 
G01 X56.4731 Y70.9146 
G01 X56.4460 Y71.0507 
G01 X56.4460 Y71.1893 
G01 X56.4731 Y71.3253 
G01 X56.5261 Y71.4535 
G01 X56.6032 Y71.5688 
G01 X56.7012 Y71.6668 
G01 X56.8165 Y71.7439 
G01 X56.9447 Y71.7969 
G01 X57.0807 Y71.8240 
G01 X57.2193 Y71.8240 
G01 X57.3553 Y71.7969 
G01 X57.4835 Y71.7439 
G01 X57.5988 Y71.6668 
G01 X57.6968 Y71.5688 
G01 X57.7739 Y71.4535 
G01 X57.8269 Y71.3253 
G01 X57.8540 Y71.1893 
G01 X57.8540 Y71.0507 
G01 X57.8316 Y70.9379 
G01 X58.5439 Y70.2256 
G01 X58.5596 Y70.2099 
G01 X58.6096 Y70.1599 
G01 X58.6235 Y70.1460 
G01 X58.6969 Y70.0362 
G01 X58.7474 Y69.9141 
G01 X58.7732 Y69.7845 
G00 Z5.0000 
G00 X56.4614 Y78.5396 
G01 Z-0.1778 F200.00 
G01 X56.3120 Y78.4398 F100.00 
G01 X56.1460 Y78.3710 
G01 X55.9698 Y78.3360 
G01 X55.7902 Y78.3360 
G01 X55.6140 Y78.3710 
G01 X55.4480 Y78.4398 
G01 X55.2986 Y78.5396 
G01 X55.1716 Y78.6666 
G01 X55.0718 Y78.8160 
G01 X55.0030 Y78.9820 
G01 X54.9680 Y79.1582 
G01 X54.9680 Y80.8618 
G01 X55.0030 Y81.0380 
G01 X55.0718 Y81.2040 
G01 X55.1716 Y81.3534 
G01 X55.2986 Y81.4804 
G01 X55.4480 Y81.5802 
G01 X55.6140 Y81.6489 
G01 X55.7902 Y81.6840 
G01 X55.9698 Y81.6840 
G01 X56.1460 Y81.6489 
G01 X56.3120 Y81.5802 
G01 X56.4614 Y81.4804 
G01 X56.5884 Y81.3534 
G01 X56.6882 Y81.2040 
G01 X56.7570 Y81.0380 
G01 X56.7920 Y80.8618 
G01 X56.7920 Y79.1582 
G01 X56.7570 Y78.9820 
G01 X56.6882 Y78.8160 
G01 X56.5884 Y78.6666 
G01 X56.4614 Y78.5396 
G00 Z5.0000 
G00 X53.9214 Y78.5396 
G01 Z-0.1778 F200.00 
G01 X53.7720 Y78.4398 F100.00 
G01 X53.6060 Y78.3710 
G01 X53.4298 Y78.3360 
G01 X53.2502 Y78.3360 
G01 X53.0740 Y78.3710 
G01 X52.9080 Y78.4398 
G01 X52.7586 Y78.5396 
G01 X52.6316 Y78.6666 
G01 X52.5318 Y78.8160 
G01 X52.4630 Y78.9820 
G01 X52.4280 Y79.1582 
G01 X52.4280 Y80.8618 
G01 X52.4630 Y81.0380 
G01 X52.5318 Y81.2040 
G01 X52.6316 Y81.3534 
G01 X52.7586 Y81.4804 
G01 X52.9080 Y81.5802 
G01 X53.0740 Y81.6489 
G01 X53.2502 Y81.6840 
G01 X53.4298 Y81.6840 
G01 X53.6060 Y81.6489 
G01 X53.7720 Y81.5802 
G01 X53.9214 Y81.4804 
G01 X54.0484 Y81.3534 
G01 X54.1482 Y81.2040 
G01 X54.2169 Y81.0380 
G01 X54.2520 Y80.8618 
G01 X54.2520 Y79.1582 
G01 X54.2169 Y78.9820 
G01 X54.1482 Y78.8160 
G01 X54.0484 Y78.6666 
G01 X53.9214 Y78.5396 
G00 Z5.0000 
G00 X51.3814 Y78.5396 
G01 Z-0.1778 F200.00 
G01 X51.2320 Y78.4398 F100.00 
G01 X51.0660 Y78.3710 
G01 X50.8898 Y78.3360 
G01 X50.7102 Y78.3360 
G01 X50.5340 Y78.3710 
G01 X50.3680 Y78.4398 
G01 X50.2186 Y78.5396 
G01 X50.0916 Y78.6666 
G01 X49.9918 Y78.8160 
G01 X49.9230 Y78.9820 
G01 X49.8880 Y79.1582 
G01 X49.8880 Y80.8618 
G01 X49.9230 Y81.0380 
G01 X49.9918 Y81.2040 
G01 X50.0916 Y81.3534 
G01 X50.2186 Y81.4804 
G01 X50.3680 Y81.5802 
G01 X50.5340 Y81.6489 
G01 X50.7102 Y81.6840 
G01 X50.8898 Y81.6840 
G01 X51.0660 Y81.6489 
G01 X51.2320 Y81.5802 
G01 X51.3814 Y81.4804 
G01 X51.5084 Y81.3534 
G01 X51.6082 Y81.2040 
G01 X51.6769 Y81.0380 
G01 X51.7120 Y80.8618 
G01 X51.7120 Y79.1582 
G01 X51.6769 Y78.9820 
G01 X51.6082 Y78.8160 
G01 X51.5084 Y78.6666 
G01 X51.3814 Y78.5396 
G00 Z5.0000 
G00 X48.8414 Y78.5396 
G01 Z-0.1778 F200.00 
G01 X48.6920 Y78.4398 F100.00 
G01 X48.5260 Y78.3710 
G01 X48.3498 Y78.3360 
G01 X48.1702 Y78.3360 
G01 X47.9940 Y78.3710 
G01 X47.8280 Y78.4398 
G01 X47.6786 Y78.5396 
G01 X47.5516 Y78.6666 
G01 X47.4518 Y78.8160 
G01 X47.3830 Y78.9820 
G01 X47.3480 Y79.1582 
G01 X47.3480 Y80.8618 
G01 X47.3830 Y81.0380 
G01 X47.4518 Y81.2040 
G01 X47.5516 Y81.3534 
G01 X47.6786 Y81.4804 
G01 X47.8280 Y81.5802 
G01 X47.9940 Y81.6489 
G01 X48.1702 Y81.6840 
G01 X48.3498 Y81.6840 
G01 X48.5260 Y81.6489 
G01 X48.6920 Y81.5802 
G01 X48.8414 Y81.4804 
G01 X48.9684 Y81.3534 
G01 X49.0682 Y81.2040 
G01 X49.1369 Y81.0380 
G01 X49.1720 Y80.8618 
G01 X49.1720 Y79.1582 
G01 X49.1369 Y78.9820 
G01 X49.0682 Y78.8160 
G01 X48.9684 Y78.6666 
G01 X48.8414 Y78.5396 
G00 Z5.0000 
G00 X62.7916 Y78.6666 
G01 Z-0.1778 F200.00 
G01 X62.6918 Y78.8160 F100.00 
G01 X62.6230 Y78.9820 
G01 X62.5880 Y79.1582 
G01 X62.5880 Y80.8618 
G01 X62.6230 Y81.0380 
G01 X62.6918 Y81.2040 
G01 X62.7916 Y81.3534 
G01 X62.9186 Y81.4804 
G01 X63.0680 Y81.5802 
G01 X63.2340 Y81.6489 
G01 X63.4102 Y81.6840 
G01 X63.5898 Y81.6840 
G01 X63.7660 Y81.6489 
G01 X63.9320 Y81.5802 
G01 X64.0814 Y81.4804 
G01 X64.2084 Y81.3534 
G01 X64.3082 Y81.2040 
G01 X64.3769 Y81.0380 
G01 X64.4120 Y80.8618 
G01 X64.4120 Y79.1582 
G01 X64.3769 Y78.9820 
G01 X64.3082 Y78.8160 
G01 X64.2084 Y78.6666 
G01 X64.0814 Y78.5396 
G01 X63.9320 Y78.4398 
G01 X63.7660 Y78.3710 
G01 X63.5898 Y78.3360 
G01 X63.4102 Y78.3360 
G01 X63.2340 Y78.3710 
G01 X63.0680 Y78.4398 
G01 X62.9186 Y78.5396 
G01 X62.7916 Y78.6666 
G00 Z5.0000 
G00 X65.3316 Y78.6666 
G01 Z-0.1778 F200.00 
G01 X65.2318 Y78.8160 F100.00 
G01 X65.1630 Y78.9820 
G01 X65.1280 Y79.1582 
G01 X65.1280 Y80.8618 
G01 X65.1630 Y81.0380 
G01 X65.2318 Y81.2040 
G01 X65.3316 Y81.3534 
G01 X65.4586 Y81.4804 
G01 X65.6080 Y81.5802 
G01 X65.7740 Y81.6489 
G01 X65.9502 Y81.6840 
G01 X66.1298 Y81.6840 
G01 X66.3060 Y81.6489 
G01 X66.4720 Y81.5802 
G01 X66.6214 Y81.4804 
G01 X66.7484 Y81.3534 
G01 X66.8482 Y81.2040 
G01 X66.9169 Y81.0380 
G01 X66.9520 Y80.8618 
G01 X66.9520 Y79.1582 
G01 X66.9169 Y78.9820 
G01 X66.8482 Y78.8160 
G01 X66.7484 Y78.6666 
G01 X66.6214 Y78.5396 
G01 X66.4720 Y78.4398 
G01 X66.3060 Y78.3710 
G01 X66.1298 Y78.3360 
G01 X65.9502 Y78.3360 
G01 X65.7740 Y78.3710 
G01 X65.6080 Y78.4398 
G01 X65.4586 Y78.5396 
G01 X65.3316 Y78.6666 
G00 Z5.0000 
G00 X67.8716 Y78.6666 
G01 Z-0.1778 F200.00 
G01 X67.7718 Y78.8160 F100.00 
G01 X67.7030 Y78.9820 
G01 X67.6680 Y79.1582 
G01 X67.6680 Y80.8618 
G01 X67.7030 Y81.0380 
G01 X67.7718 Y81.2040 
G01 X67.8716 Y81.3534 
G01 X67.9986 Y81.4804 
G01 X68.1480 Y81.5802 
G01 X68.3140 Y81.6489 
G01 X68.4902 Y81.6840 
G01 X68.6698 Y81.6840 
G01 X68.8460 Y81.6489 
G01 X69.0120 Y81.5802 
G01 X69.1614 Y81.4804 
G01 X69.2884 Y81.3534 
G01 X69.3882 Y81.2040 
G01 X69.4570 Y81.0380 
G01 X69.4920 Y80.8618 
G01 X69.4920 Y79.1582 
G01 X69.4570 Y78.9820 
G01 X69.3882 Y78.8160 
G01 X69.2884 Y78.6666 
G01 X69.1614 Y78.5396 
G01 X69.0120 Y78.4398 
G01 X68.8460 Y78.3710 
G01 X68.6698 Y78.3360 
G01 X68.4902 Y78.3360 
G01 X68.3140 Y78.3710 
G01 X68.1480 Y78.4398 
G01 X67.9986 Y78.5396 
G01 X67.8716 Y78.6666 
G00 Z5.0000 
G00 X67.8700 Y64.3312 
G01 Z-0.1778 F200.00 
G01 X68.0088 Y64.4321 F100.00 
G01 X68.1617 Y64.5100 
G01 X68.3248 Y64.5630 
G01 X68.4942 Y64.5898 
G01 X68.6658 Y64.5898 
G01 X68.8352 Y64.5630 
G01 X68.9983 Y64.5100 
G01 X69.1512 Y64.4321 
G01 X69.2900 Y64.3312 
G01 X69.4112 Y64.2100 
G01 X69.5121 Y64.0712 
G01 X69.5900 Y63.9183 
G01 X69.6430 Y63.7552 
G01 X69.6698 Y63.5858 
G01 X69.6698 Y63.4142 
G01 X69.6430 Y63.2448 
G01 X69.5900 Y63.0817 
G01 X69.5121 Y62.9288 
G01 X69.4112 Y62.7900 
G01 X69.2900 Y62.6687 
G01 X69.1512 Y62.5679 
G01 X68.9983 Y62.4900 
G01 X68.8352 Y62.4370 
G01 X68.6658 Y62.4102 
G01 X68.4942 Y62.4102 
G01 X68.3248 Y62.4370 
G01 X68.1617 Y62.4900 
G01 X68.0088 Y62.5679 
G01 X67.8700 Y62.6687 
G01 X67.7487 Y62.7900 
G01 X67.6479 Y62.9288 
G01 X67.5700 Y63.0817 
G01 X67.5170 Y63.2448 
G01 X67.4902 Y63.4142 
G01 X67.4902 Y63.5858 
G01 X67.5170 Y63.7552 
G01 X67.5700 Y63.9183 
G01 X67.6479 Y64.0712 
G01 X67.7487 Y64.2100 
G01 X67.8700 Y64.3312 
G00 Z5.0000 
G00 X67.8700 Y61.7912 
G01 Z-0.1778 F200.00 
G01 X68.0088 Y61.8921 F100.00 
G01 X68.1617 Y61.9700 
G01 X68.3248 Y62.0230 
G01 X68.4942 Y62.0498 
G01 X68.6658 Y62.0498 
G01 X68.8352 Y62.0230 
G01 X68.9983 Y61.9700 
G01 X69.1512 Y61.8921 
G01 X69.2900 Y61.7912 
G01 X69.4112 Y61.6700 
G01 X69.5121 Y61.5312 
G01 X69.5900 Y61.3783 
G01 X69.6430 Y61.2152 
G01 X69.6698 Y61.0458 
G01 X69.6698 Y60.8742 
G01 X69.6430 Y60.7048 
G01 X69.5900 Y60.5417 
G01 X69.5121 Y60.3888 
G01 X69.4112 Y60.2500 
G01 X69.2900 Y60.1287 
G01 X69.1512 Y60.0279 
G01 X68.9983 Y59.9500 
G01 X68.8352 Y59.8970 
G01 X68.6658 Y59.8702 
G01 X68.4942 Y59.8702 
G01 X68.3248 Y59.8970 
G01 X68.1617 Y59.9500 
G01 X68.0088 Y60.0279 
G01 X67.8700 Y60.1287 
G01 X67.7487 Y60.2500 
G01 X67.6479 Y60.3888 
G01 X67.5700 Y60.5417 
G01 X67.5170 Y60.7048 
G01 X67.4902 Y60.8742 
G01 X67.4902 Y61.0458 
G01 X67.5170 Y61.2152 
G01 X67.5700 Y61.3783 
G01 X67.6479 Y61.5312 
G01 X67.7487 Y61.6700 
G01 X67.8700 Y61.7912 
G00 Z5.0000 
G00 X66.8713 Y57.8600 
G01 Z-0.1778 F200.00 
G01 X66.9721 Y57.7212 F100.00 
G01 X67.0500 Y57.5683 
G01 X67.1030 Y57.4052 
G01 X67.1298 Y57.2358 
G01 X67.1298 Y57.0642 
G01 X67.1030 Y56.8948 
G01 X67.0500 Y56.7317 
G01 X66.9721 Y56.5788 
G01 X66.8713 Y56.4400 
G01 X66.7500 Y56.3187 
G01 X66.6112 Y56.2179 
G01 X66.4583 Y56.1400 
G01 X66.2952 Y56.0870 
G01 X66.1258 Y56.0602 
G01 X65.9542 Y56.0602 
G01 X65.7848 Y56.0870 
G01 X65.6217 Y56.1400 
G01 X65.4688 Y56.2179 
G01 X65.3300 Y56.3187 
G01 X65.2087 Y56.4400 
G01 X65.1079 Y56.5788 
G01 X65.0300 Y56.7317 
G01 X64.9770 Y56.8948 
G01 X64.9502 Y57.0642 
G01 X64.9502 Y57.2358 
G01 X64.9770 Y57.4052 
G01 X65.0300 Y57.5683 
G01 X65.1079 Y57.7212 
G01 X65.2087 Y57.8600 
G01 X65.3300 Y57.9813 
G01 X65.4688 Y58.0821 
G01 X65.6217 Y58.1600 
G01 X65.7848 Y58.2130 
G01 X65.9542 Y58.2398 
G01 X66.1258 Y58.2398 
G01 X66.2952 Y58.2130 
G01 X66.4583 Y58.1600 
G01 X66.6112 Y58.0821 
G01 X66.7500 Y57.9813 
G01 X66.8713 Y57.8600 
G00 Z5.0000 
G00 X70.2887 Y57.8600 
G01 Z-0.1778 F200.00 
G01 X70.4100 Y57.9813 F100.00 
G01 X70.5488 Y58.0821 
G01 X70.7017 Y58.1600 
G01 X70.8648 Y58.2130 
G01 X71.0342 Y58.2398 
G01 X71.2058 Y58.2398 
G01 X71.3752 Y58.2130 
G01 X71.5383 Y58.1600 
G01 X71.6912 Y58.0821 
G01 X71.8300 Y57.9813 
G01 X71.9513 Y57.8600 
G01 X72.0521 Y57.7212 
G01 X72.1300 Y57.5683 
G01 X72.1830 Y57.4052 
G01 X72.2098 Y57.2358 
G01 X72.2098 Y57.0642 
G01 X72.1830 Y56.8948 
G01 X72.1300 Y56.7317 
G01 X72.0521 Y56.5788 
G01 X71.9513 Y56.4400 
G01 X71.8300 Y56.3187 
G01 X71.6912 Y56.2179 
G01 X71.5383 Y56.1400 
G01 X71.3752 Y56.0870 
G01 X71.2058 Y56.0602 
G01 X71.0342 Y56.0602 
G01 X70.8648 Y56.0870 
G01 X70.7017 Y56.1400 
G01 X70.5488 Y56.2179 
G01 X70.4100 Y56.3187 
G01 X70.2887 Y56.4400 
G01 X70.1879 Y56.5788 
G01 X70.1100 Y56.7317 
G01 X70.0570 Y56.8948 
G01 X70.0302 Y57.0642 
G01 X70.0302 Y57.2358 
G01 X70.0570 Y57.4052 
G01 X70.1100 Y57.5683 
G01 X70.1879 Y57.7212 
G01 X70.2887 Y57.8600 
G00 Z5.0000 
G00 X74.9131 Y61.1014 
G01 Z-0.1778 F200.00 
G01 X74.7768 Y61.2790 F100.00 
G01 X74.6649 Y61.4729 
G01 X74.5792 Y61.6798 
G01 X74.5212 Y61.8961 
G01 X74.4920 Y62.1180 
G01 X74.4920 Y62.3419 
G01 X74.5212 Y62.5639 
G01 X74.5792 Y62.7802 
G01 X74.6649 Y62.9871 
G01 X74.7768 Y63.1809 
G01 X74.9131 Y63.3586 
G01 X75.0714 Y63.5169 
G01 X75.2490 Y63.6532 
G01 X75.4429 Y63.7651 
G01 X75.6498 Y63.8508 
G01 X75.8661 Y63.9088 
G01 X76.0880 Y63.9380 
G01 X76.3119 Y63.9380 
G01 X76.5339 Y63.9088 
G01 X76.7502 Y63.8508 
G01 X76.9570 Y63.7651 
G01 X77.1509 Y63.6532 
G01 X77.3286 Y63.5169 
G01 X77.4869 Y63.3586 
G01 X77.6232 Y63.1809 
G01 X77.7351 Y62.9871 
G01 X77.8208 Y62.7802 
G01 X77.8788 Y62.5639 
G01 X77.9080 Y62.3419 
G01 X77.9080 Y62.1180 
G01 X77.8788 Y61.8961 
G01 X77.8208 Y61.6798 
G01 X77.7351 Y61.4729 
G01 X77.6232 Y61.2790 
G01 X77.4869 Y61.1014 
G01 X77.3286 Y60.9431 
G01 X77.1509 Y60.8068 
G01 X76.9570 Y60.6949 
G01 X76.7502 Y60.6092 
G01 X76.5339 Y60.5512 
G01 X76.3119 Y60.5220 
G01 X76.0880 Y60.5220 
G01 X75.8661 Y60.5512 
G01 X75.6498 Y60.6092 
G01 X75.4429 Y60.6949 
G01 X75.2490 Y60.8068 
G01 X75.0714 Y60.9431 
G01 X74.9131 Y61.1014 
G00 Z5.0000 
G00 X92.6931 Y63.6414 
G01 Z-0.1778 F200.00 
G01 X92.5568 Y63.8190 F100.00 
G01 X92.4449 Y64.0129 
G01 X92.3592 Y64.2198 
G01 X92.3012 Y64.4361 
G01 X92.2720 Y64.6581 
G01 X92.2720 Y64.8819 
G01 X92.3012 Y65.1039 
G01 X92.3592 Y65.3202 
G01 X92.4449 Y65.5271 
G01 X92.5568 Y65.7209 
G01 X92.6931 Y65.8986 
G01 X92.8514 Y66.0569 
G01 X93.0290 Y66.1932 
G01 X93.2229 Y66.3051 
G01 X93.4298 Y66.3908 
G01 X93.6461 Y66.4488 
G01 X93.8680 Y66.4780 
G01 X94.0919 Y66.4780 
G01 X94.3139 Y66.4488 
G01 X94.5302 Y66.3908 
G01 X94.7370 Y66.3051 
G01 X94.9309 Y66.1932 
G01 X95.1086 Y66.0569 
G01 X95.2669 Y65.8986 
G01 X95.4032 Y65.7209 
G01 X95.5151 Y65.5271 
G01 X95.6008 Y65.3202 
G01 X95.6588 Y65.1039 
G01 X95.6880 Y64.8819 
G01 X95.6880 Y64.6581 
G01 X95.6588 Y64.4361 
G01 X95.6008 Y64.2198 
G01 X95.5151 Y64.0129 
G01 X95.4032 Y63.8190 
G01 X95.2669 Y63.6414 
G01 X95.1086 Y63.4831 
G01 X94.9309 Y63.3468 
G01 X94.7370 Y63.2349 
G01 X94.5302 Y63.1492 
G01 X94.3139 Y63.0912 
G01 X94.0919 Y63.0620 
G01 X93.8680 Y63.0620 
G01 X93.6461 Y63.0912 
G01 X93.4298 Y63.1492 
G01 X93.2229 Y63.2349 
G01 X93.0290 Y63.3468 
G01 X92.8514 Y63.4831 
G01 X92.6931 Y63.6414 
G00 Z5.0000 
G00 X92.6931 Y71.2614 
G01 Z-0.1778 F200.00 
G01 X92.5568 Y71.4390 F100.00 
G01 X92.4449 Y71.6329 
G01 X92.3592 Y71.8398 
G01 X92.3012 Y72.0561 
G01 X92.2720 Y72.2780 
G01 X92.2720 Y72.5019 
G01 X92.3012 Y72.7239 
G01 X92.3592 Y72.9402 
G01 X92.4449 Y73.1470 
G01 X92.5568 Y73.3409 
G01 X92.6931 Y73.5186 
G01 X92.8514 Y73.6769 
G01 X93.0290 Y73.8132 
G01 X93.2229 Y73.9251 
G01 X93.4298 Y74.0108 
G01 X93.6461 Y74.0688 
G01 X93.8680 Y74.0980 
G01 X94.0919 Y74.0980 
G01 X94.3139 Y74.0688 
G01 X94.5302 Y74.0108 
G01 X94.7370 Y73.9251 
G01 X94.9309 Y73.8132 
G01 X95.1086 Y73.6769 
G01 X95.2669 Y73.5186 
G01 X95.4032 Y73.3409 
G01 X95.5151 Y73.1470 
G01 X95.6008 Y72.9402 
G01 X95.6588 Y72.7239 
G01 X95.6880 Y72.5019 
G01 X95.6880 Y72.2780 
G01 X95.6588 Y72.0561 
G01 X95.6008 Y71.8398 
G01 X95.5151 Y71.6329 
G01 X95.4032 Y71.4390 
G01 X95.2669 Y71.2614 
G01 X95.1086 Y71.1031 
G01 X94.9309 Y70.9668 
G01 X94.7370 Y70.8549 
G01 X94.5302 Y70.7692 
G01 X94.3139 Y70.7112 
G01 X94.0919 Y70.6820 
G01 X93.8680 Y70.6820 
G01 X93.6461 Y70.7112 
G01 X93.4298 Y70.7692 
G01 X93.2229 Y70.8549 
G01 X93.0290 Y70.9668 
G01 X92.8514 Y71.1031 
G01 X92.6931 Y71.2614 
G00 Z5.0000 
G00 X88.4203 Y28.6748 
G01 Z-0.1778 F200.00 
G01 X88.5247 Y28.5311 F100.00 
G01 X88.6053 Y28.3730 
G01 X88.6601 Y28.2041 
G01 X88.6879 Y28.0288 
G01 X88.6879 Y27.8512 
G01 X88.6601 Y27.6759 
G01 X88.6053 Y27.5070 
G01 X88.5247 Y27.3488 
G01 X88.4203 Y27.2052 
G01 X88.2948 Y27.0797 
G01 X88.1511 Y26.9753 
G01 X87.9930 Y26.8947 
G01 X87.8241 Y26.8399 
G01 X87.6488 Y26.8121 
G01 X87.4712 Y26.8121 
G01 X87.2959 Y26.8399 
G01 X87.1270 Y26.8947 
G01 X86.9689 Y26.9753 
G01 X86.8252 Y27.0797 
G01 X86.6997 Y27.2052 
G01 X86.5953 Y27.3488 
G01 X86.5147 Y27.5070 
G01 X86.4599 Y27.6759 
G01 X86.4321 Y27.8512 
G01 X86.4321 Y28.0288 
G01 X86.4599 Y28.2041 
G01 X86.5147 Y28.3730 
G01 X86.5953 Y28.5311 
G01 X86.6997 Y28.6748 
G01 X86.8252 Y28.8003 
G01 X86.9689 Y28.9047 
G01 X87.1270 Y28.9853 
G01 X87.2959 Y29.0401 
G01 X87.4712 Y29.0679 
G01 X87.6488 Y29.0679 
G01 X87.8241 Y29.0401 
G01 X87.9930 Y28.9853 
G01 X88.1511 Y28.9047 
G01 X88.2948 Y28.8003 
G01 X88.4203 Y28.6748 
G00 Z5.0000 
G00 X78.3303 Y28.6748 
G01 Z-0.1778 F200.00 
G01 X78.4347 Y28.5311 F100.00 
G01 X78.5153 Y28.3730 
G01 X78.5701 Y28.2041 
G01 X78.5979 Y28.0288 
G01 X78.5979 Y27.8512 
G01 X78.5701 Y27.6759 
G01 X78.5153 Y27.5070 
G01 X78.4347 Y27.3488 
G01 X78.3303 Y27.2052 
G01 X78.2048 Y27.0797 
G01 X78.0611 Y26.9753 
G01 X77.9030 Y26.8947 
G01 X77.7341 Y26.8399 
G01 X77.5588 Y26.8121 
G01 X77.3812 Y26.8121 
G01 X77.2059 Y26.8399 
G01 X77.0370 Y26.8947 
G01 X76.8788 Y26.9753 
G01 X76.7352 Y27.0797 
G01 X76.6097 Y27.2052 
G01 X76.5053 Y27.3488 
G01 X76.4247 Y27.5070 
G01 X76.3699 Y27.6759 
G01 X76.3421 Y27.8512 
G01 X76.3421 Y28.0288 
G01 X76.3699 Y28.2041 
G01 X76.4247 Y28.3730 
G01 X76.5053 Y28.5311 
G01 X76.6097 Y28.6748 
G01 X76.7352 Y28.8003 
G01 X76.8788 Y28.9047 
G01 X77.0370 Y28.9853 
G01 X77.2059 Y29.0401 
G01 X77.3812 Y29.0679 
G01 X77.5588 Y29.0679 
G01 X77.7341 Y29.0401 
G01 X77.9030 Y28.9853 
G01 X78.0611 Y28.9047 
G01 X78.2048 Y28.8003 
G01 X78.3303 Y28.6748 
G00 Z5.0000 
G00 X74.9469 Y13.8286 
G01 Z-0.1778 F200.00 
G01 X75.0832 Y13.6509 F100.00 
G01 X75.1951 Y13.4571 
G01 X75.2808 Y13.2502 
G01 X75.3388 Y13.0339 
G01 X75.3680 Y12.8119 
G01 X75.3680 Y12.5881 
G01 X75.3388 Y12.3661 
G01 X75.2808 Y12.1498 
G01 X75.1951 Y11.9429 
G01 X75.0832 Y11.7491 
G01 X74.9469 Y11.5714 
G01 X74.7886 Y11.4131 
G01 X74.6109 Y11.2768 
G01 X74.4171 Y11.1649 
G01 X74.2102 Y11.0792 
G01 X73.9939 Y11.0212 
G01 X73.7719 Y10.9920 
G01 X73.5481 Y10.9920 
G01 X73.3261 Y11.0212 
G01 X73.1098 Y11.0792 
G01 X72.9029 Y11.1649 
G01 X72.7091 Y11.2768 
G01 X72.5314 Y11.4131 
G01 X72.3731 Y11.5714 
G01 X72.2368 Y11.7491 
G01 X72.1249 Y11.9429 
G01 X72.0392 Y12.1498 
G01 X71.9812 Y12.3661 
G01 X71.9520 Y12.5881 
G01 X71.9520 Y12.8119 
G01 X71.9812 Y13.0339 
G01 X72.0392 Y13.2502 
G01 X72.1249 Y13.4571 
G01 X72.2368 Y13.6509 
G01 X72.3731 Y13.8286 
G01 X72.5314 Y13.9869 
G01 X72.7091 Y14.1232 
G01 X72.9029 Y14.2351 
G01 X73.1098 Y14.3208 
G01 X73.3261 Y14.3788 
G01 X73.5481 Y14.4080 
G01 X73.7719 Y14.4080 
G01 X73.9939 Y14.3788 
G01 X74.2102 Y14.3208 
G01 X74.4171 Y14.2351 
G01 X74.6109 Y14.1232 
G01 X74.7886 Y13.9869 
G01 X74.9469 Y13.8286 
G00 Z5.0000 
G00 X74.9469 Y6.2086 
G01 Z-0.1778 F200.00 
G01 X75.0832 Y6.0309 F100.00 
G01 X75.1951 Y5.8370 
G01 X75.2808 Y5.6302 
G01 X75.3388 Y5.4139 
G01 X75.3680 Y5.1919 
G01 X75.3680 Y4.9680 
G01 X75.3388 Y4.7461 
G01 X75.2808 Y4.5298 
G01 X75.1951 Y4.3229 
G01 X75.0832 Y4.1291 
G01 X74.9469 Y3.9514 
G01 X74.7886 Y3.7931 
G01 X74.6109 Y3.6568 
G01 X74.4171 Y3.5449 
G01 X74.2102 Y3.4592 
G01 X73.9939 Y3.4012 
G01 X73.7719 Y3.3720 
G01 X73.5481 Y3.3720 
G01 X73.3261 Y3.4012 
G01 X73.1098 Y3.4592 
G01 X72.9029 Y3.5449 
G01 X72.7091 Y3.6568 
G01 X72.5314 Y3.7931 
G01 X72.3731 Y3.9514 
G01 X72.2368 Y4.1291 
G01 X72.1249 Y4.3229 
G01 X72.0392 Y4.5298 
G01 X71.9812 Y4.7461 
G01 X71.9520 Y4.9680 
G01 X71.9520 Y5.1919 
G01 X71.9812 Y5.4139 
G01 X72.0392 Y5.6302 
G01 X72.1249 Y5.8370 
G01 X72.2368 Y6.0309 
G01 X72.3731 Y6.2086 
G01 X72.5314 Y6.3669 
G01 X72.7091 Y6.5032 
G01 X72.9029 Y6.6151 
G01 X73.1098 Y6.7008 
G01 X73.3261 Y6.7588 
G01 X73.5481 Y6.7880 
G01 X73.7719 Y6.7880 
G01 X73.9939 Y6.7588 
G01 X74.2102 Y6.7008 
G01 X74.4171 Y6.6151 
G01 X74.6109 Y6.5032 
G01 X74.7886 Y6.3669 
G01 X74.9469 Y6.2086 
G00 Z5.0000 
G00 X95.8109 Y8.3914 
G01 Z-0.1778 F200.00 
G01 X95.6254 Y8.6241 F100.00 
G01 X95.4670 Y8.8761 
G01 X95.3379 Y9.1443 
G01 X95.2396 Y9.4252 
G01 X95.1733 Y9.7154 
G01 X95.1400 Y10.0112 
G01 X95.1400 Y10.3088 
G01 X95.1733 Y10.6046 
G01 X95.2396 Y10.8948 
G01 X95.3379 Y11.1757 
G01 X95.4670 Y11.4439 
G01 X95.6254 Y11.6959 
G01 X95.8109 Y11.9286 
G01 X96.0214 Y12.1391 
G01 X96.2541 Y12.3246 
G01 X96.5061 Y12.4830 
G01 X96.7743 Y12.6121 
G01 X97.0552 Y12.7104 
G01 X97.3454 Y12.7767 
G01 X97.6412 Y12.8100 
G01 X97.9388 Y12.8100 
G01 X98.2346 Y12.7767 
G01 X98.5248 Y12.7104 
G01 X98.8057 Y12.6121 
G01 X99.0739 Y12.4830 
G01 X99.3259 Y12.3246 
G01 X99.5586 Y12.1391 
G01 X99.7691 Y11.9286 
G01 X99.9546 Y11.6959 
G01 X100.1130 Y11.4439 
G01 X100.2421 Y11.1757 
G01 X100.3404 Y10.8948 
G01 X100.4067 Y10.6046 
G01 X100.4400 Y10.3088 
G01 X100.4400 Y10.0112 
G01 X100.4067 Y9.7154 
G01 X100.3404 Y9.4252 
G01 X100.2421 Y9.1443 
G01 X100.1130 Y8.8761 
G01 X99.9546 Y8.6241 
G01 X99.7691 Y8.3914 
G01 X99.5586 Y8.1809 
G01 X99.3259 Y7.9954 
G01 X99.0739 Y7.8370 
G01 X98.8057 Y7.7079 
G01 X98.5248 Y7.6096 
G01 X98.2346 Y7.5433 
G01 X97.9388 Y7.5100 
G01 X97.6412 Y7.5100 
G01 X97.3454 Y7.5433 
G01 X97.0552 Y7.6096 
G01 X96.7743 Y7.7079 
G01 X96.5061 Y7.8370 
G01 X96.2541 Y7.9954 
G01 X96.0214 Y8.1809 
G01 X95.8109 Y8.3914 
G00 Z5.0000 
G00 X92.5686 Y13.9531 
G01 Z-0.1778 F200.00 
G01 X92.3909 Y13.8168 F100.00 
G01 X92.1971 Y13.7049 
G01 X91.9902 Y13.6192 
G01 X91.7739 Y13.5612 
G01 X91.5519 Y13.5320 
G01 X91.3281 Y13.5320 
G01 X91.1061 Y13.5612 
G01 X90.8898 Y13.6192 
G01 X90.6829 Y13.7049 
G01 X90.4891 Y13.8168 
G01 X90.3114 Y13.9531 
G01 X90.1531 Y14.1114 
G01 X90.0168 Y14.2890 
G01 X89.9049 Y14.4829 
G01 X89.8192 Y14.6898 
G01 X89.7612 Y14.9061 
G01 X89.7320 Y15.1280 
G01 X89.7320 Y15.3519 
G01 X89.7612 Y15.5739 
G01 X89.8192 Y15.7902 
G01 X89.9049 Y15.9970 
G01 X90.0168 Y16.1909 
G01 X90.1531 Y16.3686 
G01 X90.3114 Y16.5269 
G01 X90.4891 Y16.6632 
G01 X90.6829 Y16.7751 
G01 X90.8898 Y16.8608 
G01 X91.1061 Y16.9188 
G01 X91.3281 Y16.9480 
G01 X91.5519 Y16.9480 
G01 X91.7739 Y16.9188 
G01 X91.9902 Y16.8608 
G01 X92.1971 Y16.7751 
G01 X92.3909 Y16.6632 
G01 X92.5686 Y16.5269 
G01 X92.7269 Y16.3686 
G01 X92.8632 Y16.1909 
G01 X92.9751 Y15.9970 
G01 X93.0608 Y15.7902 
G01 X93.1188 Y15.5739 
G01 X93.1480 Y15.3519 
G01 X93.1480 Y15.1280 
G01 X93.1188 Y14.9061 
G01 X93.0608 Y14.6898 
G01 X92.9751 Y14.4829 
G01 X92.8632 Y14.2890 
G01 X92.7269 Y14.1114 
G01 X92.5686 Y13.9531 
G00 Z5.0000 
G00 X95.8109 Y17.2814 
G01 Z-0.1778 F200.00 
G01 X95.6254 Y17.5141 F100.00 
G01 X95.4670 Y17.7661 
G01 X95.3379 Y18.0343 
G01 X95.2396 Y18.3152 
G01 X95.1733 Y18.6054 
G01 X95.1400 Y18.9012 
G01 X95.1400 Y19.1988 
G01 X95.1733 Y19.4946 
G01 X95.2396 Y19.7848 
G01 X95.3379 Y20.0657 
G01 X95.4670 Y20.3339 
G01 X95.6254 Y20.5859 
G01 X95.8109 Y20.8186 
G01 X96.0214 Y21.0291 
G01 X96.2541 Y21.2146 
G01 X96.5061 Y21.3730 
G01 X96.7743 Y21.5021 
G01 X97.0552 Y21.6004 
G01 X97.3454 Y21.6667 
G01 X97.6412 Y21.7000 
G01 X97.9388 Y21.7000 
G01 X98.2346 Y21.6667 
G01 X98.5248 Y21.6004 
G01 X98.8057 Y21.5021 
G01 X99.0739 Y21.3730 
G01 X99.3259 Y21.2146 
G01 X99.5586 Y21.0291 
G01 X99.7691 Y20.8186 
G01 X99.9546 Y20.5859 
G01 X100.1130 Y20.3339 
G01 X100.2421 Y20.0657 
G01 X100.3404 Y19.7848 
G01 X100.4067 Y19.4946 
G01 X100.4400 Y19.1988 
G01 X100.4400 Y18.9012 
G01 X100.4067 Y18.6054 
G01 X100.3404 Y18.3152 
G01 X100.2421 Y18.0343 
G01 X100.1130 Y17.7661 
G01 X99.9546 Y17.5141 
G01 X99.7691 Y17.2814 
G01 X99.5586 Y17.0709 
G01 X99.3259 Y16.8854 
G01 X99.0739 Y16.7270 
G01 X98.8057 Y16.5979 
G01 X98.5248 Y16.4996 
G01 X98.2346 Y16.4333 
G01 X97.9388 Y16.4000 
G01 X97.6412 Y16.4000 
G01 X97.3454 Y16.4333 
G01 X97.0552 Y16.4996 
G01 X96.7743 Y16.5979 
G01 X96.5061 Y16.7270 
G01 X96.2541 Y16.8854 
G01 X96.0214 Y17.0709 
G01 X95.8109 Y17.2814 
G00 Z5.0000 
G00 X61.6865 Y32.1694 
G01 Z-0.1778 F200.00 
G01 X61.5445 Y32.0662 F100.00 
G01 X61.3881 Y31.9865 
G01 X61.2211 Y31.9323 
G01 X61.0478 Y31.9048 
G01 X60.8722 Y31.9048 
G01 X60.6989 Y31.9323 
G01 X60.5319 Y31.9865 
G01 X60.3755 Y32.0662 
G01 X60.2335 Y32.1694 
G01 X60.1094 Y32.2935 
G01 X60.0062 Y32.4355 
G01 X59.9265 Y32.5919 
G01 X59.8723 Y32.7589 
G01 X59.8448 Y32.9322 
G01 X59.8448 Y33.1078 
G01 X59.8723 Y33.2811 
G01 X59.9265 Y33.4481 
G01 X60.0062 Y33.6045 
G01 X60.1094 Y33.7465 
G01 X60.2335 Y33.8706 
G01 X60.3755 Y33.9738 
G01 X60.5319 Y34.0535 
G01 X60.6989 Y34.1077 
G01 X60.8722 Y34.1352 
G01 X61.0478 Y34.1352 
G01 X61.2211 Y34.1077 
G01 X61.3881 Y34.0535 
G01 X61.5445 Y33.9738 
